matheussooares/kinematics-robotics/src/data/ready/dataset_10mm.csv
theta_1,theta_2,theta_3,theta_4,theta_5,R_11,R_12,R_13,p_x,R_21,R_22,R_23,p_y,R_31,R_32,R_33,p_z
0,0,12,0,0,0.207911690817759,0.0,0.978147600733806,53.213313626417,0.0,-1.0,0.0,0.0,0.978147600733806,0,-0.207911690817759,2.51517913056066
0,12,12,0,0,6.12323399573677e-17,0.0,1.0,53.6066568132085,0.0,-1.0,0.0,0.0,1.0,0,-6.12323399573677e-17,13.7424104347197
0,12,24,0,0,0.207911690817759,0.0,0.978147600733806,52.8199704396255,0.0,-1.0,0.0,0.0,0.978147600733806,0,-0.207911690817759,6.25758956528033
0,12,24,12,0,6.12323399573677e-17,0.0,1.0,53.213313626417,0.0,-1.0,0.0,0.0,1.0,0,-6.12323399573677e-17,10.0
0,12,36,12,0,0.207911690817759,0.0,0.978147600733806,51.6571318639838,0.0,-1.0,0.0,0.0,0.978147600733806,0,-0.207911690817759,2.6787404246356
0,12,60,48,0,-1.0530111373640599e-16,0.0,1.0,47.651007727668,0.0,-1.0,0.0,0.0,1.0,0,1.0530111373640599e-16,0.365803576126575
0,24,12,0,0,-0.207911690817759,0.0,0.978147600733806,51.6571318639838,0.0,-1.0,0.0,0.0,0.978147600733806,0,0.207911690817759,24.8060804448037
0,24,24,0,0,6.12323399573677e-17,0.0,1.0,52.4438182375668,0.0,-1.0,0.0,0.0,1.0,0,-6.12323399573677e-17,17.3212595753644
0,24,24,12,0,-0.207911690817759,0.0,0.978147600733806,52.0504750507753,0.0,-1.0,0.0,0.0,0.978147600733806,0,0.207911690817759,21.0636700100841
0,24,36,0,0,0.207911690817759,0.0,0.978147600733806,51.6571318639838,0.0,-1.0,0.0,0.0,0.978147600733806,0,-0.207911690817759,9.83643870592507
0,24,36,12,0,5.7211887261098295e-18,0.0,1.0,52.0504750507753,0.0,-1.0,0.0,0.0,1.0,0,-5.7211887261098295e-18,13.5788491406447
0,24,48,0,0,0.4067366430758,0.0,0.913545457642601,49.3314547127004,0.0,-1.0,0.0,0.0,0.913545457642601,0,-0.4067366430758,2.6787404246356
0,24,48,12,0,0.207911690817759,0.0,0.978147600733806,50.4942932883421,0.0,-1.0,0.0,0.0,0.978147600733806,0,-0.207911690817759,6.25758956528033
0,24,72,36,0,0.207911690817759,0.0,0.978147600733806,46.0948259652348,0.0,-1.0,0.0,0.0,0.978147600733806,0,-0.207911690817759,0.20224228205164
0,24,72,48,0,-4.9789962505148e-17,0.0,1.0,46.4881691520263,0.0,-1.0,0.0,0.0,1.0,0,4.9789962505148e-17,3.94465271677131
0,24,72,60,0,-0.207911690817759,0.0,0.978147600733806,46.0948259652348,0.0,-1.0,0.0,0.0,0.978147600733806,0,0.207911690817759,7.68706315149097
0,24,84,60,0,1.72254642419883e-16,0.0,1.0,43.4438182375668,0.0,-1.0,0.0,0.0,1.0,0,-1.72254642419883e-16,1.73280230724451
0,24,96,72,0,1.72254642419883e-16,0.0,1.0,40.0061241363159,0.0,-1.0,0.0,0.0,1.0,0,-1.72254642419883e-16,0.202242282051636
0,36,12,0,0,-0.4067366430758,0.0,0.913545457642601,47.4499423738827,0.0,-1.0,0.0,0.0,0.913545457642601,0,0.4067366430758,35.2226536919933
0,36,24,0,0,-0.207911690817759,0.0,0.978147600733806,49.7756195251661,0.0,-1.0,0.0,0.0,0.978147600733806,0,0.207911690817759,28.0649554107038
0,36,24,12,0,-0.4067366430758,0.0,0.913545457642601,48.6127809495244,0.0,-1.0,0.0,0.0,0.913545457642601,0,0.4067366430758,31.6438045513486
0,36,36,0,0,6.12323399573677e-17,0.0,1.0,50.5623058987491,0.0,-1.0,0.0,0.0,1.0,0,-6.12323399573677e-17,20.5801345412645
0,36,36,12,0,-0.207911690817759,0.0,0.978147600733806,50.1689627119576,0.0,-1.0,0.0,0.0,0.978147600733806,0,0.207911690817759,24.3225449759842
0,36,48,0,0,0.207911690817759,0.0,0.978147600733806,49.7756195251661,0.0,-1.0,0.0,0.0,0.978147600733806,0,-0.207911690817759,13.0953136718252
0,36,48,12,0,1.16743491188625e-16,0.0,1.0,50.1689627119576,0.0,-1.0,0.0,0.0,1.0,0,-1.16743491188625e-16,16.8377241065448
0,36,60,0,0,0.4067366430758,0.0,0.913545457642601,47.4499423738827,0.0,-1.0,0.0,0.0,0.913545457642601,0,-0.4067366430758,5.93761539053571
0,36,60,12,0,0.207911690817759,0.0,0.978147600733806,48.6127809495244,0.0,-1.0,0.0,0.0,0.978147600733806,0,-0.207911690817759,9.51646453118045
0,36,72,12,0,0.4067366430758,0.0,0.913545457642601,45.5684300350649,0.0,-1.0,0.0,0.0,0.913545457642601,0,-0.4067366430758,2.6787404246356
0,36,72,36,0,6.12323399573677e-17,0.0,1.0,47.1246117974981,0.0,-1.0,0.0,0.0,1.0,0,-6.12323399573677e-17,10.0
0,36,72,48,0,-0.207911690817759,0.0,0.978147600733806,46.7312686107066,0.0,-1.0,0.0,0.0,0.978147600733806,0,0.207911690817759,13.7424104347197
0,36,72,60,0,-0.4067366430758,0.0,0.913545457642601,45.5684300350649,0.0,-1.0,0.0,0.0,0.913545457642601,0,0.4067366430758,17.3212595753644
0,36,84,36,0,0.207911690817759,0.0,0.978147600733806,44.213313626417,0.0,-1.0,0.0,0.0,0.978147600733806,0,-0.207911690817759,3.46111724795175
0,36,84,48,0,6.12323399573677e-17,0.0,1.0,44.6066568132085,0.0,-1.0,0.0,0.0,1.0,0,-6.12323399573677e-17,7.20352768267142
0,36,84,60,0,-0.207911690817759,0.0,0.978147600733806,44.213313626417,0.0,-1.0,0.0,0.0,0.978147600733806,0,0.207911690817759,10.9459381173911
0,36,96,60,0,2.83276944882399e-16,0.0,1.0,41.5623058987491,0.0,-1.0,0.0,0.0,1.0,0,-2.83276944882399e-16,4.99167727314461
0,48,12,0,0,-0.587785252292473,0.0,0.809016994374947,41.1689627119576,0.0,-1.0,0.0,0.0,0.809016994374947,0,0.587785252292473,44.5368759411221
0,48,24,0,0,-0.4067366430758,0.0,0.913545457642601,44.9319873895931,0.0,-1.0,0.0,0.0,0.913545457642601,0,0.4067366430758,38.0191260093219
0,48,24,12,0,-0.587785252292473,0.0,0.809016994374947,43.0504750507753,0.0,-1.0,0.0,0.0,0.809016994374947,0,0.587785252292473,41.278000975222
0,48,36,0,0,-0.207911690817759,0.0,0.978147600733806,47.2576645408764,0.0,-1.0,0.0,0.0,0.978147600733806,0,0.207911690817759,30.8614277280324
0,48,36,12,0,-0.4067366430758,0.0,0.913545457642601,46.0948259652348,0.0,-1.0,0.0,0.0,0.913545457642601,0,0.4067366430758,34.4402768686772
0,48,48,0,0,6.12323399573677e-17,0.0,1.0,48.0443509144595,0.0,-1.0,0.0,0.0,1.0,0,-6.12323399573677e-17,23.3766068585931
0,48,48,12,0,-0.207911690817759,0.0,0.978147600733806,47.6510077276679,0.0,-1.0,0.0,0.0,0.978147600733806,0,0.207911690817759,27.1190172933128
0,48,60,0,0,0.207911690817759,0.0,0.978147600733806,47.2576645408764,0.0,-1.0,0.0,0.0,0.978147600733806,0,-0.207911690817759,15.8917859891538
0,48,60,12,0,-1.0530111373640599e-16,0.0,1.0,47.651007727668,0.0,-1.0,0.0,0.0,1.0,0,1.0530111373640599e-16,19.6341964238734
0,48,72,0,0,0.4067366430758,0.0,0.913545457642601,44.9319873895931,0.0,-1.0,0.0,0.0,0.913545457642601,0,-0.4067366430758,8.73408770786429
0,48,72,12,0,0.207911690817759,0.0,0.978147600733806,46.0948259652348,0.0,-1.0,0.0,0.0,0.978147600733806,0,-0.207911690817759,12.312936848509
0,48,72,36,0,-0.207911690817759,0.0,0.978147600733806,46.0948259652348,0.0,-1.0,0.0,0.0,0.978147600733806,0,0.207911690817759,19.7977577179484
0,48,72,48,0,-0.4067366430758,0.0,0.913545457642601,44.9319873895931,0.0,-1.0,0.0,0.0,0.913545457642601,0,0.4067366430758,23.3766068585931
0,48,72,60,0,-0.587785252292473,0.0,0.809016994374947,43.0504750507753,0.0,-1.0,0.0,0.0,0.809016994374947,0,0.587785252292473,26.6354818244932
0,48,84,0,0,0.587785252292473,0.0,0.809016994374947,41.1689627119576,0.0,-1.0,0.0,0.0,0.809016994374947,0,-0.587785252292473,2.21633777606406
0,48,84,12,0,0.4067366430758,0.0,0.913545457642601,43.0504750507753,0.0,-1.0,0.0,0.0,0.913545457642601,0,-0.4067366430758,5.47521274196418
0,48,84,36,0,6.12323399573677e-17,0.0,1.0,44.6066568132085,0.0,-1.0,0.0,0.0,1.0,0,-6.12323399573677e-17,12.7964723173286
0,48,84,48,0,-0.207911690817759,0.0,0.978147600733806,44.213313626417,0.0,-1.0,0.0,0.0,0.978147600733806,0,0.207911690817759,16.5388827520482
0,48,84,60,0,-0.4067366430758,0.0,0.913545457642601,43.0504750507753,0.0,-1.0,0.0,0.0,0.913545457642601,0,0.4067366430758,20.117731892693
0,48,96,36,0,0.207911690817759,0.0,0.978147600733806,41.6953586421274,0.0,-1.0,0.0,0.0,0.978147600733806,0,-0.207911690817759,6.25758956528033
0,48,96,60,0,-0.207911690817759,0.0,0.978147600733806,41.6953586421274,0.0,-1.0,0.0,0.0,0.978147600733806,0,0.207911690817759,13.7424104347197
0,48,108,36,0,0.4067366430758,0.0,0.913545457642601,37.4881691520263,0.0,-1.0,0.0,0.0,0.913545457642601,0,-0.4067366430758,0.466890015108799
0,60,12,0,0,-0.743144825477394,0.0,0.669130606358858,33.0887018289189,0.0,-1.0,0.0,0.0,0.669130606358858,0,0.743144825477394,52.3416709853061
0,60,24,0,0,-0.587785252292473,0.0,0.809016994374948,38.1246117974981,0.0,-1.0,0.0,0.0,0.809016994374948,0,0.587785252292473,46.7487263506489
0,60,24,12,0,-0.743144825477394,0.0,0.669130606358858,35.6066568132085,0.0,-1.0,0.0,0.0,0.669130606358858,0,0.743144825477394,49.5451986679775
0,60,36,0,0,-0.4067366430758,0.0,0.913545457642601,41.8876364751336,0.0,-1.0,0.0,0.0,0.913545457642601,0,0.4067366430758,40.2309764188487
0,60,36,12,0,-0.587785252292473,0.0,0.809016994374947,40.0061241363159,0.0,-1.0,0.0,0.0,0.809016994374947,0,0.587785252292473,43.4898513847488
0,60,48,0,0,-0.207911690817759,0.0,0.978147600733806,44.213313626417,0.0,-1.0,0.0,0.0,0.978147600733806,0,0.207911690817759,33.0732781375592
0,60,48,12,0,-0.4067366430758,0.0,0.913545457642601,43.0504750507753,0.0,-1.0,0.0,0.0,0.913545457642601,0,0.4067366430758,36.652127278204
0,60,60,0,0,6.12323399573677e-17,0.0,1.0,45.0,0.0,-1.0,0.0,0.0,1.0,0,-6.12323399573677e-17,25.5884572681199
0,60,60,12,0,-0.207911690817759,0.0,0.978147600733806,44.6066568132085,0.0,-1.0,0.0,0.0,0.978147600733806,0,0.207911690817759,29.3308677028396
0,60,72,0,0,0.207911690817759,0.0,0.978147600733806,44.213313626417,0.0,-1.0,0.0,0.0,0.978147600733806,0,-0.207911690817759,18.1036363986806
0,60,72,12,0,1.16743491188625e-16,0.0,1.0,44.6066568132085,0.0,-1.0,0.0,0.0,1.0,0,-1.16743491188625e-16,21.8460468334002
0,60,72,36,0,-0.4067366430758,0.0,0.913545457642601,43.0504750507753,0.0,-1.0,0.0,0.0,0.913545457642601,0,0.4067366430758,29.1673064087646
0,60,72,48,0,-0.587785252292473,0.0,0.809016994374947,41.1689627119576,0.0,-1.0,0.0,0.0,0.809016994374947,0,0.587785252292473,32.4261813746647
0,60,72,60,0,-0.743144825477394,0.0,0.669130606358858,38.651007727668,0.0,-1.0,0.0,0.0,0.669130606358858,0,0.743144825477394,35.2226536919933
0,60,84,0,0,0.4067366430758,0.0,0.913545457642601,41.8876364751336,0.0,-1.0,0.0,0.0,0.913545457642601,0,-0.4067366430758,10.9459381173911
0,60,84,12,0,0.20791169081776,0.0,0.978147600733806,43.0504750507753,0.0,-1.0,0.0,0.0,0.978147600733806,0,-0.20791169081776,14.5247872580358
0,60,84,36,0,-0.207911690817759,0.0,0.978147600733806,43.0504750507753,0.0,-1.0,0.0,0.0,0.978147600733806,0,0.207911690817759,22.0096081274752
0,60,84,48,0,-0.4067366430758,0.0,0.913545457642601,41.8876364751336,0.0,-1.0,0.0,0.0,0.913545457642601,0,0.4067366430758,25.5884572681199
0,60,84,60,0,-0.587785252292473,0.0,0.809016994374948,40.0061241363159,0.0,-1.0,0.0,0.0,0.809016994374948,0,0.587785252292473,28.84733223402
0,60,96,0,0,0.587785252292473,0.0,0.809016994374947,38.1246117974981,0.0,-1.0,0.0,0.0,0.809016994374947,0,-0.587785252292473,4.42818818559086
0,60,96,12,0,0.4067366430758,0.0,0.913545457642601,40.0061241363159,0.0,-1.0,0.0,0.0,0.913545457642601,0,-0.4067366430758,7.68706315149097
0,60,96,36,0,2.83276944882399e-16,0.0,1.0,41.5623058987491,0.0,-1.0,0.0,0.0,1.0,0,-2.83276944882399e-16,15.0083227268554
0,60,96,60,0,-0.4067366430758,0.0,0.913545457642601,40.0061241363159,0.0,-1.0,0.0,0.0,0.913545457642601,0,0.4067366430758,22.3295823022198
0,60,108,12,0,0.587785252292473,0.0,0.809016994374947,35.6066568132085,0.0,-1.0,0.0,0.0,0.809016994374947,0,-0.587785252292473,1.63171586826228
0,72,12,0,0,-0.866025403784439,0.0,0.5,23.5623058987491,0.0,-1.0,0.0,0.0,0.5,0,0.866025403784439,58.2959318295526
0,72,24,0,0,-0.743144825477394,0.0,0.669130606358858,29.651007727668,0.0,-1.0,0.0,0.0,0.669130606358858,0,0.743144825477394,53.872231010499
0,72,24,12,0,-0.866025403784439,0.0,0.5,26.6066568132085,0.0,-1.0,0.0,0.0,0.5,0,0.866025403784439,56.0840814200258
0,72,36,0,0,-0.587785252292473,0.0,0.809016994374947,34.6869176962472,0.0,-1.0,0.0,0.0,0.809016994374947,0,0.587785252292473,48.2792863758418
0,72,36,12,0,-0.743144825477394,0.0,0.669130606358858,32.1689627119576,0.0,-1.0,0.0,0.0,0.669130606358858,0,0.743144825477394,51.0757586931704
0,72,48,0,0,-0.4067366430758,0.0,0.913545457642601,38.4499423738827,0.0,-1.0,0.0,0.0,0.913545457642601,0,0.4067366430758,41.7615364440416
0,72,48,12,0,-0.587785252292473,0.0,0.809016994374947,36.5684300350649,0.0,-1.0,0.0,0.0,0.809016994374947,0,0.587785252292473,45.0204114099417
0,72,60,0,0,-0.207911690817759,0.0,0.978147600733806,40.7756195251661,0.0,-1.0,0.0,0.0,0.978147600733806,0,0.207911690817759,34.6038381627521
0,72,60,12,0,-0.4067366430758,0.0,0.913545457642601,39.6127809495244,0.0,-1.0,0.0,0.0,0.913545457642601,0,0.4067366430758,38.1826873033968
0,72,72,0,0,6.12323399573677e-17,0.0,1.0,41.5623058987491,0.0,-1.0,0.0,0.0,1.0,0,-6.12323399573677e-17,27.1190172933128
0,72,72,12,0,-0.207911690817759,0.0,0.978147600733806,41.1689627119576,0.0,-1.0,0.0,0.0,0.978147600733806,0,0.207911690817759,30.8614277280324
0,72,72,36,0,-0.587785252292473,0.0,0.809016994374947,38.1246117974981,0.0,-1.0,0.0,0.0,0.809016994374947,0,0.587785252292473,37.6991518345773
0,72,72,48,0,-0.743144825477394,0.0,0.669130606358858,35.6066568132085,0.0,-1.0,0.0,0.0,0.669130606358858,0,0.743144825477394,40.4956241519059
0,72,72,60,0,-0.866025403784439,0.0,0.5,32.5623058987491,0.0,-1.0,0.0,0.0,0.5,0,0.866025403784439,42.7074745614327
0,72,84,0,0,0.207911690817759,0.0,0.978147600733806,40.7756195251661,0.0,-1.0,0.0,0.0,0.978147600733806,0,-0.207911690817759,19.6341964238734
0,72,84,12,0,1.16743491188625e-16,0.0,1.0,41.1689627119576,0.0,-1.0,0.0,0.0,1.0,0,-1.16743491188625e-16,23.3766068585931
0,72,84,36,0,-0.4067366430758,0.0,0.913545457642601,39.6127809495244,0.0,-1.0,0.0,0.0,0.913545457642601,0,0.4067366430758,30.6978664339575
0,72,84,48,0,-0.587785252292473,0.0,0.809016994374947,37.7312686107066,0.0,-1.0,0.0,0.0,0.809016994374947,0,0.587785252292473,33.9567413998576
0,72,84,60,0,-0.743144825477394,0.0,0.669130606358858,35.213313626417,0.0,-1.0,0.0,0.0,0.669130606358858,0,0.743144825477394,36.7532137171862
0,72,96,0,0,0.4067366430758,0.0,0.913545457642601,38.4499423738827,0.0,-1.0,0.0,0.0,0.913545457642601,0,-0.4067366430758,12.476498142584
0,72,96,12,0,0.20791169081776,0.0,0.978147600733806,39.6127809495244,0.0,-1.0,0.0,0.0,0.978147600733806,0,-0.20791169081776,16.0553472832287
0,72,96,36,0,-0.207911690817759,0.0,0.978147600733806,39.6127809495244,0.0,-1.0,0.0,0.0,0.978147600733806,0,0.207911690817759,23.540168152668
0,72,96,60,0,-0.587785252292473,0.0,0.809016994374948,36.5684300350649,0.0,-1.0,0.0,0.0,0.809016994374948,0,0.587785252292473,30.3778922592129
0,72,108,0,0,0.587785252292473,0.0,0.809016994374947,34.6869176962472,0.0,-1.0,0.0,0.0,0.809016994374947,0,-0.587785252292473,5.95874821078373
0,72,108,12,0,0.4067366430758,0.0,0.913545457642601,36.5684300350649,0.0,-1.0,0.0,0.0,0.913545457642601,0,-0.4067366430758,9.21762317668384
0,72,120,0,0,0.743144825477394,0.0,0.669130606358858,29.651007727668,0.0,-1.0,0.0,0.0,0.669130606358858,0,-0.743144825477394,0.365803576126575
0,72,120,12,0,0.587785252292473,0.0,0.809016994374947,32.1689627119576,0.0,-1.0,0.0,0.0,0.809016994374947,0,-0.587785252292473,3.16227589345516
0,72,120,120,0,-0.951056516295154,0.0,0.309016994374948,23.1689627119576,0.0,-1.0,0.0,0.0,0.309016994374948,0,0.951056516295154,30.8614277280324
0,84,0,120,0,0.4067366430758,0.0,-0.913545457642601,-12.6807935599313,0.0,-1.0,0.0,0.0,-0.913545457642601,0,-0.4067366430758,38.4815286578934
0,84,12,0,0,-0.951056516295154,0.0,0.309016994374947,13.0061241363159,0.0,-1.0,0.0,0.0,0.309016994374947,0,0.951056516295154,62.1394287032544
0,84,24,0,0,-0.866025403784439,0.0,0.5,19.8815123388178,0.0,-1.0,0.0,0.0,0.5,0,0.866025403784439,59.0783086528687
0,84,24,12,0,-0.951056516295154,0.0,0.309016994374947,16.4438182375668,0.0,-1.0,0.0,0.0,0.309016994374947,0,0.951056516295154,60.6088686780616
0,84,36,0,0,-0.743144825477394,0.0,0.669130606358858,25.9702141677367,0.0,-1.0,0.0,0.0,0.669130606358858,0,0.743144825477394,54.6546078338151
0,84,36,12,0,-0.866025403784439,0.0,0.5,22.9258632532772,0.0,-1.0,0.0,0.0,0.5,0,0.866025403784439,56.8664582433419
0,84,48,0,0,-0.587785252292473,0.0,0.809016994374947,31.0061241363159,0.0,-1.0,0.0,0.0,0.809016994374947,0,0.587785252292473,49.0616631991579
0,84,48,12,0,-0.743144825477394,0.0,0.669130606358858,28.4881691520263,0.0,-1.0,0.0,0.0,0.669130606358858,0,0.743144825477394,51.8581355164865
0,84,60,0,0,-0.4067366430758,0.0,0.913545457642601,34.7691488139514,0.0,-1.0,0.0,0.0,0.913545457642601,0,0.4067366430758,42.5439132673577
0,84,60,12,0,-0.587785252292473,0.0,0.809016994374947,32.8876364751336,0.0,-1.0,0.0,0.0,0.809016994374947,0,0.587785252292473,45.8027882332578
0,84,72,0,0,-0.207911690817759,0.0,0.978147600733806,37.0948259652348,0.0,-1.0,0.0,0.0,0.978147600733806,0,0.207911690817759,35.3862149860683
0,84,72,12,0,-0.4067366430758,0.0,0.913545457642601,35.9319873895931,0.0,-1.0,0.0,0.0,0.913545457642601,0,0.4067366430758,38.965064126713
0,84,72,36,0,-0.743144825477394,0.0,0.669130606358858,31.5325200664857,0.0,-1.0,0.0,0.0,0.669130606358858,0,0.743144825477394,45.0204114099417
0,84,72,48,0,-0.866025403784439,0.0,0.5,28.4881691520263,0.0,-1.0,0.0,0.0,0.5,0,0.866025403784439,47.2322618194685
0,84,72,60,0,-0.951056516295154,0.0,0.309016994374948,25.0504750507753,0.0,-1.0,0.0,0.0,0.309016994374948,0,0.951056516295154,48.7628218446614
0,84,84,0,0,6.12323399573677e-17,0.0,1.0,37.8815123388178,0.0,-1.0,0.0,0.0,1.0,0,-6.12323399573677e-17,27.9013941166289
0,84,84,12,0,-0.207911690817759,0.0,0.978147600733806,37.4881691520263,0.0,-1.0,0.0,0.0,0.978147600733806,0,0.207911690817759,31.6438045513486
0,84,84,36,0,-0.587785252292473,0.0,0.809016994374947,34.4438182375668,0.0,-1.0,0.0,0.0,0.809016994374947,0,0.587785252292473,38.4815286578934
0,84,84,48,0,-0.743144825477394,0.0,0.669130606358858,31.9258632532772,0.0,-1.0,0.0,0.0,0.669130606358858,0,0.743144825477394,41.278000975222
0,84,84,60,0,-0.866025403784439,0.0,0.5,28.8815123388178,0.0,-1.0,0.0,0.0,0.5,0,0.866025403784439,43.4898513847488
0,84,96,0,0,0.207911690817759,0.0,0.978147600733806,37.0948259652348,0.0,-1.0,0.0,0.0,0.978147600733806,0,-0.207911690817759,20.4165732471896
0,84,96,12,0,1.16743491188625e-16,0.0,1.0,37.4881691520263,0.0,-1.0,0.0,0.0,1.0,0,-1.16743491188625e-16,24.1589836819092
0,84,96,36,0,-0.4067366430758,0.0,0.913545457642601,35.9319873895931,0.0,-1.0,0.0,0.0,0.913545457642601,0,0.4067366430758,31.4802432572737
0,84,96,60,0,-0.743144825477394,0.0,0.669130606358858,31.5325200664857,0.0,-1.0,0.0,0.0,0.669130606358858,0,0.743144825477394,37.5355905405023
0,84,108,0,0,0.4067366430758,0.0,0.913545457642601,34.7691488139514,0.0,-1.0,0.0,0.0,0.913545457642601,0,-0.4067366430758,13.2588749659001
0,84,108,12,0,0.207911690817759,0.0,0.978147600733806,35.9319873895931,0.0,-1.0,0.0,0.0,0.978147600733806,0,-0.207911690817759,16.8377241065449
0,84,120,0,0,0.587785252292473,0.0,0.809016994374948,31.0061241363159,0.0,-1.0,0.0,0.0,0.809016994374948,0,-0.587785252292473,6.74112503409989
0,84,120,12,0,0.4067366430758,0.0,0.913545457642601,32.8876364751336,0.0,-1.0,0.0,0.0,0.913545457642601,0,-0.4067366430758,10.0
0,84,120,108,0,-0.951056516295154,0.0,0.309016994374947,22.0061241363159,0.0,-1.0,0.0,0.0,0.309016994374947,0,0.951056516295154,34.4402768686772
0,84,120,120,0,-0.994521895368273,0.0,0.104528463267654,18.3253305763846,0.0,-1.0,0.0,0.0,0.104528463267654,0,0.994521895368273,35.2226536919933
0,96,0,120,0,0.587785252292473,0.0,-0.809016994374948,-18.3253305763846,0.0,-1.0,0.0,0.0,-0.809016994374948,0,-0.587785252292473,35.2226536919933
0,96,12,72,0,-0.4067366430758,0.0,-0.913545457642601,-16.4438182375668,0.0,-1.0,0.0,0.0,-0.913545457642601,0,0.4067366430758,53.1240478086222
0,96,12,84,0,-0.207911690817759,0.0,-0.978147600733806,-17.6066568132085,0.0,-1.0,0.0,0.0,-0.978147600733806,0,0.207911690817759,49.5451986679775
0,96,12,120,0,0.4067366430758,0.0,-0.913545457642601,-16.4438182375668,0.0,-1.0,0.0,0.0,-0.913545457642601,0,-0.4067366430758,38.4815286578934
0,96,24,84,0,-0.4067366430758,0.0,-0.913545457642601,-12.7630246776355,0.0,-1.0,0.0,0.0,-0.913545457642601,0,0.4067366430758,52.3416709853061
0,96,36,0,0,-0.866025403784439,0.0,0.5,16.1184876611822,0.0,-1.0,0.0,0.0,0.5,0,0.866025403784439,59.0783086528687
0,96,36,12,0,-0.951056516295154,0.0,0.309016994374947,12.6807935599313,0.0,-1.0,0.0,0.0,0.309016994374947,0,0.951056516295154,60.6088686780616
0,96,48,0,0,-0.743144825477394,0.0,0.669130606358858,22.2071894901011,0.0,-1.0,0.0,0.0,0.669130606358858,0,0.743144825477394,54.6546078338151
0,96,48,12,0,-0.866025403784439,0.0,0.5,19.1628385756417,0.0,-1.0,0.0,0.0,0.5,0,0.866025403784439,56.8664582433419
0,96,60,0,0,-0.587785252292473,0.0,0.809016994374947,27.2430994586803,0.0,-1.0,0.0,0.0,0.809016994374947,0,0.587785252292473,49.061663199158
0,96,60,12,0,-0.743144825477394,0.0,0.669130606358858,24.7251444743907,0.0,-1.0,0.0,0.0,0.669130606358858,0,0.743144825477394,51.8581355164865
0,96,72,0,0,-0.4067366430758,0.0,0.913545457642601,31.0061241363159,0.0,-1.0,0.0,0.0,0.913545457642601,0,0.4067366430758,42.5439132673577
0,96,72,12,0,-0.587785252292473,0.0,0.809016994374947,29.1246117974981,0.0,-1.0,0.0,0.0,0.809016994374947,0,0.587785252292473,45.8027882332578
0,96,72,36,0,-0.866025403784439,0.0,0.5,23.5623058987491,0.0,-1.0,0.0,0.0,0.5,0,0.866025403784439,50.8111109601132
0,96,72,48,0,-0.951056516295154,0.0,0.309016994374947,20.1246117974981,0.0,-1.0,0.0,0.0,0.309016994374947,0,0.951056516295154,52.3416709853061
0,96,72,60,0,-0.994521895368273,0.0,0.104528463267654,16.4438182375668,0.0,-1.0,0.0,0.0,0.104528463267654,0,0.994521895368273,53.1240478086222
0,96,84,0,0,-0.207911690817759,0.0,0.978147600733806,33.3318012875992,0.0,-1.0,0.0,0.0,0.978147600733806,0,0.207911690817759,35.3862149860683
0,96,84,12,0,-0.4067366430758,0.0,0.913545457642601,32.1689627119576,0.0,-1.0,0.0,0.0,0.913545457642601,0,0.4067366430758,38.965064126713
0,96,84,36,0,-0.743144825477394,0.0,0.669130606358858,27.7694953888502,0.0,-1.0,0.0,0.0,0.669130606358858,0,0.743144825477394,45.0204114099417
0,96,84,48,0,-0.866025403784439,0.0,0.5,24.7251444743907,0.0,-1.0,0.0,0.0,0.5,0,0.866025403784439,47.2322618194685
0,96,84,60,0,-0.951056516295154,0.0,0.309016994374948,21.2874503731398,0.0,-1.0,0.0,0.0,0.309016994374948,0,0.951056516295154,48.7628218446614
0,96,96,0,0,6.12323399573677e-17,0.0,1.0,34.1184876611822,0.0,-1.0,0.0,0.0,1.0,0,-6.12323399573677e-17,27.9013941166289
0,96,96,12,0,-0.207911690817759,0.0,0.978147600733806,33.7251444743907,0.0,-1.0,0.0,0.0,0.978147600733806,0,0.207911690817759,31.6438045513486
0,96,96,36,0,-0.587785252292473,0.0,0.809016994374947,30.6807935599313,0.0,-1.0,0.0,0.0,0.809016994374947,0,0.587785252292473,38.4815286578934
0,96,96,60,0,-0.866025403784439,0.0,0.5,25.1184876611822,0.0,-1.0,0.0,0.0,0.5,0,0.866025403784439,43.4898513847488
0,96,108,0,0,0.207911690817759,0.0,0.978147600733806,33.3318012875992,0.0,-1.0,0.0,0.0,0.978147600733806,0,-0.207911690817759,20.4165732471896
0,96,108,12,0,-1.0530111373640599e-16,0.0,1.0,33.7251444743907,0.0,-1.0,0.0,0.0,1.0,0,1.0530111373640599e-16,24.1589836819093
0,96,120,0,0,0.4067366430758,0.0,0.913545457642601,31.0061241363159,0.0,-1.0,0.0,0.0,0.913545457642601,0,-0.4067366430758,13.2588749659001
0,96,120,12,0,0.207911690817759,0.0,0.978147600733806,32.1689627119576,0.0,-1.0,0.0,0.0,0.978147600733806,0,-0.207911690817759,16.8377241065449
0,96,120,108,0,-0.994521895368273,0.0,0.104528463267653,16.4438182375668,0.0,-1.0,0.0,0.0,0.104528463267653,0,0.994521895368273,38.4815286578934
0,96,120,120,0,-0.994521895368273,0.0,-0.104528463267653,12.6807935599313,0.0,-1.0,0.0,0.0,-0.104528463267653,0,0.994521895368273,38.4815286578934
0,108,0,120,0,0.743144825477394,0.0,-0.669130606358858,-23.1689627119576,0.0,-1.0,0.0,0.0,-0.669130606358858,0,-0.743144825477394,30.8614277280324
0,108,12,48,0,-0.587785252292473,0.0,-0.809016994374947,-22.0061241363159,0.0,-1.0,0.0,0.0,-0.809016994374947,0,0.587785252292473,55.6005459512062
0,108,12,60,0,-0.4067366430758,0.0,-0.913545457642601,-23.8876364751336,0.0,-1.0,0.0,0.0,-0.913545457642601,0,0.4067366430758,52.3416709853061
0,108,12,72,0,-0.20791169081776,0.0,-0.978147600733806,-25.0504750507753,0.0,-1.0,0.0,0.0,-0.978147600733806,0,0.20791169081776,48.7628218446614
0,108,12,84,0,-1.28185868640845e-16,0.0,-1.0,-25.4438182375668,0.0,-1.0,0.0,0.0,-1.0,0,1.28185868640845e-16,45.0204114099417
0,108,12,96,0,0.207911690817759,0.0,-0.978147600733806,-25.0504750507753,0.0,-1.0,0.0,0.0,-0.978147600733806,0,-0.207911690817759,41.278000975222
0,108,12,108,0,0.4067366430758,0.0,-0.913545457642601,-23.8876364751336,0.0,-1.0,0.0,0.0,-0.913545457642601,0,-0.4067366430758,37.6991518345773
0,108,12,120,0,0.587785252292473,0.0,-0.809016994374948,-22.0061241363159,0.0,-1.0,0.0,0.0,-0.809016994374948,0,-0.587785252292473,34.4402768686772
0,108,24,72,0,-0.4067366430758,0.0,-0.913545457642601,-20.1246117974981,0.0,-1.0,0.0,0.0,-0.913545457642601,0,0.4067366430758,52.3416709853061
0,108,24,84,0,-0.207911690817759,0.0,-0.978147600733806,-21.2874503731398,0.0,-1.0,0.0,0.0,-0.978147600733806,0,0.207911690817759,48.7628218446614
0,108,36,72,0,-0.587785252292473,0.0,-0.809016994374947,-14.5623058987491,0.0,-1.0,0.0,0.0,-0.809016994374947,0,0.587785252292473,54.81816912789
0,108,36,84,0,-0.4067366430758,0.0,-0.913545457642601,-16.4438182375668,0.0,-1.0,0.0,0.0,-0.913545457642601,0,0.4067366430758,51.5592941619899
0,108,36,96,0,-0.207911690817759,0.0,-0.978147600733806,-17.6066568132085,0.0,-1.0,0.0,0.0,-0.978147600733806,0,0.207911690817759,47.9804450213452
0,108,48,0,0,-0.866025403784439,0.0,0.5,12.437694101251,0.0,-1.0,0.0,0.0,0.5,0,0.866025403784439,58.2959318295526
0,108,48,96,0,-0.4067366430758,0.0,-0.913545457642601,-13.0061241363159,0.0,-1.0,0.0,0.0,-0.913545457642601,0,0.4067366430758,50.0287341367971
0,108,60,0,0,-0.743144825477394,0.0,0.669130606358858,18.5263959301698,0.0,-1.0,0.0,0.0,0.669130606358858,0,0.743144825477394,53.872231010499
0,108,60,12,0,-0.866025403784439,0.0,0.5,15.4820450157104,0.0,-1.0,0.0,0.0,0.5,0,0.866025403784439,56.0840814200258
0,108,72,0,0,-0.587785252292473,0.0,0.809016994374947,23.5623058987491,0.0,-1.0,0.0,0.0,0.809016994374947,0,0.587785252292473,48.2792863758418
0,108,72,12,0,-0.743144825477394,0.0,0.669130606358858,21.0443509144595,0.0,-1.0,0.0,0.0,0.669130606358858,0,0.743144825477394,51.0757586931704
0,108,72,36,0,-0.951056516295154,0.0,0.309016994374948,14.5623058987491,0.0,-1.0,0.0,0.0,0.309016994374948,0,0.951056516295154,54.81816912789
0,108,84,0,0,-0.4067366430758,0.0,0.913545457642601,27.3253305763846,0.0,-1.0,0.0,0.0,0.913545457642601,0,0.4067366430758,41.7615364440416
0,108,84,12,0,-0.587785252292473,0.0,0.809016994374947,25.4438182375668,0.0,-1.0,0.0,0.0,0.809016994374947,0,0.587785252292473,45.0204114099417
0,108,84,36,0,-0.866025403784439,0.0,0.5,19.8815123388178,0.0,-1.0,0.0,0.0,0.5,0,0.866025403784439,50.0287341367971
0,108,84,48,0,-0.951056516295154,0.0,0.309016994374948,16.4438182375668,0.0,-1.0,0.0,0.0,0.309016994374948,0,0.951056516295154,51.5592941619899
0,108,84,60,0,-0.994521895368273,0.0,0.104528463267654,12.7630246776355,0.0,-1.0,0.0,0.0,0.104528463267654,0,0.994521895368273,52.3416709853061
0,108,96,0,0,-0.207911690817759,0.0,0.978147600733806,29.651007727668,0.0,-1.0,0.0,0.0,0.978147600733806,0,0.207911690817759,34.6038381627521
0,108,96,12,0,-0.4067366430758,0.0,0.913545457642601,28.4881691520263,0.0,-1.0,0.0,0.0,0.913545457642601,0,0.4067366430758,38.1826873033968
0,108,96,36,0,-0.743144825477394,0.0,0.669130606358858,24.0887018289189,0.0,-1.0,0.0,0.0,0.669130606358858,0,0.743144825477394,44.2380345866255
0,108,96,60,0,-0.951056516295153,0.0,0.309016994374948,17.6066568132085,0.0,-1.0,0.0,0.0,0.309016994374948,0,0.951056516295153,47.9804450213452
0,108,108,0,0,6.12323399573677e-17,0.0,1.0,30.4376941012509,0.0,-1.0,0.0,0.0,1.0,0,-6.12323399573677e-17,27.1190172933128
0,108,108,12,0,-0.207911690817759,0.0,0.978147600733806,30.0443509144595,0.0,-1.0,0.0,0.0,0.978147600733806,0,0.207911690817759,30.8614277280324
0,108,120,0,0,0.207911690817759,0.0,0.978147600733806,29.651007727668,0.0,-1.0,0.0,0.0,0.978147600733806,0,-0.207911690817759,19.6341964238734
0,108,120,12,0,-1.0530111373640599e-16,0.0,1.0,30.0443509144595,0.0,-1.0,0.0,0.0,1.0,0,1.0530111373640599e-16,23.3766068585931
0,120,0,0,0,-0.866025403784439,0.0,-0.5,-27.0,0.0,-1.0,0.0,0.0,-0.5,0,0.866025403784439,56.7653718043597
0,120,0,12,0,-0.743144825477394,0.0,-0.669130606358858,-30.0443509144594,0.0,-1.0,0.0,0.0,-0.669130606358858,0,0.743144825477394,54.5535213948329
0,120,0,24,0,-0.587785252292473,0.0,-0.809016994374947,-32.562305898749,0.0,-1.0,0.0,0.0,-0.809016994374947,0,0.587785252292473,51.7570490775043
0,120,0,36,0,-0.4067366430758,0.0,-0.913545457642601,-34.4438182375668,0.0,-1.0,0.0,0.0,-0.913545457642601,0,0.4067366430758,48.4981741116042
0,120,0,48,0,-0.20791169081776,0.0,-0.978147600733806,-35.6066568132085,0.0,-1.0,0.0,0.0,-0.978147600733806,0,0.20791169081776,44.9193249709595
0,120,0,60,0,-4.05741624797134e-16,0.0,-1.0,-36.0,0.0,-1.0,0.0,0.0,-1.0,0,4.05741624797134e-16,41.1769145362398
0,120,0,72,0,0.207911690817759,0.0,-0.978147600733806,-35.6066568132085,0.0,-1.0,0.0,0.0,-0.978147600733806,0,-0.207911690817759,37.4345041015201
0,120,0,84,0,0.4067366430758,0.0,-0.913545457642601,-34.4438182375668,0.0,-1.0,0.0,0.0,-0.913545457642601,0,-0.4067366430758,33.8556549608754
0,120,0,96,0,0.587785252292473,0.0,-0.809016994374948,-32.562305898749,0.0,-1.0,0.0,0.0,-0.809016994374948,0,-0.587785252292473,30.5967799949753
0,120,0,108,0,0.743144825477394,0.0,-0.669130606358858,-30.0443509144594,0.0,-1.0,0.0,0.0,-0.669130606358858,0,-0.743144825477394,27.8003076776467
0,120,0,120,0,0.866025403784438,0.0,-0.5,-27.0,0.0,-1.0,0.0,0.0,-0.5,0,-0.866025403784438,25.5884572681199
0,120,12,0,0,-0.951056516295154,0.0,-0.309016994374947,-20.1246117974981,0.0,-1.0,0.0,0.0,-0.309016994374947,0,0.951056516295154,59.8264918547454
0,120,12,12,0,-0.866025403784439,0.0,-0.5,-23.562305898749,0.0,-1.0,0.0,0.0,-0.5,0,0.866025403784439,58.2959318295526
0,120,12,36,0,-0.587785252292473,0.0,-0.809016994374947,-29.1246117974981,0.0,-1.0,0.0,0.0,-0.809016994374947,0,0.587785252292473,53.2876091026972
0,120,12,48,0,-0.4067366430758,0.0,-0.913545457642601,-31.0061241363159,0.0,-1.0,0.0,0.0,-0.913545457642601,0,0.4067366430758,50.0287341367971
0,120,12,60,0,-0.20791169081776,0.0,-0.978147600733806,-32.1689627119575,0.0,-1.0,0.0,0.0,-0.978147600733806,0,0.20791169081776,46.4498849961523
0,120,12,72,0,-3.50230473565876e-16,0.0,-1.0,-32.562305898749,0.0,-1.0,0.0,0.0,-1.0,0,3.50230473565876e-16,42.7074745614327
0,120,12,84,0,0.207911690817759,0.0,-0.978147600733806,-32.1689627119575,0.0,-1.0,0.0,0.0,-0.978147600733806,0,-0.207911690817759,38.965064126713
0,120,12,96,0,0.4067366430758,0.0,-0.913545457642601,-31.0061241363159,0.0,-1.0,0.0,0.0,-0.913545457642601,0,-0.4067366430758,35.3862149860683
0,120,12,108,0,0.587785252292473,0.0,-0.809016994374948,-29.1246117974981,0.0,-1.0,0.0,0.0,-0.809016994374948,0,-0.587785252292473,32.1273400201682
0,120,12,120,0,0.743144825477394,0.0,-0.669130606358859,-26.6066568132085,0.0,-1.0,0.0,0.0,-0.669130606358859,0,-0.743144825477394,29.3308677028396
0,120,24,0,0,-0.994521895368273,0.0,-0.104528463267653,-12.7630246776355,0.0,-1.0,0.0,0.0,-0.104528463267653,0,0.994521895368273,61.3912455013777
0,120,24,12,0,-0.951056516295154,0.0,-0.309016994374947,-16.4438182375668,0.0,-1.0,0.0,0.0,-0.309016994374947,0,0.951056516295154,60.6088686780616
0,120,24,48,0,-0.587785252292473,0.0,-0.809016994374947,-25.4438182375668,0.0,-1.0,0.0,0.0,-0.809016994374947,0,0.587785252292473,54.0699859260133
0,120,24,60,0,-0.406736643075801,0.0,-0.913545457642601,-27.3253305763846,0.0,-1.0,0.0,0.0,-0.913545457642601,0,0.406736643075801,50.8111109601132
0,120,24,72,0,-0.20791169081776,0.0,-0.978147600733806,-28.4881691520263,0.0,-1.0,0.0,0.0,-0.978147600733806,0,0.20791169081776,47.2322618194685
0,120,24,84,0,-2.94719322334619e-16,0.0,-1.0,-28.8815123388178,0.0,-1.0,0.0,0.0,-1.0,0,2.94719322334619e-16,43.4898513847488
0,120,24,96,0,0.207911690817759,0.0,-0.978147600733806,-28.4881691520263,0.0,-1.0,0.0,0.0,-0.978147600733806,0,-0.207911690817759,39.7474409500292
0,120,24,108,0,0.4067366430758,0.0,-0.913545457642601,-27.3253305763846,0.0,-1.0,0.0,0.0,-0.913545457642601,0,-0.4067366430758,36.1685918093844
0,120,24,120,0,0.587785252292473,0.0,-0.809016994374948,-25.4438182375668,0.0,-1.0,0.0,0.0,-0.809016994374948,0,-0.587785252292473,32.9097168434843
0,120,36,36,0,-0.866025403784439,0.0,-0.5,-16.1184876611822,0.0,-1.0,0.0,0.0,-0.5,0,0.866025403784439,59.0783086528687
0,120,36,48,0,-0.743144825477394,0.0,-0.669130606358858,-19.1628385756417,0.0,-1.0,0.0,0.0,-0.669130606358858,0,0.743144825477394,56.8664582433419
0,120,36,60,0,-0.587785252292473,0.0,-0.809016994374947,-21.6807935599313,0.0,-1.0,0.0,0.0,-0.809016994374947,0,0.587785252292473,54.0699859260133
0,120,36,72,0,-0.4067366430758,0.0,-0.913545457642601,-23.562305898749,0.0,-1.0,0.0,0.0,-0.913545457642601,0,0.4067366430758,50.8111109601132
0,120,36,84,0,-0.20791169081776,0.0,-0.978147600733806,-24.7251444743907,0.0,-1.0,0.0,0.0,-0.978147600733806,0,0.20791169081776,47.2322618194685
0,120,36,96,0,-1.83697019872103e-16,0.0,-1.0,-25.1184876611822,0.0,-1.0,0.0,0.0,-1.0,0,1.83697019872103e-16,43.4898513847488
0,120,36,108,0,0.207911690817759,0.0,-0.978147600733806,-24.7251444743907,0.0,-1.0,0.0,0.0,-0.978147600733806,0,-0.207911690817759,39.7474409500292
0,120,36,120,0,0.4067366430758,0.0,-0.913545457642601,-23.562305898749,0.0,-1.0,0.0,0.0,-0.913545457642601,0,-0.4067366430758,36.1685918093844
0,120,48,48,0,-0.866025403784439,0.0,-0.5,-12.4376941012509,0.0,-1.0,0.0,0.0,-0.5,0,0.866025403784439,58.2959318295526
0,120,48,60,0,-0.743144825477395,0.0,-0.669130606358858,-15.4820450157104,0.0,-1.0,0.0,0.0,-0.669130606358858,0,0.743144825477395,56.0840814200258
0,120,48,72,0,-0.587785252292473,0.0,-0.809016994374947,-18.0,0.0,-1.0,0.0,0.0,-0.809016994374947,0,0.587785252292473,53.2876091026972
0,120,48,84,0,-0.4067366430758,0.0,-0.913545457642601,-19.8815123388178,0.0,-1.0,0.0,0.0,-0.913545457642601,0,0.4067366430758,50.0287341367971
0,120,48,96,0,-0.20791169081776,0.0,-0.978147600733806,-21.0443509144594,0.0,-1.0,0.0,0.0,-0.978147600733806,0,0.20791169081776,46.4498849961523
0,120,48,108,0,-4.05741624797134e-16,0.0,-1.0,-21.4376941012509,0.0,-1.0,0.0,0.0,-1.0,0,4.05741624797134e-16,42.7074745614327
0,120,48,120,0,0.207911690817759,0.0,-0.978147600733806,-21.0443509144594,0.0,-1.0,0.0,0.0,-0.978147600733806,0,-0.207911690817759,38.965064126713
0,120,60,72,0,-0.743144825477394,0.0,-0.669130606358858,-12.0443509144594,0.0,-1.0,0.0,0.0,-0.669130606358858,0,0.743144825477394,54.5535213948329
0,120,60,84,0,-0.587785252292473,0.0,-0.809016994374947,-14.562305898749,0.0,-1.0,0.0,0.0,-0.809016994374947,0,0.587785252292473,51.7570490775043
0,120,60,96,0,-0.4067366430758,0.0,-0.913545457642601,-16.4438182375668,0.0,-1.0,0.0,0.0,-0.913545457642601,0,0.4067366430758,48.4981741116042
0,120,60,108,0,-0.20791169081776,0.0,-0.978147600733806,-17.6066568132085,0.0,-1.0,0.0,0.0,-0.978147600733806,0,0.20791169081776,44.9193249709595
0,120,60,120,0,-4.05741624797134e-16,0.0,-1.0,-18.0,0.0,-1.0,0.0,0.0,-1.0,0,4.05741624797134e-16,41.1769145362398
0,120,72,0,0,-0.743144825477394,0.0,0.669130606358858,15.0887018289189,0.0,-1.0,0.0,0.0,0.669130606358858,0,0.743144825477394,52.3416709853061
0,120,72,12,0,-0.866025403784438,0.0,0.5,12.0443509144595,0.0,-1.0,0.0,0.0,0.5,0,0.866025403784438,54.5535213948329
0,120,72,96,0,-0.587785252292473,0.0,-0.809016994374947,-11.5179549842896,0.0,-1.0,0.0,0.0,-0.809016994374947,0,0.587785252292473,49.5451986679775
0,120,72,108,0,-0.4067366430758,0.0,-0.913545457642601,-13.3994673231074,0.0,-1.0,0.0,0.0,-0.913545457642601,0,0.4067366430758,46.2863237020774
0,120,72,120,0,-0.20791169081776,0.0,-0.978147600733806,-14.562305898749,0.0,-1.0,0.0,0.0,-0.978147600733806,0,0.20791169081776,42.7074745614327
0,120,84,0,0,-0.587785252292473,0.0,0.809016994374948,20.1246117974981,0.0,-1.0,0.0,0.0,0.809016994374948,0,0.587785252292473,46.7487263506489
0,120,84,12,0,-0.743144825477394,0.0,0.669130606358858,17.6066568132085,0.0,-1.0,0.0,0.0,0.669130606358858,0,0.743144825477394,49.5451986679775
0,120,96,0,0,-0.4067366430758,0.0,0.913545457642601,23.8876364751336,0.0,-1.0,0.0,0.0,0.913545457642601,0,0.4067366430758,40.2309764188487
0,120,96,12,0,-0.587785252292473,0.0,0.809016994374948,22.0061241363159,0.0,-1.0,0.0,0.0,0.809016994374948,0,0.587785252292473,43.4898513847488
0,120,96,36,0,-0.866025403784438,0.0,0.5,16.4438182375668,0.0,-1.0,0.0,0.0,0.5,0,0.866025403784438,48.4981741116042
0,120,96,48,0,-0.951056516295153,0.0,0.309016994374948,13.0061241363159,0.0,-1.0,0.0,0.0,0.309016994374948,0,0.951056516295153,50.0287341367971
0,120,108,0,0,-0.207911690817759,0.0,0.978147600733806,26.213313626417,0.0,-1.0,0.0,0.0,0.978147600733806,0,0.207911690817759,33.0732781375592
0,120,108,12,0,-0.4067366430758,0.0,0.913545457642601,25.0504750507753,0.0,-1.0,0.0,0.0,0.913545457642601,0,0.4067366430758,36.652127278204
0,120,108,48,0,-0.866025403784439,0.0,0.5,17.6066568132085,0.0,-1.0,0.0,0.0,0.5,0,0.866025403784439,44.9193249709595
0,120,108,60,0,-0.951056516295153,0.0,0.309016994374948,14.1689627119576,0.0,-1.0,0.0,0.0,0.309016994374948,0,0.951056516295153,46.4498849961523
0,120,120,0,0,6.12323399573677e-17,0.0,1.0,27.0,0.0,-1.0,0.0,0.0,1.0,0,-6.12323399573677e-17,25.5884572681199
0,120,120,12,0,-0.207911690817759,0.0,0.978147600733806,26.6066568132085,0.0,-1.0,0.0,0.0,0.978147600733806,0,0.207911690817759,29.3308677028396
0,120,120,48,0,-0.743144825477394,0.0,0.669130606358858,21.0443509144595,0.0,-1.0,0.0,0.0,0.669130606358858,0,0.743144825477394,38.965064126713
0,120,120,60,0,-0.866025403784439,0.0,0.5,18.0,0.0,-1.0,0.0,0.0,0.5,0,0.866025403784439,41.1769145362398
0,120,120,72,0,-0.951056516295154,0.0,0.309016994374948,14.5623058987491,0.0,-1.0,0.0,0.0,0.309016994374948,0,0.951056516295154,42.7074745614327
5,0,12,0,0,0.207120524063942,0.0871557427476582,0.974425453802179,53.0108209025299,0.0181206978391433,-0.996194698091746,0.0852511806587946,4.63784587317445,0.978147600733806,0,-0.207911690817759,2.51517913056066
5,12,12,0,0,6.0999332417281e-17,0.0871557427476582,0.996194698091746,53.4026672997421,5.33675006916149e-18,-0.996194698091746,0.0871557427476582,4.672127990774,1.0,0,-6.12323399573677e-17,13.7424104347197
5,12,24,0,0,0.207120524063942,0.0871557427476582,0.974425453802179,52.6189745053177,0.0181206978391433,-0.996194698091746,0.0852511806587946,4.60356375557491,0.978147600733806,0,-0.207911690817759,6.25758956528033
5,12,24,12,0,6.0999332417281e-17,0.0871557427476582,0.996194698091746,53.0108209025299,5.33675006916149e-18,-0.996194698091746,0.0871557427476582,4.63784587317445,1.0,0,-6.12323399573677e-17,10.0
5,12,36,12,0,0.207120524063942,0.0871557427476582,0.974425453802179,51.4605608815268,0.0181206978391433,-0.996194698091746,0.0852511806587946,4.50221569581923,0.978147600733806,0,-0.207911690817759,2.6787404246356
5,12,60,48,0,-1.0490041120736299e-16,0.0871557427476582,0.996194698091746,47.4696812570316,-9.17759677985208e-18,-0.996194698091746,0.0871557427476582,4.1530589711793,1.0,0,1.0530111373640599e-16,0.365803576126575
5,24,12,0,0,-0.207120524063942,0.0871557427476582,0.974425453802179,51.4605608815268,-0.0181206978391433,-0.996194698091746,0.0852511806587946,4.50221569581923,0.978147600733806,0,0.207911690817759,24.8060804448037
5,24,24,0,0,6.0999332417281e-17,0.0871557427476582,0.996194698091746,52.2442536759512,5.33675006916149e-18,-0.996194698091746,0.0871557427476582,4.57077993101832,1.0,0,-6.12323399573677e-17,17.3212595753644
5,24,24,12,0,-0.207120524063942,0.0871557427476582,0.974425453802179,51.8524072787391,-0.0181206978391433,-0.996194698091746,0.0852511806587946,4.53649781341877,0.978147600733806,0,0.207911690817759,21.0636700100841
5,24,36,0,0,0.207120524063942,0.0871557427476582,0.974425453802179,51.4605608815268,0.0181206978391433,-0.996194698091746,0.0852511806587946,4.50221569581923,0.978147600733806,0,-0.207911690817759,9.83643870592507
5,24,36,12,0,5.69941787573288e-18,0.0871557427476582,0.996194698091746,51.8524072787391,4.98634452823631e-19,-0.996194698091746,0.0871557427476582,4.53649781341877,1.0,0,-5.7211887261098295e-18,13.5788491406447
5,24,48,0,0,0.405188887351747,0.0871557427476582,0.910069141369356,49.1437336339452,0.0354494342299605,-0.996194698091746,0.0796207328945902,4.29951957630787,0.913545457642601,0,-0.4067366430758,2.6787404246356
5,24,48,12,0,0.207120524063942,0.0871557427476582,0.974425453802179,50.302147257736,0.0181206978391433,-0.996194698091746,0.0852511806587946,4.40086763606355,0.978147600733806,0,-0.207911690817759,6.25758956528033
5,24,72,36,0,0.207120524063942,0.0871557427476582,0.974425453802179,45.9194212360286,0.0181206978391433,-0.996194698091746,0.0852511806587946,4.01742879382408,0.978147600733806,0,-0.207911690817759,0.20224228205164
5,24,72,48,0,-4.96004966658152e-17,0.0871557427476582,0.996194698091746,46.3112676332408,-4.3394811635142194e-18,-0.996194698091746,0.0871557427476582,4.05171091142362,1.0,0,4.9789962505148e-17,3.94465271677131
5,24,72,60,0,-0.207120524063942,0.0871557427476582,0.974425453802179,45.9194212360286,-0.0181206978391433,-0.996194698091746,0.0852511806587946,4.01742879382408,0.978147600733806,0,0.207911690817759,7.68706315149097
5,24,84,60,0,1.71599161500377e-16,0.0871557427476582,0.996194698091746,43.2785013931255,1.50129813018372e-17,-0.996194698091746,0.0871557427476582,3.78637824628939,1.0,0,-1.72254642419883e-16,1.73280230724451
5,24,96,72,0,1.71599161500377e-16,0.0871557427476582,0.996194698091746,39.8538887557981,1.50129813018372e-17,-0.996194698091746,0.0871557427476582,3.48676346355562,1.0,0,-1.72254642419883e-16,0.202242282051636
5,36,12,0,0,-0.405188887351747,0.0871557427476582,0.910069141369356,47.2693810176208,-0.0354494342299605,-0.996194698091746,0.0796207328945902,4.13553497092932,0.913545457642601,0,0.4067366430758,35.2226536919933
5,36,24,0,0,-0.207120524063942,0.0871557427476582,0.974425453802179,49.5862082652024,-0.0181206978391433,-0.996194698091746,0.0852511806587946,4.33823109044068,0.978147600733806,0,0.207911690817759,28.0649554107038
5,36,24,12,0,-0.405188887351747,0.0871557427476582,0.910069141369356,48.4277946414116,-0.0354494342299605,-0.996194698091746,0.0796207328945902,4.236883030685,0.913545457642601,0,0.4067366430758,31.6438045513486
5,36,36,0,0,6.0999332417281e-17,0.0871557427476582,0.996194698091746,50.3699010596268,5.33675006916149e-18,-0.996194698091746,0.0871557427476582,4.40679532563977,1.0,0,-6.12323399573677e-17,20.5801345412645
5,36,36,12,0,-0.207120524063942,0.0871557427476582,0.974425453802179,49.9780546624146,-0.0181206978391433,-0.996194698091746,0.0852511806587946,4.37251320804023,0.978147600733806,0,0.207911690817759,24.3225449759842
5,36,48,0,0,0.207120524063942,0.0871557427476582,0.974425453802179,49.5862082652024,0.0181206978391433,-0.996194698091746,0.0852511806587946,4.33823109044068,0.978147600733806,0,-0.207911690817759,13.0953136718252
5,36,48,12,0,1.16299246958829e-16,0.0871557427476582,0.996194698091746,49.9780546624146,1.01748656854993e-17,-0.996194698091746,0.0871557427476582,4.37251320804023,1.0,0,-1.16743491188625e-16,16.8377241065448
5,36,60,0,0,0.405188887351747,0.0871557427476582,0.910069141369356,47.2693810176208,0.0354494342299605,-0.996194698091746,0.0796207328945902,4.13553497092932,0.913545457642601,0,-0.4067366430758,5.93761539053571
5,36,60,12,0,0.207120524063942,0.0871557427476582,0.974425453802179,48.4277946414116,0.0181206978391433,-0.996194698091746,0.0852511806587946,4.236883030685,0.978147600733806,0,-0.207911690817759,9.51646453118045
5,36,72,12,0,0.405188887351747,0.0871557427476582,0.910069141369356,45.3950284012963,0.0354494342299605,-0.996194698091746,0.0796207328945902,3.97155036555078,0.913545457642601,0,-0.4067366430758,2.6787404246356
5,36,72,36,0,6.0999332417281e-17,0.0871557427476582,0.996194698091746,46.9452884222993,5.33675006916149e-18,-0.996194698091746,0.0871557427476582,4.107180542906,1.0,0,-6.12323399573677e-17,10.0
5,36,72,48,0,-0.207120524063942,0.0871557427476582,0.974425453802179,46.5534420250871,-0.0181206978391433,-0.996194698091746,0.0852511806587946,4.07289842530646,0.978147600733806,0,0.207911690817759,13.7424104347197
5,36,72,60,0,-0.405188887351747,0.0871557427476582,0.910069141369356,45.3950284012963,-0.0354494342299605,-0.996194698091746,0.0796207328945902,3.97155036555078,0.913545457642601,0,0.4067366430758,17.3212595753644
5,36,84,36,0,0.207120524063942,0.0871557427476582,0.974425453802179,44.0450686197041,0.0181206978391433,-0.996194698091746,0.0852511806587946,3.85344418844553,0.978147600733806,0,-0.207911690817759,3.46111724795175
5,36,84,48,0,6.0999332417281e-17,0.0871557427476582,0.996194698091746,44.4369150169163,5.33675006916149e-18,-0.996194698091746,0.0871557427476582,3.88772630604507,1.0,0,-6.12323399573677e-17,7.20352768267142
5,36,84,60,0,-0.207120524063942,0.0871557427476582,0.974425453802179,44.0450686197041,-0.0181206978391433,-0.996194698091746,0.0852511806587946,3.85344418844553,0.978147600733806,0,0.207911690817759,10.9459381173911
5,36,96,60,0,2.82198990583473e-16,0.0871557427476582,0.996194698091746,41.4041487768011,2.4689212534512902e-17,-0.996194698091746,0.0871557427476582,3.62239364091085,1.0,0,-2.83276944882399e-16,4.99167727314461
5,48,12,0,0,-0.585548551950281,0.0871557427476582,0.805938440462442,41.0123023795889,-0.0512288602396701,-0.996194698091746,0.0705104770402265,3.5881115233113,0.809016994374947,0,0.587785252292473,44.5368759411221
5,48,24,0,0,-0.405188887351747,0.0871557427476582,0.910069141369356,44.7610076122378,-0.0354494342299605,-0.996194698091746,0.0796207328945902,3.9160807340684,0.913545457642601,0,0.4067366430758,38.0191260093219
5,48,24,12,0,-0.585548551950281,0.0871557427476582,0.805938440462442,42.8866549959133,-0.0512288602396701,-0.996194698091746,0.0705104770402265,3.75209612868985,0.809016994374947,0,0.587785252292473,41.278000975222
5,48,36,0,0,-0.207120524063942,0.0871557427476582,0.974425453802179,47.0778348598194,-0.0181206978391433,-0.996194698091746,0.0852511806587946,4.11877685357975,0.978147600733806,0,0.207911690817759,30.8614277280324
5,48,36,12,0,-0.405188887351747,0.0871557427476582,0.910069141369356,45.9194212360286,-0.0354494342299605,-0.996194698091746,0.0796207328945902,4.01742879382408,0.913545457642601,0,0.4067366430758,34.4402768686772
5,48,48,0,0,6.0999332417281e-17,0.0871557427476582,0.996194698091746,47.8615276542438,5.33675006916149e-18,-0.996194698091746,0.0871557427476582,4.18734108877884,1.0,0,-6.12323399573677e-17,23.3766068585931
5,48,48,12,0,-0.207120524063942,0.0871557427476582,0.974425453802179,47.4696812570316,-0.0181206978391433,-0.996194698091746,0.0852511806587946,4.1530589711793,0.978147600733806,0,0.207911690817759,27.1190172933128
5,48,60,0,0,0.207120524063942,0.0871557427476582,0.974425453802179,47.0778348598194,0.0181206978391433,-0.996194698091746,0.0852511806587946,4.11877685357976,0.978147600733806,0,-0.207911690817759,15.8917859891538
5,48,60,12,0,-1.0490041120736299e-16,0.0871557427476582,0.996194698091746,47.4696812570316,-9.17759677985208e-18,-0.996194698091746,0.0871557427476582,4.1530589711793,1.0,0,1.0530111373640599e-16,19.6341964238734
5,48,72,0,0,0.405188887351747,0.0871557427476582,0.910069141369356,44.7610076122378,0.0354494342299605,-0.996194698091746,0.0796207328945902,3.9160807340684,0.913545457642601,0,-0.4067366430758,8.73408770786429
5,48,72,12,0,0.207120524063942,0.0871557427476582,0.974425453802179,45.9194212360286,0.0181206978391433,-0.996194698091746,0.0852511806587946,4.01742879382408,0.978147600733806,0,-0.207911690817759,12.312936848509
5,48,72,36,0,-0.207120524063942,0.0871557427476582,0.974425453802179,45.9194212360286,-0.0181206978391433,-0.996194698091746,0.0852511806587946,4.01742879382408,0.978147600733806,0,0.207911690817759,19.7977577179484
5,48,72,48,0,-0.405188887351747,0.0871557427476582,0.910069141369356,44.7610076122378,-0.0354494342299605,-0.996194698091746,0.0796207328945902,3.9160807340684,0.913545457642601,0,0.4067366430758,23.3766068585931
5,48,72,60,0,-0.585548551950281,0.0871557427476582,0.805938440462442,42.8866549959133,-0.0512288602396701,-0.996194698091746,0.0705104770402265,3.75209612868985,0.809016994374947,0,0.587785252292473,26.6354818244932
5,48,84,0,0,0.585548551950281,0.0871557427476582,0.805938440462442,41.0123023795889,0.0512288602396701,-0.996194698091746,0.0705104770402265,3.5881115233113,0.809016994374947,0,-0.587785252292473,2.21633777606406
5,48,84,12,0,0.405188887351747,0.0871557427476582,0.910069141369356,42.8866549959133,0.0354494342299605,-0.996194698091746,0.0796207328945902,3.75209612868985,0.913545457642601,0,-0.4067366430758,5.47521274196418
5,48,84,36,0,6.0999332417281e-17,0.0871557427476582,0.996194698091746,44.4369150169163,5.33675006916149e-18,-0.996194698091746,0.0871557427476582,3.88772630604507,1.0,0,-6.12323399573677e-17,12.7964723173286
5,48,84,48,0,-0.207120524063942,0.0871557427476582,0.974425453802179,44.0450686197041,-0.0181206978391433,-0.996194698091746,0.0852511806587946,3.85344418844553,0.978147600733806,0,0.207911690817759,16.5388827520482
5,48,84,60,0,-0.405188887351747,0.0871557427476582,0.910069141369356,42.8866549959133,-0.0354494342299605,-0.996194698091746,0.0796207328945902,3.75209612868985,0.913545457642601,0,0.4067366430758,20.117731892693
5,48,96,36,0,0.207120524063942,0.0871557427476582,0.974425453802179,41.5366952143212,0.0181206978391433,-0.996194698091746,0.0852511806587946,3.6339899515846,0.978147600733806,0,-0.207911690817759,6.25758956528033
5,48,96,60,0,-0.207120524063942,0.0871557427476582,0.974425453802179,41.5366952143212,-0.0181206978391433,-0.996194698091746,0.0852511806587946,3.6339899515846,0.978147600733806,0,0.207911690817759,13.7424104347197
5,48,108,36,0,0.405188887351747,0.0871557427476582,0.910069141369356,37.3455153504151,0.0354494342299605,-0.996194698091746,0.0796207328945902,3.2673092266947,0.913545457642601,0,-0.4067366430758,0.466890015108799
5,60,12,0,0,-0.740316935054896,0.0871557427476582,0.666584362385609,32.9627893287077,-0.0647693392335611,-0.996194698091746,0.0583185749923972,2.88387038445522,0.669130606358858,0,0.743144825477394,52.3416709853061
5,60,24,0,0,-0.585548551950281,0.0871557427476582,0.805938440462442,37.9795361394736,-0.0512288602396701,-0.996194698091746,0.0705104770402265,3.32277885817708,0.809016994374948,0,0.587785252292473,46.7487263506489
5,60,24,12,0,-0.740316935054896,0.0871557427476582,0.666584362385609,35.4711627340906,-0.0647693392335611,-0.996194698091746,0.0583185749923972,3.10332462131615,0.669130606358858,0,0.743144825477394,49.5451986679775
5,60,36,0,0,-0.405188887351747,0.0871557427476582,0.910069141369356,41.7282413721225,-0.0354494342299605,-0.996194698091746,0.0796207328945902,3.65074806893417,0.913545457642601,0,0.4067366430758,40.2309764188487
5,60,36,12,0,-0.585548551950281,0.0871557427476582,0.805938440462442,39.8538887557981,-0.0512288602396701,-0.996194698091746,0.0705104770402265,3.48676346355562,0.809016994374947,0,0.587785252292473,43.4898513847488
5,60,48,0,0,-0.207120524063942,0.0871557427476582,0.974425453802179,44.0450686197041,-0.0181206978391433,-0.996194698091746,0.0852511806587946,3.85344418844553,0.978147600733806,0,0.207911690817759,33.0732781375592
5,60,48,12,0,-0.405188887351747,0.0871557427476582,0.910069141369356,42.8866549959133,-0.0354494342299605,-0.996194698091746,0.0796207328945902,3.75209612868985,0.913545457642601,0,0.4067366430758,36.652127278204
5,60,60,0,0,6.0999332417281e-17,0.0871557427476582,0.996194698091746,44.8287614141286,5.33675006916149e-18,-0.996194698091746,0.0871557427476582,3.92200842364462,1.0,0,-6.12323399573677e-17,25.5884572681199
5,60,60,12,0,-0.207120524063942,0.0871557427476582,0.974425453802179,44.4369150169164,-0.0181206978391433,-0.996194698091746,0.0852511806587946,3.88772630604507,0.978147600733806,0,0.207911690817759,29.3308677028396
5,60,72,0,0,0.207120524063942,0.0871557427476582,0.974425453802179,44.0450686197041,0.0181206978391433,-0.996194698091746,0.0852511806587946,3.85344418844553,0.978147600733806,0,-0.207911690817759,18.1036363986806
5,60,72,12,0,1.16299246958829e-16,0.0871557427476582,0.996194698091746,44.4369150169164,1.01748656854993e-17,-0.996194698091746,0.0871557427476582,3.88772630604507,1.0,0,-1.16743491188625e-16,21.8460468334002
5,60,72,36,0,-0.405188887351747,0.0871557427476582,0.910069141369356,42.8866549959133,-0.0354494342299605,-0.996194698091746,0.0796207328945902,3.75209612868985,0.913545457642601,0,0.4067366430758,29.1673064087646
5,60,72,48,0,-0.585548551950281,0.0871557427476582,0.805938440462442,41.0123023795889,-0.0512288602396701,-0.996194698091746,0.0705104770402265,3.5881115233113,0.809016994374947,0,0.587785252292473,32.4261813746647
5,60,72,60,0,-0.740316935054895,0.0871557427476582,0.66658436238561,38.5039289742059,-0.0647693392335611,-0.996194698091746,0.0583185749923972,3.36865728645038,0.669130606358858,0,0.743144825477394,35.2226536919933
5,60,84,0,0,0.405188887351747,0.0871557427476582,0.910069141369356,41.7282413721225,0.0354494342299605,-0.996194698091746,0.0796207328945902,3.65074806893417,0.913545457642601,0,-0.4067366430758,10.9459381173911
5,60,84,12,0,0.207120524063942,0.0871557427476582,0.974425453802179,42.8866549959133,0.0181206978391433,-0.996194698091746,0.0852511806587946,3.75209612868985,0.978147600733806,0,-0.20791169081776,14.5247872580358
5,60,84,36,0,-0.207120524063942,0.0871557427476582,0.974425453802179,42.8866549959133,-0.0181206978391433,-0.996194698091746,0.0852511806587946,3.75209612868985,0.978147600733806,0,0.207911690817759,22.0096081274752
5,60,84,48,0,-0.405188887351747,0.0871557427476582,0.910069141369356,41.7282413721225,-0.0354494342299605,-0.996194698091746,0.0796207328945902,3.65074806893417,0.913545457642601,0,0.4067366430758,25.5884572681199
5,60,84,60,0,-0.585548551950281,0.0871557427476582,0.805938440462442,39.8538887557981,-0.0512288602396701,-0.996194698091746,0.0705104770402265,3.48676346355562,0.809016994374948,0,0.587785252292473,28.84733223402
5,60,96,0,0,0.585548551950281,0.0871557427476582,0.805938440462442,37.9795361394736,0.0512288602396702,-0.996194698091746,0.0705104770402265,3.32277885817708,0.809016994374947,0,-0.587785252292473,4.42818818559086
5,60,96,12,0,0.405188887351747,0.0871557427476582,0.910069141369356,39.8538887557981,0.0354494342299605,-0.996194698091746,0.0796207328945902,3.48676346355562,0.913545457642601,0,-0.4067366430758,7.68706315149097
5,60,96,36,0,2.82198990583473e-16,0.0871557427476582,0.996194698091746,41.4041487768011,2.4689212534512902e-17,-0.996194698091746,0.0871557427476582,3.62239364091085,1.0,0,-2.83276944882399e-16,15.0083227268554
5,60,96,60,0,-0.405188887351747,0.0871557427476582,0.910069141369356,39.8538887557981,-0.0354494342299605,-0.996194698091746,0.0796207328945902,3.48676346355562,0.913545457642601,0,0.4067366430758,22.3295823022198
5,60,108,12,0,0.585548551950281,0.0871557427476582,0.805938440462442,35.4711627340906,0.0512288602396701,-0.996194698091746,0.0705104770402265,3.10332462131615,0.809016994374947,0,-0.587785252292473,1.63171586826228
5,72,12,0,0,-0.862729915662821,0.0871557427476582,0.498097349045873,23.4726442111497,-0.0754790873051733,-0.996194698091746,0.0435778713738291,2.053590271453,0.5,0,0.866025403784439,58.2959318295526
5,72,24,0,0,-0.740316935054896,0.0871557427476582,0.666584362385609,29.5381766913802,-0.0647693392335611,-0.996194698091746,0.0583185749923972,2.58425560172145,0.669130606358858,0,0.743144825477394,53.872231010499
5,72,24,12,0,-0.862729915662821,0.0871557427476582,0.498097349045873,26.5054104512649,-0.0754790873051733,-0.996194698091746,0.0435778713738291,2.31892293658723,0.5,0,0.866025403784439,56.0840814200258
5,72,36,0,0,-0.585548551950281,0.0871557427476582,0.805938440462442,34.5549235021462,-0.0512288602396701,-0.996194698091746,0.0705104770402265,3.02316407544331,0.809016994374947,0,0.587785252292473,48.2792863758418
5,72,36,12,0,-0.740316935054896,0.0871557427476582,0.666584362385609,32.0465500967632,-0.0647693392335611,-0.996194698091746,0.0583185749923972,2.80370983858238,0.669130606358858,0,0.743144825477394,51.0757586931704
5,72,48,0,0,-0.405188887351747,0.0871557427476582,0.910069141369356,38.3036287347951,-0.0354494342299605,-0.996194698091746,0.0796207328945902,3.3511332862004,0.913545457642601,0,0.4067366430758,41.7615364440416
5,72,48,12,0,-0.585548551950281,0.0871557427476582,0.805938440462442,36.4292761184706,-0.0512288602396701,-0.996194698091746,0.0705104770402265,3.18714868082185,0.809016994374947,0,0.587785252292473,45.0204114099417
5,72,60,0,0,-0.207120524063942,0.0871557427476582,0.974425453802179,40.6204559823767,-0.0181206978391433,-0.996194698091746,0.0852511806587946,3.55382940571176,0.978147600733806,0,0.207911690817759,34.6038381627521
5,72,60,12,0,-0.405188887351747,0.0871557427476582,0.910069141369356,39.4620423585859,-0.0354494342299605,-0.996194698091746,0.0796207328945902,3.45248134595608,0.913545457642601,0,0.4067366430758,38.1826873033968
5,72,72,0,0,6.0999332417281e-17,0.0871557427476582,0.996194698091746,41.4041487768011,5.33675006916149e-18,-0.996194698091746,0.0871557427476582,3.62239364091085,1.0,0,-6.12323399573677e-17,27.1190172933128
5,72,72,12,0,-0.207120524063942,0.0871557427476582,0.974425453802179,41.0123023795889,-0.0181206978391433,-0.996194698091746,0.0852511806587946,3.5881115233113,0.978147600733806,0,0.207911690817759,30.8614277280324
5,72,72,36,0,-0.585548551950281,0.0871557427476582,0.805938440462442,37.9795361394736,-0.0512288602396701,-0.996194698091746,0.0705104770402265,3.32277885817708,0.809016994374947,0,0.587785252292473,37.6991518345773
5,72,72,48,0,-0.740316935054896,0.0871557427476582,0.666584362385609,35.4711627340906,-0.0647693392335611,-0.996194698091746,0.0583185749923972,3.10332462131615,0.669130606358858,0,0.743144825477394,40.4956241519059
5,72,72,60,0,-0.862729915662821,0.0871557427476582,0.498097349045873,32.4383964939754,-0.0754790873051733,-0.996194698091746,0.0435778713738291,2.83799195618192,0.5,0,0.866025403784439,42.7074745614327
5,72,84,0,0,0.207120524063942,0.0871557427476582,0.974425453802179,40.6204559823767,0.0181206978391433,-0.996194698091746,0.0852511806587946,3.55382940571176,0.978147600733806,0,-0.207911690817759,19.6341964238734
5,72,84,12,0,1.16299246958829e-16,0.0871557427476582,0.996194698091746,41.0123023795889,1.01748656854993e-17,-0.996194698091746,0.0871557427476582,3.5881115233113,1.0,0,-1.16743491188625e-16,23.3766068585931
5,72,84,36,0,-0.405188887351747,0.0871557427476582,0.910069141369356,39.4620423585859,-0.0354494342299605,-0.996194698091746,0.0796207328945902,3.45248134595608,0.913545457642601,0,0.4067366430758,30.6978664339575
5,72,84,48,0,-0.585548551950281,0.0871557427476582,0.805938440462442,37.5876897422614,-0.0512288602396701,-0.996194698091746,0.0705104770402265,3.28849674057753,0.809016994374947,0,0.587785252292473,33.9567413998576
5,72,84,60,0,-0.740316935054895,0.0871557427476582,0.66658436238561,35.0793163368784,-0.0647693392335611,-0.996194698091746,0.0583185749923972,3.06904250371661,0.669130606358858,0,0.743144825477394,36.7532137171862
5,72,96,0,0,0.405188887351747,0.0871557427476582,0.910069141369356,38.3036287347951,0.0354494342299605,-0.996194698091746,0.0796207328945902,3.3511332862004,0.913545457642601,0,-0.4067366430758,12.476498142584
5,72,96,12,0,0.207120524063942,0.0871557427476582,0.974425453802179,39.4620423585859,0.0181206978391433,-0.996194698091746,0.0852511806587946,3.45248134595608,0.978147600733806,0,-0.20791169081776,16.0553472832287
5,72,96,36,0,-0.207120524063942,0.0871557427476582,0.974425453802179,39.4620423585859,-0.0181206978391433,-0.996194698091746,0.0852511806587946,3.45248134595608,0.978147600733806,0,0.207911690817759,23.540168152668
5,72,96,60,0,-0.585548551950281,0.0871557427476582,0.805938440462442,36.4292761184706,-0.0512288602396701,-0.996194698091746,0.0705104770402265,3.18714868082185,0.809016994374948,0,0.587785252292473,30.3778922592129
5,72,108,0,0,0.585548551950281,0.0871557427476582,0.805938440462442,34.5549235021462,0.0512288602396701,-0.996194698091746,0.0705104770402265,3.02316407544331,0.809016994374947,0,-0.587785252292473,5.95874821078373
5,72,108,12,0,0.405188887351747,0.0871557427476582,0.910069141369356,36.4292761184706,0.0354494342299605,-0.996194698091746,0.0796207328945902,3.18714868082185,0.913545457642601,0,-0.4067366430758,9.21762317668384
5,72,120,0,0,0.740316935054896,0.0871557427476582,0.666584362385609,29.5381766913802,0.0647693392335611,-0.996194698091746,0.0583185749923972,2.58425560172145,0.669130606358858,0,-0.743144825477394,0.365803576126575
5,72,120,12,0,0.585548551950281,0.0871557427476582,0.805938440462442,32.0465500967632,0.0512288602396701,-0.996194698091746,0.0705104770402265,2.80370983858238,0.809016994374947,0,-0.587785252292473,3.16227589345516
5,72,120,120,0,-0.947437459118838,0.0871557427476582,0.307841091416569,23.0807978139375,-0.0828900370727044,-0.996194698091746,0.0269326056663975,2.01930815385346,0.309016994374948,0,0.951056516295154,30.8614277280324
5,84,0,120,0,0.405188887351747,0.0871557427476582,-0.910069141369356,-12.6325393119995,0.0354494342299605,-0.996194698091746,-0.0796207328945902,-1.10520398134553,-0.913545457642601,0,-0.4067366430758,38.4815286578934
5,84,12,0,0,-0.947437459118838,0.0871557427476582,0.307841091416569,12.956631907321,-0.0828900370727044,-0.996194698091746,0.0269326056663975,1.13355840936885,0.309016994374947,0,0.951056516295154,62.1394287032544
5,84,24,0,0,-0.862729915662821,0.0871557427476582,0.498097349045873,19.8058571819759,-0.0754790873051733,-0.996194698091746,0.0435778713738291,1.73278797483639,0.5,0,0.866025403784439,59.0783086528687
5,84,24,12,0,-0.947437459118838,0.0871557427476582,0.307841091416569,16.3812445446484,-0.0828900370727044,-0.996194698091746,0.0269326056663975,1.43317319210262,0.309016994374947,0,0.951056516295154,60.6088686780616
5,84,36,0,0,-0.740316935054896,0.0871557427476582,0.666584362385609,25.8713896622064,-0.0647693392335611,-0.996194698091746,0.0583185749923972,2.26345330510484,0.669130606358858,0,0.743144825477394,54.6546078338151
5,84,36,12,0,-0.862729915662821,0.0871557427476582,0.498097349045873,22.8386234220911,-0.0754790873051733,-0.996194698091746,0.0435778713738291,1.99812063997062,0.5,0,0.866025403784439,56.8664582433419
5,84,48,0,0,-0.585548551950281,0.0871557427476582,0.805938440462442,30.8881364729724,-0.0512288602396701,-0.996194698091746,0.0705104770402265,2.7023617788267,0.809016994374947,0,0.587785252292473,49.0616631991579
5,84,48,12,0,-0.740316935054896,0.0871557427476582,0.666584362385609,28.3797630675894,-0.0647693392335611,-0.996194698091746,0.0583185749923972,2.48290754196577,0.669130606358858,0,0.743144825477394,51.8581355164865
5,84,60,0,0,-0.405188887351747,0.0871557427476582,0.910069141369356,34.6368417056213,-0.0354494342299605,-0.996194698091746,0.0796207328945902,3.03033098958379,0.913545457642601,0,0.4067366430758,42.5439132673577
5,84,60,12,0,-0.585548551950281,0.0871557427476582,0.805938440462442,32.7624890892968,-0.0512288602396701,-0.996194698091746,0.0705104770402265,2.86634638420525,0.809016994374947,0,0.587785252292473,45.8027882332578
5,84,72,0,0,-0.207120524063942,0.0871557427476582,0.974425453802179,36.9536689532029,-0.0181206978391433,-0.996194698091746,0.0852511806587946,3.23302710909515,0.978147600733806,0,0.207911690817759,35.3862149860683
5,84,72,12,0,-0.405188887351747,0.0871557427476582,0.910069141369356,35.7952553294121,-0.0354494342299605,-0.996194698091746,0.0796207328945902,3.13167904933947,0.913545457642601,0,0.4067366430758,38.965064126713
5,84,72,36,0,-0.740316935054896,0.0871557427476582,0.666584362385609,31.4125293077046,-0.0647693392335611,-0.996194698091746,0.0583185749923972,2.7482402071,0.669130606358858,0,0.743144825477394,45.0204114099417
5,84,72,48,0,-0.862729915662821,0.0871557427476582,0.498097349045873,28.3797630675894,-0.0754790873051733,-0.996194698091746,0.0435778713738291,2.48290754196577,0.5,0,0.866025403784439,47.2322618194685
5,84,72,60,0,-0.947437459118838,0.0871557427476582,0.307841091416569,24.9551504302619,-0.0828900370727044,-0.996194698091746,0.0269326056663975,2.183292759232,0.309016994374948,0,0.951056516295154,48.7628218446614
5,84,84,0,0,6.0999332417281e-17,0.0871557427476582,0.996194698091746,37.7373617476273,5.33675006916149e-18,-0.996194698091746,0.0871557427476582,3.30159134429424,1.0,0,-6.12323399573677e-17,27.9013941166289
5,84,84,12,0,-0.207120524063942,0.0871557427476582,0.974425453802179,37.3455153504151,-0.0181206978391433,-0.996194698091746,0.0852511806587946,3.2673092266947,0.978147600733806,0,0.207911690817759,31.6438045513486
5,84,84,36,0,-0.585548551950281,0.0871557427476582,0.805938440462442,34.3127491102998,-0.0512288602396701,-0.996194698091746,0.0705104770402265,3.00197656156047,0.809016994374947,0,0.587785252292473,38.4815286578934
5,84,84,48,0,-0.740316935054896,0.0871557427476582,0.666584362385609,31.8043757049168,-0.0647693392335611,-0.996194698091746,0.0583185749923972,2.78252232469954,0.669130606358858,0,0.743144825477394,41.278000975222
5,84,84,60,0,-0.862729915662821,0.0871557427476582,0.498097349045873,28.7716094648016,-0.0754790873051733,-0.996194698091746,0.0435778713738291,2.51718965956532,0.5,0,0.866025403784439,43.4898513847488
5,84,96,0,0,0.207120524063942,0.0871557427476582,0.974425453802179,36.9536689532029,0.0181206978391433,-0.996194698091746,0.0852511806587946,3.23302710909515,0.978147600733806,0,-0.207911690817759,20.4165732471896
5,84,96,12,0,1.16299246958829e-16,0.0871557427476582,0.996194698091746,37.3455153504151,1.01748656854993e-17,-0.996194698091746,0.0871557427476582,3.2673092266947,1.0,0,-1.16743491188625e-16,24.1589836819092
5,84,96,36,0,-0.405188887351747,0.0871557427476582,0.910069141369356,35.7952553294121,-0.0354494342299605,-0.996194698091746,0.0796207328945902,3.13167904933947,0.913545457642601,0,0.4067366430758,31.4802432572737
5,84,96,60,0,-0.740316935054895,0.0871557427476582,0.66658436238561,31.4125293077046,-0.0647693392335611,-0.996194698091746,0.0583185749923972,2.7482402071,0.669130606358858,0,0.743144825477394,37.5355905405023
5,84,108,0,0,0.405188887351747,0.0871557427476582,0.910069141369356,34.6368417056213,0.0354494342299605,-0.996194698091746,0.0796207328945902,3.03033098958379,0.913545457642601,0,-0.4067366430758,13.2588749659001
5,84,108,12,0,0.207120524063942,0.0871557427476582,0.974425453802179,35.7952553294121,0.0181206978391433,-0.996194698091746,0.0852511806587946,3.13167904933947,0.978147600733806,0,-0.207911690817759,16.8377241065449
5,84,120,0,0,0.585548551950281,0.0871557427476582,0.805938440462442,30.8881364729724,0.0512288602396701,-0.996194698091746,0.0705104770402265,2.7023617788267,0.809016994374948,0,-0.587785252292473,6.74112503409989
5,84,120,12,0,0.405188887351747,0.0871557427476582,0.910069141369356,32.7624890892968,0.0354494342299605,-0.996194698091746,0.0796207328945902,2.86634638420525,0.913545457642601,0,-0.4067366430758,10.0
5,84,120,108,0,-0.947437459118838,0.0871557427476582,0.307841091416569,21.9223841901467,-0.0828900370727044,-0.996194698091746,0.0269326056663974,1.91796009409778,0.309016994374947,0,0.951056516295154,34.4402768686772
5,84,120,120,0,-0.990737439302028,0.0871557427476582,0.104130700906914,18.2555971609729,-0.0866782944696306,-0.996194698091746,0.0091102558543636,1.59715779748117,0.104528463267654,0,0.994521895368273,35.2226536919933
5,96,0,120,0,0.585548551950281,0.0871557427476582,-0.805938440462442,-18.2555971609729,0.0512288602396701,-0.996194698091746,-0.0705104770402265,-1.59715779748117,-0.809016994374948,0,-0.587785252292473,35.2226536919933
5,96,12,72,0,-0.405188887351747,0.0871557427476582,-0.910069141369356,-16.3812445446484,-0.0354494342299605,-0.996194698091746,-0.0796207328945902,-1.43317319210262,-0.913545457642601,0,0.4067366430758,53.1240478086222
5,96,12,84,0,-0.207120524063942,0.0871557427476582,-0.974425453802179,-17.5396581684392,-0.0181206978391433,-0.996194698091746,-0.0852511806587946,-1.5345212518583,-0.978147600733806,0,0.207911690817759,49.5451986679775
5,96,12,120,0,0.405188887351747,0.0871557427476582,-0.910069141369356,-16.3812445446484,0.0354494342299605,-0.996194698091746,-0.0796207328945902,-1.43317319210262,-0.913545457642601,0,-0.4067366430758,38.4815286578934
5,96,24,84,0,-0.405188887351747,0.0871557427476582,-0.910069141369356,-12.7144575154746,-0.0354494342299605,-0.996194698091746,-0.0796207328945902,-1.11237089548601,-0.913545457642601,0,0.4067366430758,52.3416709853061
5,96,36,0,0,-0.862729915662821,0.0871557427476582,0.498097349045873,16.057151949327,-0.0754790873051733,-0.996194698091746,0.0435778713738291,1.4048187640793,0.5,0,0.866025403784439,59.0783086528687
5,96,36,12,0,-0.947437459118838,0.0871557427476582,0.307841091416569,12.6325393119995,-0.0828900370727044,-0.996194698091746,0.0269326056663974,1.10520398134553,0.309016994374947,0,0.951056516295154,60.6088686780616
5,96,48,0,0,-0.740316935054896,0.0871557427476582,0.666584362385609,22.1226844295575,-0.0647693392335611,-0.996194698091746,0.0583185749923972,1.93548409434775,0.669130606358858,0,0.743144825477394,54.6546078338151
5,96,48,12,0,-0.862729915662821,0.0871557427476582,0.498097349045873,19.0899181894422,-0.0754790873051733,-0.996194698091746,0.0435778713738291,1.67015142921353,0.5,0,0.866025403784439,56.8664582433419
5,96,60,0,0,-0.585548551950281,0.0871557427476582,0.805938440462442,27.1394312403235,-0.0512288602396702,-0.996194698091746,0.0705104770402265,2.37439256806961,0.809016994374947,0,0.587785252292473,49.061663199158
5,96,60,12,0,-0.740316935054896,0.0871557427476582,0.666584362385609,24.6310578349405,-0.0647693392335611,-0.996194698091746,0.0583185749923972,2.15493833120868,0.669130606358858,0,0.743144825477394,51.8581355164865
5,96,72,0,0,-0.405188887351747,0.0871557427476582,0.910069141369356,30.8881364729724,-0.0354494342299605,-0.996194698091746,0.0796207328945902,2.7023617788267,0.913545457642601,0,0.4067366430758,42.5439132673577
5,96,72,12,0,-0.585548551950281,0.0871557427476582,0.805938440462442,29.0137838566479,-0.0512288602396701,-0.996194698091746,0.0705104770402265,2.53837717344816,0.809016994374947,0,0.587785252292473,45.8027882332578
5,96,72,36,0,-0.862729915662821,0.0871557427476582,0.498097349045873,23.4726442111497,-0.0754790873051733,-0.996194698091746,0.0435778713738291,2.053590271453,0.5,0,0.866025403784439,50.8111109601132
5,96,72,48,0,-0.947437459118838,0.0871557427476582,0.307841091416569,20.0480315738222,-0.0828900370727044,-0.996194698091746,0.0269326056663974,1.75397548871923,0.309016994374947,0,0.951056516295154,52.3416709853061
5,96,72,60,0,-0.990737439302028,0.0871557427476582,0.104130700906914,16.3812445446484,-0.0866782944696306,-0.996194698091746,0.0091102558543636,1.43317319210262,0.104528463267654,0,0.994521895368273,53.1240478086222
5,96,84,0,0,-0.207120524063942,0.0871557427476582,0.974425453802179,33.204963720554,-0.0181206978391433,-0.996194698091746,0.0852511806587946,2.90505789833806,0.978147600733806,0,0.207911690817759,35.3862149860683
5,96,84,12,0,-0.405188887351747,0.0871557427476582,0.910069141369356,32.0465500967632,-0.0354494342299605,-0.996194698091746,0.0796207328945902,2.80370983858238,0.913545457642601,0,0.4067366430758,38.965064126713
5,96,84,36,0,-0.740316935054896,0.0871557427476582,0.666584362385609,27.6638240750557,-0.0647693392335611,-0.996194698091746,0.0583185749923972,2.42027099634291,0.669130606358858,0,0.743144825477394,45.0204114099417
5,96,84,48,0,-0.862729915662821,0.0871557427476582,0.498097349045873,24.6310578349405,-0.0754790873051733,-0.996194698091746,0.0435778713738291,2.15493833120868,0.5,0,0.866025403784439,47.2322618194685
5,96,84,60,0,-0.947437459118838,0.0871557427476582,0.307841091416569,21.206445197613,-0.0828900370727044,-0.996194698091746,0.0269326056663975,1.85532354847491,0.309016994374948,0,0.951056516295154,48.7628218446614
5,96,96,0,0,6.0999332417281e-17,0.0871557427476582,0.996194698091746,33.9886565149784,5.33675006916149e-18,-0.996194698091746,0.0871557427476582,2.97362213353715,1.0,0,-6.12323399573677e-17,27.9013941166289
5,96,96,12,0,-0.207120524063942,0.0871557427476582,0.974425453802179,33.5968101177662,-0.0181206978391433,-0.996194698091746,0.0852511806587946,2.9393400159376,0.978147600733806,0,0.207911690817759,31.6438045513486
5,96,96,36,0,-0.585548551950281,0.0871557427476582,0.805938440462442,30.5640438776509,-0.0512288602396701,-0.996194698091746,0.0705104770402265,2.67400735080338,0.809016994374947,0,0.587785252292473,38.4815286578934
5,96,96,60,0,-0.862729915662821,0.0871557427476582,0.498097349045873,25.0229042321527,-0.0754790873051733,-0.996194698091746,0.0435778713738291,2.18922044880822,0.5,0,0.866025403784439,43.4898513847488
5,96,108,0,0,0.207120524063942,0.0871557427476582,0.974425453802179,33.204963720554,0.0181206978391433,-0.996194698091746,0.0852511806587946,2.90505789833806,0.978147600733806,0,-0.207911690817759,20.4165732471896
5,96,108,12,0,-1.0490041120736299e-16,0.0871557427476582,0.996194698091746,33.5968101177662,-9.17759677985208e-18,-0.996194698091746,0.0871557427476582,2.9393400159376,1.0,0,1.0530111373640599e-16,24.1589836819093
5,96,120,0,0,0.405188887351747,0.0871557427476582,0.910069141369356,30.8881364729724,0.0354494342299605,-0.996194698091746,0.0796207328945902,2.7023617788267,0.913545457642601,0,-0.4067366430758,13.2588749659001
5,96,120,12,0,0.207120524063942,0.0871557427476582,0.974425453802179,32.0465500967632,0.0181206978391433,-0.996194698091746,0.0852511806587946,2.80370983858238,0.978147600733806,0,-0.207911690817759,16.8377241065449
5,96,120,108,0,-0.990737439302028,0.0871557427476582,0.104130700906914,16.3812445446484,-0.0866782944696306,-0.996194698091746,0.0091102558543636,1.43317319210262,0.104528463267653,0,0.994521895368273,38.4815286578934
5,96,120,120,0,-0.990737439302028,0.0871557427476582,-0.104130700906914,12.6325393119995,-0.0866782944696306,-0.996194698091746,-0.0091102558543636,1.10520398134553,-0.104528463267653,0,0.994521895368273,38.4815286578934
5,108,0,120,0,0.740316935054895,0.0871557427476582,-0.66658436238561,-23.0807978139375,0.0647693392335611,-0.996194698091746,-0.0583185749923972,-2.01930815385346,-0.669130606358858,0,-0.743144825477394,30.8614277280324
5,108,12,48,0,-0.585548551950281,0.0871557427476582,-0.805938440462442,-21.9223841901467,-0.0512288602396701,-0.996194698091746,-0.0705104770402265,-1.91796009409778,-0.809016994374947,0,0.587785252292473,55.6005459512062
5,108,12,60,0,-0.405188887351747,0.0871557427476582,-0.910069141369356,-23.7967368064711,-0.0354494342299605,-0.996194698091746,-0.0796207328945902,-2.08194469947632,-0.913545457642601,0,0.4067366430758,52.3416709853061
5,108,12,72,0,-0.207120524063942,0.0871557427476582,-0.974425453802179,-24.9551504302619,-0.0181206978391433,-0.996194698091746,-0.0852511806587946,-2.183292759232,-0.978147600733806,0,0.20791169081776,48.7628218446614
5,108,12,84,0,-1.27698082710295e-16,0.0871557427476582,-0.996194698091746,-25.3469968274741,-1.11721345911466e-17,-0.996194698091746,-0.0871557427476582,-2.21757487683155,-1.0,0,1.28185868640845e-16,45.0204114099417
5,108,12,96,0,0.207120524063942,0.0871557427476582,-0.974425453802179,-24.9551504302619,0.0181206978391433,-0.996194698091746,-0.0852511806587946,-2.183292759232,-0.978147600733806,0,-0.207911690817759,41.278000975222
5,108,12,108,0,0.405188887351747,0.0871557427476582,-0.910069141369356,-23.7967368064711,0.0354494342299605,-0.996194698091746,-0.0796207328945902,-2.08194469947632,-0.913545457642601,0,-0.4067366430758,37.6991518345773
5,108,12,120,0,0.58554855195028,0.0871557427476582,-0.805938440462442,-21.9223841901467,0.0512288602396701,-0.996194698091746,-0.0705104770402265,-1.91796009409778,-0.809016994374948,0,-0.587785252292473,34.4402768686772
5,108,24,72,0,-0.405188887351747,0.0871557427476582,-0.910069141369356,-20.0480315738222,-0.0354494342299605,-0.996194698091746,-0.0796207328945902,-1.75397548871923,-0.913545457642601,0,0.4067366430758,52.3416709853061
5,108,24,84,0,-0.207120524063942,0.0871557427476582,-0.974425453802179,-21.206445197613,-0.0181206978391433,-0.996194698091746,-0.0852511806587946,-1.85532354847491,-0.978147600733806,0,0.207911690817759,48.7628218446614
5,108,36,72,0,-0.585548551950281,0.0871557427476582,-0.805938440462442,-14.506891928324,-0.0512288602396702,-0.996194698091746,-0.0705104770402265,-1.26918858672408,-0.809016994374947,0,0.587785252292473,54.81816912789
5,108,36,84,0,-0.405188887351747,0.0871557427476582,-0.910069141369356,-16.3812445446484,-0.0354494342299605,-0.996194698091746,-0.0796207328945902,-1.43317319210262,-0.913545457642601,0,0.4067366430758,51.5592941619899
5,108,36,96,0,-0.207120524063942,0.0871557427476582,-0.974425453802179,-17.5396581684392,-0.0181206978391433,-0.996194698091746,-0.0852511806587946,-1.5345212518583,-0.978147600733806,0,0.207911690817759,47.9804450213452
5,108,48,0,0,-0.862729915662821,0.0871557427476582,0.498097349045873,12.3903649201532,-0.0754790873051733,-0.996194698091746,0.0435778713738291,1.08401646746269,0.5,0,0.866025403784439,58.2959318295526
5,108,48,96,0,-0.405188887351747,0.0871557427476582,-0.910069141369356,-12.9566319073209,-0.0354494342299605,-0.996194698091746,-0.0796207328945902,-1.13355840936885,-0.913545457642601,0,0.4067366430758,50.0287341367971
5,108,60,0,0,-0.740316935054896,0.0871557427476582,0.666584362385609,18.4558974003837,-0.0647693392335611,-0.996194698091746,0.0583185749923972,1.61468179773114,0.669130606358858,0,0.743144825477394,53.872231010499
5,108,60,12,0,-0.862729915662821,0.0871557427476582,0.498097349045873,15.4231311602684,-0.0754790873051733,-0.996194698091746,0.0435778713738291,1.34934913259692,0.5,0,0.866025403784439,56.0840814200258
5,108,72,0,0,-0.585548551950281,0.0871557427476582,0.805938440462442,23.4726442111497,-0.0512288602396701,-0.996194698091746,0.0705104770402265,2.053590271453,0.809016994374947,0,0.587785252292473,48.2792863758418
5,108,72,12,0,-0.740316935054896,0.0871557427476582,0.666584362385609,20.9642708057667,-0.0647693392335611,-0.996194698091746,0.0583185749923972,1.83413603459207,0.669130606358858,0,0.743144825477394,51.0757586931704
5,108,72,36,0,-0.947437459118838,0.0871557427476582,0.307841091416569,14.506891928324,-0.0828900370727044,-0.996194698091746,0.0269326056663975,1.26918858672408,0.309016994374948,0,0.951056516295154,54.81816912789
5,108,84,0,0,-0.405188887351747,0.0871557427476582,0.910069141369356,27.2213494437986,-0.0354494342299605,-0.996194698091746,0.0796207328945902,2.38155948221009,0.913545457642601,0,0.4067366430758,41.7615364440416
5,108,84,12,0,-0.585548551950281,0.0871557427476582,0.805938440462442,25.3469968274741,-0.0512288602396701,-0.996194698091746,0.0705104770402265,2.21757487683155,0.809016994374947,0,0.587785252292473,45.0204114099417
5,108,84,36,0,-0.862729915662821,0.0871557427476582,0.498097349045873,19.8058571819759,-0.0754790873051733,-0.996194698091746,0.0435778713738291,1.73278797483639,0.5,0,0.866025403784439,50.0287341367971
5,108,84,48,0,-0.947437459118838,0.0871557427476582,0.307841091416569,16.3812445446484,-0.0828900370727044,-0.996194698091746,0.0269326056663975,1.43317319210262,0.309016994374948,0,0.951056516295154,51.5592941619899
5,108,84,60,0,-0.990737439302028,0.0871557427476582,0.104130700906914,12.7144575154746,-0.0866782944696306,-0.996194698091746,0.0091102558543636,1.11237089548602,0.104528463267654,0,0.994521895368273,52.3416709853061
5,108,96,0,0,-0.207120524063942,0.0871557427476582,0.974425453802179,29.5381766913802,-0.0181206978391433,-0.996194698091746,0.0852511806587946,2.58425560172145,0.978147600733806,0,0.207911690817759,34.6038381627521
5,108,96,12,0,-0.405188887351747,0.0871557427476582,0.910069141369356,28.3797630675894,-0.0354494342299605,-0.996194698091746,0.0796207328945902,2.48290754196577,0.913545457642601,0,0.4067366430758,38.1826873033968
5,108,96,36,0,-0.740316935054895,0.0871557427476582,0.66658436238561,23.9970370458819,-0.0647693392335611,-0.996194698091746,0.0583185749923972,2.0994686997263,0.669130606358858,0,0.743144825477394,44.2380345866255
5,108,96,60,0,-0.947437459118838,0.0871557427476582,0.30784109141657,17.5396581684392,-0.0828900370727044,-0.996194698091746,0.0269326056663975,1.5345212518583,0.309016994374948,0,0.951056516295153,47.9804450213452
5,108,108,0,0,6.0999332417281e-17,0.0871557427476582,0.996194698091746,30.3218694858046,5.33675006916149e-18,-0.996194698091746,0.0871557427476582,2.65281983692054,1.0,0,-6.12323399573677e-17,27.1190172933128
5,108,108,12,0,-0.207120524063942,0.0871557427476582,0.974425453802179,29.9300230885924,-0.0181206978391433,-0.996194698091746,0.0852511806587946,2.618537719321,0.978147600733806,0,0.207911690817759,30.8614277280324
5,108,120,0,0,0.207120524063942,0.0871557427476582,0.974425453802179,29.5381766913802,0.0181206978391433,-0.996194698091746,0.0852511806587946,2.58425560172145,0.978147600733806,0,-0.207911690817759,19.6341964238734
5,108,120,12,0,-1.0490041120736299e-16,0.0871557427476582,0.996194698091746,29.9300230885924,-9.17759677985208e-18,-0.996194698091746,0.0871557427476582,2.618537719321,1.0,0,1.0530111373640599e-16,23.3766068585931
5,120,0,0,0,-0.862729915662821,0.0871557427476582,-0.498097349045872,-26.8972568484771,-0.0754790873051733,-0.996194698091746,-0.0435778713738291,-2.35320505418677,-0.5,0,0.866025403784439,56.7653718043597
5,120,0,12,0,-0.740316935054896,0.0871557427476582,-0.666584362385609,-29.9300230885924,-0.0647693392335611,-0.996194698091746,-0.0583185749923971,-2.618537719321,-0.669130606358858,0,0.743144825477394,54.5535213948329
5,120,0,24,0,-0.585548551950281,0.0871557427476582,-0.805938440462442,-32.4383964939754,-0.0512288602396702,-0.996194698091746,-0.0705104770402265,-2.83799195618192,-0.809016994374947,0,0.587785252292473,51.7570490775043
5,120,0,36,0,-0.405188887351747,0.0871557427476582,-0.910069141369356,-34.3127491102998,-0.0354494342299605,-0.996194698091746,-0.0796207328945902,-3.00197656156047,-0.913545457642601,0,0.4067366430758,48.4981741116042
5,120,0,48,0,-0.207120524063942,0.0871557427476582,-0.974425453802179,-35.4711627340906,-0.0181206978391433,-0.996194698091746,-0.0852511806587946,-3.10332462131615,-0.978147600733806,0,0.20791169081776,44.9193249709595
5,120,0,60,0,-4.04197655418035e-16,0.0871557427476582,-0.996194698091746,-35.8630091313028,-3.53627126728359e-17,-0.996194698091746,-0.0871557427476582,-3.13760673891569,-1.0,0,4.05741624797134e-16,41.1769145362398
5,120,0,72,0,0.207120524063942,0.0871557427476582,-0.974425453802179,-35.4711627340906,0.0181206978391432,-0.996194698091746,-0.0852511806587946,-3.10332462131615,-0.978147600733806,0,-0.207911690817759,37.4345041015201
5,120,0,84,0,0.405188887351747,0.0871557427476582,-0.910069141369356,-34.3127491102998,0.0354494342299605,-0.996194698091746,-0.0796207328945902,-3.00197656156047,-0.913545457642601,0,-0.4067366430758,33.8556549608754
5,120,0,96,0,0.585548551950281,0.0871557427476582,-0.805938440462442,-32.4383964939754,0.0512288602396701,-0.996194698091746,-0.0705104770402265,-2.83799195618192,-0.809016994374948,0,-0.587785252292473,30.5967799949753
5,120,0,108,0,0.740316935054895,0.0871557427476582,-0.66658436238561,-29.9300230885924,0.0647693392335611,-0.996194698091746,-0.0583185749923972,-2.618537719321,-0.669130606358858,0,-0.743144825477394,27.8003076776467
5,120,0,120,0,0.862729915662821,0.0871557427476582,-0.498097349045873,-26.8972568484771,0.0754790873051733,-0.996194698091746,-0.0435778713738291,-2.35320505418677,-0.5,0,-0.866025403784438,25.5884572681199
5,120,12,0,0,-0.947437459118838,0.0871557427476582,-0.307841091416569,-20.0480315738222,-0.0828900370727044,-0.996194698091746,-0.0269326056663974,-1.75397548871923,-0.309016994374947,0,0.951056516295154,59.8264918547454
5,120,12,12,0,-0.862729915662821,0.0871557427476582,-0.498097349045872,-23.4726442111497,-0.0754790873051733,-0.996194698091746,-0.0435778713738291,-2.053590271453,-0.5,0,0.866025403784439,58.2959318295526
5,120,12,36,0,-0.585548551950281,0.0871557427476582,-0.805938440462442,-29.0137838566479,-0.0512288602396702,-0.996194698091746,-0.0705104770402265,-2.53837717344815,-0.809016994374947,0,0.587785252292473,53.2876091026972
5,120,12,48,0,-0.405188887351747,0.0871557427476582,-0.910069141369356,-30.8881364729724,-0.0354494342299605,-0.996194698091746,-0.0796207328945902,-2.7023617788267,-0.913545457642601,0,0.4067366430758,50.0287341367971
5,120,12,60,0,-0.207120524063943,0.0871557427476582,-0.974425453802179,-32.0465500967632,-0.0181206978391433,-0.996194698091746,-0.0852511806587946,-2.80370983858238,-0.978147600733806,0,0.20791169081776,46.4498849961523
5,120,12,72,0,-3.48897740876487e-16,0.0871557427476582,-0.996194698091746,-32.4383964939754,-3.0524597056498004e-17,-0.996194698091746,-0.0871557427476582,-2.83799195618192,-1.0,0,3.50230473565876e-16,42.7074745614327
5,120,12,84,0,0.207120524063942,0.0871557427476582,-0.974425453802179,-32.0465500967632,0.0181206978391433,-0.996194698091746,-0.0852511806587946,-2.80370983858238,-0.978147600733806,0,-0.207911690817759,38.965064126713
5,120,12,96,0,0.405188887351747,0.0871557427476582,-0.910069141369356,-30.8881364729724,0.0354494342299605,-0.996194698091746,-0.0796207328945902,-2.7023617788267,-0.913545457642601,0,-0.4067366430758,35.3862149860683
5,120,12,108,0,0.58554855195028,0.0871557427476582,-0.805938440462442,-29.0137838566479,0.0512288602396701,-0.996194698091746,-0.0705104770402265,-2.53837717344816,-0.809016994374948,0,-0.587785252292473,32.1273400201682
5,120,12,120,0,0.740316935054895,0.0871557427476582,-0.66658436238561,-26.5054104512649,0.0647693392335611,-0.996194698091746,-0.0583185749923972,-2.31892293658723,-0.669130606358859,0,-0.743144825477394,29.3308677028396
5,120,24,0,0,-0.990737439302028,0.0871557427476582,-0.104130700906914,-12.7144575154746,-0.0866782944696306,-0.996194698091746,-0.0091102558543636,-1.11237089548601,-0.104528463267653,0,0.994521895368273,61.3912455013777
5,120,24,12,0,-0.947437459118838,0.0871557427476582,-0.307841091416569,-16.3812445446484,-0.0828900370727044,-0.996194698091746,-0.0269326056663974,-1.43317319210262,-0.309016994374947,0,0.951056516295154,60.6088686780616
5,120,24,48,0,-0.585548551950281,0.0871557427476582,-0.805938440462442,-25.3469968274741,-0.0512288602396702,-0.996194698091746,-0.0705104770402265,-2.21757487683155,-0.809016994374947,0,0.587785252292473,54.0699859260133
5,120,24,60,0,-0.405188887351747,0.0871557427476582,-0.910069141369356,-27.2213494437986,-0.0354494342299605,-0.996194698091746,-0.0796207328945902,-2.38155948221009,-0.913545457642601,0,0.406736643075801,50.8111109601132
5,120,24,72,0,-0.207120524063942,0.0871557427476582,-0.974425453802179,-28.3797630675894,-0.0181206978391433,-0.996194698091746,-0.0852511806587946,-2.48290754196577,-0.978147600733806,0,0.20791169081776,47.2322618194685
5,120,24,84,0,-2.93597826334939e-16,0.0871557427476582,-0.996194698091746,-28.7716094648016,-2.56864814401602e-17,-0.996194698091746,-0.0871557427476582,-2.51718965956532,-1.0,0,2.94719322334619e-16,43.4898513847488
5,120,24,96,0,0.207120524063942,0.0871557427476582,-0.974425453802179,-28.3797630675894,0.0181206978391433,-0.996194698091746,-0.0852511806587946,-2.48290754196577,-0.978147600733806,0,-0.207911690817759,39.7474409500292
5,120,24,108,0,0.405188887351747,0.0871557427476582,-0.910069141369356,-27.2213494437986,0.0354494342299605,-0.996194698091746,-0.0796207328945902,-2.38155948221009,-0.913545457642601,0,-0.4067366430758,36.1685918093844
5,120,24,120,0,0.58554855195028,0.0871557427476582,-0.805938440462442,-25.3469968274741,0.0512288602396701,-0.996194698091746,-0.0705104770402266,-2.21757487683155,-0.809016994374948,0,-0.587785252292473,32.9097168434843
5,120,36,36,0,-0.862729915662821,0.0871557427476582,-0.498097349045872,-16.057151949327,-0.0754790873051733,-0.996194698091746,-0.0435778713738291,-1.4048187640793,-0.5,0,0.866025403784439,59.0783086528687
5,120,36,48,0,-0.740316935054896,0.0871557427476582,-0.666584362385609,-19.0899181894422,-0.0647693392335611,-0.996194698091746,-0.0583185749923972,-1.67015142921353,-0.669130606358858,0,0.743144825477394,56.8664582433419
5,120,36,60,0,-0.585548551950281,0.0871557427476582,-0.805938440462442,-21.5982915948252,-0.0512288602396702,-0.996194698091746,-0.0705104770402265,-1.88960566607445,-0.809016994374947,0,0.587785252292473,54.0699859260133
5,120,36,72,0,-0.405188887351747,0.0871557427476582,-0.910069141369356,-23.4726442111497,-0.0354494342299605,-0.996194698091746,-0.0796207328945902,-2.053590271453,-0.913545457642601,0,0.4067366430758,50.8111109601132
5,120,36,84,0,-0.207120524063942,0.0871557427476582,-0.974425453802179,-24.6310578349405,-0.0181206978391433,-0.996194698091746,-0.0852511806587946,-2.15493833120868,-0.978147600733806,0,0.20791169081776,47.2322618194685
5,120,36,96,0,-1.82997997251843e-16,0.0871557427476582,-0.996194698091746,-25.0229042321527,-1.6010250207484502e-17,-0.996194698091746,-0.0871557427476582,-2.18922044880822,-1.0,0,1.83697019872103e-16,43.4898513847488
5,120,36,108,0,0.207120524063942,0.0871557427476582,-0.974425453802179,-24.6310578349405,0.0181206978391432,-0.996194698091746,-0.0852511806587946,-2.15493833120868,-0.978147600733806,0,-0.207911690817759,39.7474409500292
5,120,36,120,0,0.405188887351746,0.0871557427476582,-0.910069141369356,-23.4726442111497,0.0354494342299605,-0.996194698091746,-0.0796207328945902,-2.053590271453,-0.913545457642601,0,-0.4067366430758,36.1685918093844
5,120,48,48,0,-0.862729915662821,0.0871557427476582,-0.498097349045872,-12.3903649201532,-0.0754790873051733,-0.996194698091746,-0.0435778713738291,-1.08401646746269,-0.5,0,0.866025403784439,58.2959318295526
5,120,48,60,0,-0.740316935054896,0.0871557427476582,-0.666584362385609,-15.4231311602684,-0.0647693392335611,-0.996194698091746,-0.0583185749923971,-1.34934913259692,-0.669130606358858,0,0.743144825477395,56.0840814200258
5,120,48,72,0,-0.585548551950281,0.0871557427476582,-0.805938440462442,-17.9315045656514,-0.0512288602396702,-0.996194698091746,-0.0705104770402265,-1.56880336945785,-0.809016994374947,0,0.587785252292473,53.2876091026972
5,120,48,84,0,-0.405188887351747,0.0871557427476582,-0.910069141369356,-19.8058571819759,-0.0354494342299605,-0.996194698091746,-0.0796207328945902,-1.73278797483639,-0.913545457642601,0,0.4067366430758,50.0287341367971
5,120,48,96,0,-0.207120524063942,0.0871557427476582,-0.974425453802179,-20.9642708057667,-0.0181206978391433,-0.996194698091746,-0.0852511806587946,-1.83413603459207,-0.978147600733806,0,0.20791169081776,46.4498849961523
5,120,48,108,0,-4.04197655418035e-16,0.0871557427476582,-0.996194698091746,-21.3561172029789,-3.53627126728359e-17,-0.996194698091746,-0.0871557427476582,-1.86841815219162,-1.0,0,4.05741624797134e-16,42.7074745614327
5,120,48,120,0,0.207120524063942,0.0871557427476582,-0.974425453802179,-20.9642708057667,0.0181206978391432,-0.996194698091746,-0.0852511806587946,-1.83413603459207,-0.978147600733806,0,-0.207911690817759,38.965064126713
5,120,60,72,0,-0.740316935054896,0.0871557427476582,-0.666584362385609,-11.998518522941,-0.0647693392335611,-0.996194698091746,-0.0583185749923972,-1.04973434986315,-0.669130606358858,0,0.743144825477394,54.5535213948329
5,120,60,84,0,-0.585548551950281,0.0871557427476582,-0.805938440462442,-14.506891928324,-0.0512288602396702,-0.996194698091746,-0.0705104770402265,-1.26918858672408,-0.809016994374947,0,0.587785252292473,51.7570490775043
5,120,60,96,0,-0.405188887351747,0.0871557427476582,-0.910069141369356,-16.3812445446484,-0.0354494342299605,-0.996194698091746,-0.0796207328945902,-1.43317319210262,-0.913545457642601,0,0.4067366430758,48.4981741116042
5,120,60,108,0,-0.207120524063942,0.0871557427476582,-0.974425453802179,-17.5396581684392,-0.0181206978391433,-0.996194698091746,-0.0852511806587946,-1.5345212518583,-0.978147600733806,0,0.20791169081776,44.9193249709595
5,120,60,120,0,-4.04197655418035e-16,0.0871557427476582,-0.996194698091746,-17.9315045656514,-3.53627126728359e-17,-0.996194698091746,-0.0871557427476582,-1.56880336945785,-1.0,0,4.05741624797134e-16,41.1769145362398
5,120,72,0,0,-0.740316935054895,0.0871557427476582,0.66658436238561,15.0312847630562,-0.0647693392335611,-0.996194698091746,0.0583185749923972,1.31506701499738,0.669130606358858,0,0.743144825477394,52.3416709853061
5,120,72,12,0,-0.862729915662821,0.0871557427476582,0.498097349045873,11.998518522941,-0.0754790873051733,-0.996194698091746,0.0435778713738291,1.04973434986315,0.5,0,0.866025403784438,54.5535213948329
5,120,72,96,0,-0.585548551950281,0.0871557427476582,-0.805938440462442,-11.4741256882087,-0.0512288602396702,-0.996194698091746,-0.0705104770402265,-1.00385592158985,-0.809016994374947,0,0.587785252292473,49.5451986679775
5,120,72,108,0,-0.405188887351747,0.0871557427476582,-0.910069141369356,-13.3484783045331,-0.0354494342299605,-0.996194698091746,-0.0796207328945902,-1.1678405269684,-0.913545457642601,0,0.4067366430758,46.2863237020774
5,120,72,120,0,-0.207120524063943,0.0871557427476582,-0.974425453802179,-14.506891928324,-0.0181206978391433,-0.996194698091746,-0.0852511806587946,-1.26918858672408,-0.978147600733806,0,0.20791169081776,42.7074745614327
5,120,84,0,0,-0.585548551950281,0.0871557427476582,0.805938440462442,20.0480315738222,-0.0512288602396701,-0.996194698091746,0.0705104770402265,1.75397548871923,0.809016994374948,0,0.587785252292473,46.7487263506489
5,120,84,12,0,-0.740316935054895,0.0871557427476582,0.66658436238561,17.5396581684392,-0.0647693392335611,-0.996194698091746,0.0583185749923972,1.5345212518583,0.669130606358858,0,0.743144825477394,49.5451986679775
5,120,96,0,0,-0.405188887351747,0.0871557427476582,0.910069141369356,23.7967368064711,-0.0354494342299605,-0.996194698091746,0.0796207328945902,2.08194469947632,0.913545457642601,0,0.4067366430758,40.2309764188487
5,120,96,12,0,-0.58554855195028,0.0871557427476582,0.805938440462442,21.9223841901467,-0.0512288602396701,-0.996194698091746,0.0705104770402265,1.91796009409778,0.809016994374948,0,0.587785252292473,43.4898513847488
5,120,96,36,0,-0.862729915662821,0.0871557427476582,0.498097349045873,16.3812445446484,-0.0754790873051733,-0.996194698091746,0.0435778713738291,1.43317319210262,0.5,0,0.866025403784438,48.4981741116042
5,120,96,48,0,-0.947437459118838,0.0871557427476582,0.30784109141657,12.956631907321,-0.0828900370727044,-0.996194698091746,0.0269326056663975,1.13355840936885,0.309016994374948,0,0.951056516295153,50.0287341367971
5,120,108,0,0,-0.207120524063942,0.0871557427476582,0.974425453802179,26.1135640540527,-0.0181206978391433,-0.996194698091746,0.0852511806587946,2.28464081898768,0.978147600733806,0,0.207911690817759,33.0732781375592
5,120,108,12,0,-0.405188887351747,0.0871557427476582,0.910069141369356,24.9551504302619,-0.0354494342299605,-0.996194698091746,0.0796207328945902,2.183292759232,0.913545457642601,0,0.4067366430758,36.652127278204
5,120,108,48,0,-0.862729915662821,0.0871557427476582,0.498097349045873,17.5396581684392,-0.0754790873051733,-0.996194698091746,0.0435778713738291,1.5345212518583,0.5,0,0.866025403784439,44.9193249709595
5,120,108,60,0,-0.947437459118838,0.0871557427476582,0.30784109141657,14.1150455311118,-0.0828900370727044,-0.996194698091746,0.0269326056663975,1.23490646912453,0.309016994374948,0,0.951056516295153,46.4498849961523
5,120,120,0,0,6.0999332417281e-17,0.0871557427476582,0.996194698091746,26.8972568484771,5.33675006916149e-18,-0.996194698091746,0.0871557427476582,2.35320505418677,1.0,0,-6.12323399573677e-17,25.5884572681199
5,120,120,12,0,-0.207120524063942,0.0871557427476582,0.974425453802179,26.5054104512649,-0.0181206978391433,-0.996194698091746,0.0852511806587946,2.31892293658723,0.978147600733806,0,0.207911690817759,29.3308677028396
5,120,120,48,0,-0.740316935054896,0.0871557427476582,0.666584362385609,20.9642708057667,-0.0647693392335611,-0.996194698091746,0.0583185749923972,1.83413603459207,0.669130606358858,0,0.743144825477394,38.965064126713
5,120,120,60,0,-0.862729915662821,0.0871557427476582,0.498097349045873,17.9315045656514,-0.0754790873051733,-0.996194698091746,0.0435778713738291,1.56880336945785,0.5,0,0.866025403784439,41.1769145362398
5,120,120,72,0,-0.947437459118838,0.0871557427476582,0.307841091416569,14.506891928324,-0.0828900370727044,-0.996194698091746,0.0269326056663975,1.26918858672408,0.309016994374948,0,0.951056516295154,42.7074745614327
10,0,12,0,0,0.204753045059207,0.17364817766693,0.963287340792942,52.4048838227656,0.0361034862261542,-0.984807753012208,0.169853548356706,9.24039493884614,0.978147600733806,0,-0.207911690817759,2.51517913056066
10,12,12,0,0,6.03020831250949e-17,0.17364817766693,0.984807753012208,52.7922512427124,1.06328842478789e-17,-0.984807753012208,0.17364817766693,9.30869826643019,1.0,0,-6.12323399573677e-17,13.7424104347197
10,12,24,0,0,0.204753045059207,0.17364817766693,0.963287340792942,52.0175164028188,0.0361034862261542,-0.984807753012208,0.169853548356706,9.1720916112621,0.978147600733806,0,-0.207911690817759,6.25758956528033
10,12,24,12,0,6.03020831250949e-17,0.17364817766693,0.984807753012208,52.4048838227656,1.06328842478789e-17,-0.984807753012208,0.17364817766693,9.24039493884614,1.0,0,-6.12323399573677e-17,10.0
10,12,36,12,0,0.204753045059207,0.17364817766693,0.963287340792942,50.8723439580252,0.0361034862261542,-0.984807753012208,0.169853548356706,8.97016681168111,0.978147600733806,0,-0.207911690817759,2.6787404246356
10,12,60,48,0,-1.03701353208433e-16,0.17364817766693,0.984807753012208,46.927081849052,-1.8285346506625e-17,-0.984807753012208,0.17364817766693,8.27451065590235,1.0,0,1.0530111373640599e-16,0.365803576126575
10,24,12,0,0,-0.204753045059206,0.17364817766693,0.963287340792942,50.8723439580252,-0.0361034862261542,-0.984807753012208,0.169853548356706,8.97016681168111,0.978147600733806,0,0.207911690817759,24.8060804448037
10,24,24,0,0,6.03020831250949e-17,0.17364817766693,0.984807753012208,51.6470787979188,1.06328842478789e-17,-0.984807753012208,0.17364817766693,9.1067734668492,1.0,0,-6.12323399573677e-17,17.3212595753644
10,24,24,12,0,-0.204753045059206,0.17364817766693,0.963287340792942,51.259711377972,-0.0361034862261542,-0.984807753012208,0.169853548356706,9.03847013926516,0.978147600733806,0,0.207911690817759,21.0636700100841
10,24,36,0,0,0.204753045059207,0.17364817766693,0.963287340792942,50.8723439580252,0.0361034862261542,-0.984807753012208,0.169853548356706,8.97016681168111,0.978147600733806,0,-0.207911690817759,9.83643870592507
10,24,36,12,0,5.634271013919e-18,0.17364817766693,0.984807753012208,51.259711377972,9.934739963775591e-19,-0.984807753012208,0.17364817766693,9.03847013926516,1.0,0,-5.7211887261098295e-18,13.5788491406447
10,24,48,0,0,0.400557399535207,0.17364817766693,0.899666649415519,48.581999068438,0.0706290768604774,-0.984807753012208,0.15863550393554,8.56631721251913,0.913545457642601,0,-0.4067366430758,2.6787404246356
10,24,48,12,0,0.204753045059207,0.17364817766693,0.963287340792942,49.7271715132316,0.0361034862261542,-0.984807753012208,0.169853548356706,8.76824201210012,0.978147600733806,0,-0.207911690817759,6.25758956528033
10,24,72,36,0,0.204753045059207,0.17364817766693,0.963287340792942,45.3945419843116,0.0361034862261542,-0.984807753012208,0.169853548356706,8.00428252873732,0.978147600733806,0,-0.207911690817759,0.20224228205164
10,24,72,48,0,-4.90335410972569e-17,0.17364817766693,0.984807753012208,45.7819094042584,-8.64593625512374e-18,-0.984807753012208,0.17364817766693,8.07258585632137,1.0,0,4.9789962505148e-17,3.94465271677131
10,24,72,60,0,-0.204753045059206,0.17364817766693,0.963287340792942,45.3945419843116,-0.0361034862261541,-0.984807753012208,0.169853548356706,8.00428252873732,0.978147600733806,0,0.207911690817759,7.68706315149097
10,24,84,60,0,1.69637707347447e-16,0.17364817766693,0.984807753012208,42.783809020809,2.99117047508815e-17,-0.984807753012208,0.17364817766693,7.54393986784683,1.0,0,-1.72254642419883e-16,1.73280230724451
10,24,96,72,0,1.69637707347447e-16,0.17364817766693,0.984807753012208,39.3983412174127,2.99117047508815e-17,-0.984807753012208,0.17364817766693,6.94699055178825,1.0,0,-1.72254642419883e-16,0.202242282051636
