matheussooares/kinematics-robotics/src/data/ready/dataset_15mm.csv
,theta_1,theta_2,theta_3,theta_4,theta_5,p_x,p_y,p_z,Roll,Pich,Yaw
0,0,0,12,0,0,53.213313626417,0.0,2.51517913056066,3.141592653589793,-1.3613568165555774,0.0
1,0,12,12,0,0,53.6066568132085,0.0,13.7424104347197,3.141592653589793,-1.5707963267948966,0.0
2,0,12,24,0,0,52.8199704396255,0.0,6.25758956528033,3.141592653589793,-1.3613568165555774,0.0
3,0,12,24,12,0,53.213313626417,0.0,10.0,3.141592653589793,-1.5707963267948966,0.0
4,0,12,36,12,0,51.6571318639838,0.0,2.6787404246356,3.141592653589793,-1.3613568165555774,0.0
5,0,12,60,48,0,47.651007727668,0.0,0.365803576126575,0.0,-1.5707963267948966,3.141592653589793
6,0,24,12,0,0,51.6571318639838,0.0,24.8060804448037,0.0,-1.5707963267948966,3.141592653589793
7,0,24,24,0,0,52.4438182375668,0.0,17.3212595753644,3.141592653589793,-1.5707963267948966,0.0
8,0,24,24,12,0,52.0504750507753,0.0,21.0636700100841,0.0,-1.5707963267948966,3.141592653589793
9,0,24,36,0,0,51.6571318639838,0.0,9.83643870592507,3.141592653589793,-1.3613568165555774,0.0
10,0,24,36,12,0,52.0504750507753,0.0,13.5788491406447,3.141592653589793,-1.5707963267948966,0.0
11,0,24,48,0,0,49.3314547127004,0.0,2.6787404246356,3.141592653589793,-1.1519173063162578,0.0
12,0,24,48,12,0,50.4942932883421,0.0,6.25758956528033,3.141592653589793,-1.3613568165555774,0.0
13,0,24,72,36,0,46.0948259652348,0.0,0.20224228205164,3.141592653589793,-1.3613568165555774,0.0
14,0,24,72,48,0,46.4881691520263,0.0,3.94465271677131,0.0,-1.5707963267948966,3.141592653589793
15,0,24,72,60,0,46.0948259652348,0.0,7.68706315149097,0.0,-1.5707963267948966,3.141592653589793
16,0,24,84,60,0,43.4438182375668,0.0,1.73280230724451,3.141592653589793,-1.5707963267948966,0.0
17,0,24,96,72,0,40.0061241363159,0.0,0.202242282051636,3.141592653589793,-1.5707963267948966,0.0
18,0,36,12,0,0,47.4499423738827,0.0,35.2226536919933,0.0,-1.5707963267948966,3.141592653589793
19,0,36,24,0,0,49.7756195251661,0.0,28.0649554107038,0.0,-1.5707963267948966,3.141592653589793
20,0,36,24,12,0,48.6127809495244,0.0,31.6438045513486,0.0,-1.5707963267948966,3.141592653589793
21,0,36,36,0,0,50.5623058987491,0.0,20.5801345412645,3.141592653589793,-1.5707963267948966,0.0
22,0,36,36,12,0,50.1689627119576,0.0,24.3225449759842,0.0,-1.5707963267948966,3.141592653589793
23,0,36,48,0,0,49.7756195251661,0.0,13.0953136718252,3.141592653589793,-1.3613568165555774,0.0
24,0,36,48,12,0,50.1689627119576,0.0,16.8377241065448,3.141592653589793,-1.5707963267948966,0.0
25,0,36,60,0,0,47.4499423738827,0.0,5.93761539053571,3.141592653589793,-1.1519173063162578,0.0
26,0,36,60,12,0,48.6127809495244,0.0,9.51646453118045,3.141592653589793,-1.3613568165555774,0.0
27,0,36,72,12,0,45.5684300350649,0.0,2.6787404246356,3.141592653589793,-1.1519173063162578,0.0
28,0,36,72,36,0,47.1246117974981,0.0,10.0,3.141592653589793,-1.5707963267948966,0.0
29,0,36,72,48,0,46.7312686107066,0.0,13.7424104347197,0.0,-1.5707963267948966,3.141592653589793
30,0,36,72,60,0,45.5684300350649,0.0,17.3212595753644,0.0,-1.5707963267948966,3.141592653589793
31,0,36,84,36,0,44.213313626417,0.0,3.46111724795175,3.141592653589793,-1.3613568165555774,0.0
32,0,36,84,48,0,44.6066568132085,0.0,7.20352768267142,3.141592653589793,-1.5707963267948966,0.0
33,0,36,84,60,0,44.213313626417,0.0,10.9459381173911,0.0,-1.5707963267948966,3.141592653589793
34,0,48,12,0,0,41.1689627119576,0.0,44.5368759411221,0.0,-1.5707963267948966,3.141592653589793
35,0,48,24,0,0,44.9319873895931,0.0,38.0191260093219,0.0,-1.5707963267948966,3.141592653589793
36,0,48,24,12,0,43.0504750507753,0.0,41.278000975222,0.0,-1.5707963267948966,3.141592653589793
37,0,48,36,0,0,47.2576645408764,0.0,30.8614277280324,0.0,-1.5707963267948966,3.141592653589793
38,0,48,36,12,0,46.0948259652348,0.0,34.4402768686772,0.0,-1.5707963267948966,3.141592653589793
39,0,48,48,0,0,48.0443509144595,0.0,23.3766068585931,3.141592653589793,-1.5707963267948966,0.0
40,0,48,48,12,0,47.6510077276679,0.0,27.1190172933128,0.0,-1.5707963267948966,3.141592653589793
41,0,48,60,0,0,47.2576645408764,0.0,15.8917859891538,3.141592653589793,-1.3613568165555774,0.0
42,0,48,60,12,0,47.651007727668,0.0,19.6341964238734,0.0,-1.5707963267948966,3.141592653589793
43,0,48,72,0,0,44.9319873895931,0.0,8.73408770786429,3.141592653589793,-1.1519173063162578,0.0
44,0,48,72,12,0,46.0948259652348,0.0,12.312936848509,3.141592653589793,-1.3613568165555774,0.0
45,0,48,72,36,0,46.0948259652348,0.0,19.7977577179484,0.0,-1.5707963267948966,3.141592653589793
46,0,48,72,48,0,44.9319873895931,0.0,23.3766068585931,0.0,-1.5707963267948966,3.141592653589793
47,0,48,72,60,0,43.0504750507753,0.0,26.6354818244932,0.0,-1.5707963267948966,3.141592653589793
48,0,48,84,0,0,41.1689627119576,0.0,2.21633777606406,3.141592653589793,-0.9424777960769378,0.0
49,0,48,84,12,0,43.0504750507753,0.0,5.47521274196418,3.141592653589793,-1.1519173063162578,0.0
50,0,48,84,36,0,44.6066568132085,0.0,12.7964723173286,3.141592653589793,-1.5707963267948966,0.0
51,0,48,84,48,0,44.213313626417,0.0,16.5388827520482,0.0,-1.5707963267948966,3.141592653589793
52,0,48,84,60,0,43.0504750507753,0.0,20.117731892693,0.0,-1.5707963267948966,3.141592653589793
53,0,48,96,36,0,41.6953586421274,0.0,6.25758956528033,3.141592653589793,-1.3613568165555774,0.0
54,0,48,108,36,0,37.4881691520263,0.0,0.466890015108799,3.141592653589793,-1.1519173063162578,0.0
55,0,60,12,0,0,33.0887018289189,0.0,52.3416709853061,0.0,-1.5707963267948966,3.141592653589793
56,0,60,24,0,0,38.1246117974981,0.0,46.7487263506489,0.0,-1.5707963267948966,3.141592653589793
57,0,60,24,12,0,35.6066568132085,0.0,49.5451986679775,0.0,-1.5707963267948966,3.141592653589793
58,0,60,36,0,0,41.8876364751336,0.0,40.2309764188487,0.0,-1.5707963267948966,3.141592653589793
59,0,60,36,12,0,40.0061241363159,0.0,43.4898513847488,0.0,-1.5707963267948966,3.141592653589793
60,0,60,48,0,0,44.213313626417,0.0,33.0732781375592,0.0,-1.5707963267948966,3.141592653589793
61,0,60,48,12,0,43.0504750507753,0.0,36.652127278204,0.0,-1.5707963267948966,3.141592653589793
62,0,60,60,0,0,45.0,0.0,25.5884572681199,3.141592653589793,-1.5707963267948966,0.0
63,0,60,60,12,0,44.6066568132085,0.0,29.3308677028396,0.0,-1.5707963267948966,3.141592653589793
64,0,60,72,0,0,44.213313626417,0.0,18.1036363986806,3.141592653589793,-1.3613568165555774,0.0
65,0,60,72,12,0,44.6066568132085,0.0,21.8460468334002,3.141592653589793,-1.5707963267948966,0.0
66,0,60,72,36,0,43.0504750507753,0.0,29.1673064087646,0.0,-1.5707963267948966,3.141592653589793
67,0,60,72,48,0,41.1689627119576,0.0,32.4261813746647,0.0,-1.5707963267948966,3.141592653589793
68,0,60,72,60,0,38.651007727668,0.0,35.2226536919933,0.0,-1.5707963267948966,3.141592653589793
69,0,60,84,0,0,41.8876364751336,0.0,10.9459381173911,3.141592653589793,-1.1519173063162578,0.0
70,0,60,84,12,0,43.0504750507753,0.0,14.5247872580358,3.141592653589793,-1.3613568165555765,0.0
71,0,60,84,36,0,43.0504750507753,0.0,22.0096081274752,0.0,-1.5707963267948966,3.141592653589793
72,0,60,84,48,0,41.8876364751336,0.0,25.5884572681199,0.0,-1.5707963267948966,3.141592653589793
73,0,60,84,60,0,40.0061241363159,0.0,28.84733223402,0.0,-1.5707963267948966,3.141592653589793
74,0,60,96,0,0,38.1246117974981,0.0,4.42818818559086,3.141592653589793,-0.9424777960769378,0.0
75,0,60,96,12,0,40.0061241363159,0.0,7.68706315149097,3.141592653589793,-1.1519173063162578,0.0
76,0,60,96,36,0,41.5623058987491,0.0,15.0083227268554,3.141592653589793,-1.5707963267948963,0.0
77,0,60,108,12,0,35.6066568132085,0.0,1.63171586826228,3.141592653589793,-0.9424777960769378,0.0
78,0,72,12,0,0,23.5623058987491,0.0,58.2959318295526,0.0,-1.5707963267948966,3.141592653589793
79,0,72,24,0,0,29.651007727668,0.0,53.872231010499,0.0,-1.5707963267948966,3.141592653589793
80,0,72,24,12,0,26.6066568132085,0.0,56.0840814200258,0.0,-1.5707963267948966,3.141592653589793
81,0,72,36,0,0,34.6869176962472,0.0,48.2792863758418,0.0,-1.5707963267948966,3.141592653589793
82,0,72,36,12,0,32.1689627119576,0.0,51.0757586931704,0.0,-1.5707963267948966,3.141592653589793
83,0,72,48,0,0,38.4499423738827,0.0,41.7615364440416,0.0,-1.5707963267948966,3.141592653589793
84,0,72,48,12,0,36.5684300350649,0.0,45.0204114099417,0.0,-1.5707963267948966,3.141592653589793
85,0,72,60,0,0,40.7756195251661,0.0,34.6038381627521,0.0,-1.5707963267948966,3.141592653589793
86,0,72,60,12,0,39.6127809495244,0.0,38.1826873033968,0.0,-1.5707963267948966,3.141592653589793
87,0,72,72,0,0,41.5623058987491,0.0,27.1190172933128,3.141592653589793,-1.5707963267948966,0.0
88,0,72,72,12,0,41.1689627119576,0.0,30.8614277280324,0.0,-1.5707963267948966,3.141592653589793
89,0,72,72,36,0,38.1246117974981,0.0,37.6991518345773,0.0,-1.5707963267948966,3.141592653589793
90,0,72,72,48,0,35.6066568132085,0.0,40.4956241519059,0.0,-1.5707963267948966,3.141592653589793
91,0,72,72,60,0,32.5623058987491,0.0,42.7074745614327,0.0,-1.5707963267948966,3.141592653589793
92,0,72,84,0,0,40.7756195251661,0.0,19.6341964238734,3.141592653589793,-1.3613568165555774,0.0
93,0,72,84,12,0,41.1689627119576,0.0,23.3766068585931,3.141592653589793,-1.5707963267948966,0.0
94,0,72,84,36,0,39.6127809495244,0.0,30.6978664339575,0.0,-1.5707963267948966,3.141592653589793
95,0,72,84,48,0,37.7312686107066,0.0,33.9567413998576,0.0,-1.5707963267948966,3.141592653589793
96,0,72,84,60,0,35.213313626417,0.0,36.7532137171862,0.0,-1.5707963267948966,3.141592653589793
97,0,72,96,0,0,38.4499423738827,0.0,12.476498142584,3.141592653589793,-1.1519173063162578,0.0
98,0,72,96,12,0,39.6127809495244,0.0,16.0553472832287,3.141592653589793,-1.3613568165555765,0.0
99,0,72,96,36,0,39.6127809495244,0.0,23.540168152668,0.0,-1.5707963267948966,3.141592653589793
100,0,72,108,0,0,34.6869176962472,0.0,5.95874821078373,3.141592653589793,-0.9424777960769378,0.0
101,0,72,108,12,0,36.5684300350649,0.0,9.21762317668384,3.141592653589793,-1.1519173063162578,0.0
102,0,72,120,0,0,29.651007727668,0.0,0.365803576126575,3.141592653589793,-0.7330382858376184,0.0
103,0,72,120,12,0,32.1689627119576,0.0,3.16227589345516,3.141592653589793,-0.9424777960769378,0.0
104,0,72,120,120,0,23.1689627119576,0.0,30.8614277280324,0.0,-1.5707963267948966,3.141592653589793
105,0,84,24,0,0,19.8815123388178,0.0,59.0783086528687,0.0,-1.5707963267948966,3.141592653589793
106,0,84,36,0,0,25.9702141677367,0.0,54.6546078338151,0.0,-1.5707963267948966,3.141592653589793
107,0,84,36,12,0,22.9258632532772,0.0,56.8664582433419,0.0,-1.5707963267948966,3.141592653589793
108,0,84,48,0,0,31.0061241363159,0.0,49.0616631991579,0.0,-1.5707963267948966,3.141592653589793
109,0,84,48,12,0,28.4881691520263,0.0,51.8581355164865,0.0,-1.5707963267948966,3.141592653589793
110,0,84,60,0,0,34.7691488139514,0.0,42.5439132673577,0.0,-1.5707963267948966,3.141592653589793
111,0,84,60,12,0,32.8876364751336,0.0,45.8027882332578,0.0,-1.5707963267948966,3.141592653589793
112,0,84,72,0,0,37.0948259652348,0.0,35.3862149860683,0.0,-1.5707963267948966,3.141592653589793
113,0,84,72,12,0,35.9319873895931,0.0,38.965064126713,0.0,-1.5707963267948966,3.141592653589793
114,0,84,72,36,0,31.5325200664857,0.0,45.0204114099417,0.0,-1.5707963267948966,3.141592653589793
115,0,84,72,48,0,28.4881691520263,0.0,47.2322618194685,0.0,-1.5707963267948966,3.141592653589793
116,0,84,72,60,0,25.0504750507753,0.0,48.7628218446614,0.0,-1.5707963267948966,3.141592653589793
117,0,84,84,0,0,37.8815123388178,0.0,27.9013941166289,3.141592653589793,-1.5707963267948966,0.0
118,0,84,84,12,0,37.4881691520263,0.0,31.6438045513486,0.0,-1.5707963267948966,3.141592653589793
119,0,84,84,36,0,34.4438182375668,0.0,38.4815286578934,0.0,-1.5707963267948966,3.141592653589793
120,0,84,84,48,0,31.9258632532772,0.0,41.278000975222,0.0,-1.5707963267948966,3.141592653589793
121,0,84,84,60,0,28.8815123388178,0.0,43.4898513847488,0.0,-1.5707963267948966,3.141592653589793
122,0,84,96,0,0,37.0948259652348,0.0,20.4165732471896,3.141592653589793,-1.3613568165555774,0.0
123,0,84,96,12,0,37.4881691520263,0.0,24.1589836819092,3.141592653589793,-1.5707963267948966,0.0
124,0,84,96,36,0,35.9319873895931,0.0,31.4802432572737,0.0,-1.5707963267948966,3.141592653589793
125,0,84,108,0,0,34.7691488139514,0.0,13.2588749659001,3.141592653589793,-1.1519173063162578,0.0
126,0,84,108,12,0,35.9319873895931,0.0,16.8377241065449,3.141592653589793,-1.3613568165555774,0.0
127,0,84,120,0,0,31.0061241363159,0.0,6.74112503409989,3.141592653589793,-0.9424777960769384,0.0
128,0,84,120,12,0,32.8876364751336,0.0,10.0,3.141592653589793,-1.1519173063162578,0.0
129,0,84,120,108,0,22.0061241363159,0.0,34.4402768686772,0.0,-1.5707963267948966,3.141592653589793
130,0,84,120,120,0,18.3253305763846,0.0,35.2226536919933,0.0,-1.5707963267948966,3.141592653589793
131,0,96,0,120,0,-18.3253305763846,0.0,35.2226536919933,3.141592653589793,0.9424777960769384,0.0
132,0,96,12,84,0,-17.6066568132085,0.0,49.5451986679775,0.0,1.5707963267948966,3.141592653589793
133,0,96,48,0,0,22.2071894901011,0.0,54.6546078338151,0.0,-1.5707963267948966,3.141592653589793
134,0,96,48,12,0,19.1628385756417,0.0,56.8664582433419,0.0,-1.5707963267948966,3.141592653589793
135,0,96,60,0,0,27.2430994586803,0.0,49.061663199158,0.0,-1.5707963267948966,3.141592653589793
136,0,96,60,12,0,24.7251444743907,0.0,51.8581355164865,0.0,-1.5707963267948966,3.141592653589793
137,0,96,72,0,0,31.0061241363159,0.0,42.5439132673577,0.0,-1.5707963267948966,3.141592653589793
138,0,96,72,12,0,29.1246117974981,0.0,45.8027882332578,0.0,-1.5707963267948966,3.141592653589793
139,0,96,72,36,0,23.5623058987491,0.0,50.8111109601132,0.0,-1.5707963267948966,3.141592653589793
140,0,96,72,48,0,20.1246117974981,0.0,52.3416709853061,0.0,-1.5707963267948966,3.141592653589793
141,0,96,84,0,0,33.3318012875992,0.0,35.3862149860683,0.0,-1.5707963267948966,3.141592653589793
142,0,96,84,12,0,32.1689627119576,0.0,38.965064126713,0.0,-1.5707963267948966,3.141592653589793
143,0,96,84,36,0,27.7694953888502,0.0,45.0204114099417,0.0,-1.5707963267948966,3.141592653589793
144,0,96,84,48,0,24.7251444743907,0.0,47.2322618194685,0.0,-1.5707963267948966,3.141592653589793
145,0,96,84,60,0,21.2874503731398,0.0,48.7628218446614,0.0,-1.5707963267948966,3.141592653589793
146,0,96,96,0,0,34.1184876611822,0.0,27.9013941166289,3.141592653589793,-1.5707963267948966,0.0
147,0,96,96,12,0,33.7251444743907,0.0,31.6438045513486,0.0,-1.5707963267948966,3.141592653589793
148,0,96,96,36,0,30.6807935599313,0.0,38.4815286578934,0.0,-1.5707963267948966,3.141592653589793
149,0,96,108,0,0,33.3318012875992,0.0,20.4165732471896,3.141592653589793,-1.3613568165555774,0.0
150,0,96,108,12,0,33.7251444743907,0.0,24.1589836819093,0.0,-1.5707963267948966,3.141592653589793
151,0,96,120,0,0,31.0061241363159,0.0,13.2588749659001,3.141592653589793,-1.1519173063162578,0.0
152,0,96,120,12,0,32.1689627119576,0.0,16.8377241065449,3.141592653589793,-1.3613568165555774,0.0
153,0,108,0,120,0,-23.1689627119576,0.0,30.8614277280324,3.141592653589793,0.7330382858376184,0.0
154,0,108,12,48,0,-22.0061241363159,0.0,55.6005459512062,0.0,1.5707963267948966,3.141592653589793
155,0,108,12,60,0,-23.8876364751336,0.0,52.3416709853061,0.0,1.5707963267948966,3.141592653589793
156,0,108,12,72,0,-25.0504750507753,0.0,48.7628218446614,0.0,1.5707963267948966,3.141592653589793
157,0,108,12,84,0,-25.4438182375668,0.0,45.0204114099417,0.0,1.5707963267948966,3.141592653589793
158,0,108,12,96,0,-25.0504750507753,0.0,41.278000975222,3.141592653589793,1.3613568165555774,0.0
159,0,108,12,108,0,-23.8876364751336,0.0,37.6991518345773,3.141592653589793,1.1519173063162578,0.0
160,0,108,12,120,0,-22.0061241363159,0.0,34.4402768686772,3.141592653589793,0.9424777960769384,0.0
161,0,108,24,72,0,-20.1246117974981,0.0,52.3416709853061,0.0,1.5707963267948966,3.141592653589793
162,0,108,24,84,0,-21.2874503731398,0.0,48.7628218446614,0.0,1.5707963267948966,3.141592653589793
163,0,108,60,0,0,18.5263959301698,0.0,53.872231010499,0.0,-1.5707963267948966,3.141592653589793
164,0,108,72,0,0,23.5623058987491,0.0,48.2792863758418,0.0,-1.5707963267948966,3.141592653589793
165,0,108,72,12,0,21.0443509144595,0.0,51.0757586931704,0.0,-1.5707963267948966,3.141592653589793
166,0,108,84,0,0,27.3253305763846,0.0,41.7615364440416,0.0,-1.5707963267948966,3.141592653589793
167,0,108,84,12,0,25.4438182375668,0.0,45.0204114099417,0.0,-1.5707963267948966,3.141592653589793
168,0,108,84,36,0,19.8815123388178,0.0,50.0287341367971,0.0,-1.5707963267948966,3.141592653589793
169,0,108,96,0,0,29.651007727668,0.0,34.6038381627521,0.0,-1.5707963267948966,3.141592653589793
170,0,108,96,12,0,28.4881691520263,0.0,38.1826873033968,0.0,-1.5707963267948966,3.141592653589793
171,0,108,96,36,0,24.0887018289189,0.0,44.2380345866255,0.0,-1.5707963267948966,3.141592653589793
172,0,108,108,0,0,30.4376941012509,0.0,27.1190172933128,3.141592653589793,-1.5707963267948966,0.0
173,0,108,108,12,0,30.0443509144595,0.0,30.8614277280324,0.0,-1.5707963267948966,3.141592653589793
174,0,108,120,0,0,29.651007727668,0.0,19.6341964238734,3.141592653589793,-1.3613568165555774,0.0
175,0,108,120,12,0,30.0443509144595,0.0,23.3766068585931,0.0,-1.5707963267948966,3.141592653589793
176,0,120,0,0,0,-27.0,0.0,56.7653718043597,0.0,1.5707963267948966,3.141592653589793
177,0,120,0,12,0,-30.0443509144594,0.0,54.5535213948329,0.0,1.5707963267948966,3.141592653589793
178,0,120,0,24,0,-32.562305898749,0.0,51.7570490775043,0.0,1.5707963267948966,3.141592653589793
179,0,120,0,36,0,-34.4438182375668,0.0,48.4981741116042,0.0,1.5707963267948966,3.141592653589793
180,0,120,0,48,0,-35.6066568132085,0.0,44.9193249709595,0.0,1.5707963267948966,3.141592653589793
181,0,120,0,60,0,-36.0,0.0,41.1769145362398,0.0,1.5707963267948966,3.141592653589793
182,0,120,0,72,0,-35.6066568132085,0.0,37.4345041015201,3.141592653589793,1.3613568165555774,0.0
183,0,120,0,84,0,-34.4438182375668,0.0,33.8556549608754,3.141592653589793,1.1519173063162578,0.0
184,0,120,0,96,0,-32.562305898749,0.0,30.5967799949753,3.141592653589793,0.9424777960769384,0.0
185,0,120,0,108,0,-30.0443509144594,0.0,27.8003076776467,3.141592653589793,0.7330382858376184,0.0
186,0,120,0,120,0,-27.0,0.0,25.5884572681199,3.141592653589793,0.5235987755982991,0.0
187,0,120,12,0,0,-20.1246117974981,0.0,59.8264918547454,0.0,1.5707963267948966,3.141592653589793
188,0,120,12,12,0,-23.562305898749,0.0,58.2959318295526,0.0,1.5707963267948966,3.141592653589793
189,0,120,12,36,0,-29.1246117974981,0.0,53.2876091026972,0.0,1.5707963267948966,3.141592653589793
190,0,120,12,48,0,-31.0061241363159,0.0,50.0287341367971,0.0,1.5707963267948966,3.141592653589793
191,0,120,12,60,0,-32.1689627119575,0.0,46.4498849961523,0.0,1.5707963267948966,3.141592653589793
192,0,120,12,72,0,-32.562305898749,0.0,42.7074745614327,0.0,1.5707963267948966,3.141592653589793
193,0,120,12,84,0,-32.1689627119575,0.0,38.965064126713,3.141592653589793,1.3613568165555774,0.0
194,0,120,12,96,0,-31.0061241363159,0.0,35.3862149860683,3.141592653589793,1.1519173063162578,0.0
195,0,120,12,108,0,-29.1246117974981,0.0,32.1273400201682,3.141592653589793,0.9424777960769384,0.0
196,0,120,12,120,0,-26.6066568132085,0.0,29.3308677028396,3.141592653589793,0.7330382858376192,0.0
197,0,120,24,48,0,-25.4438182375668,0.0,54.0699859260133,0.0,1.5707963267948966,3.141592653589793
198,0,120,24,60,0,-27.3253305763846,0.0,50.8111109601132,0.0,1.5707963267948966,3.141592653589793
199,0,120,24,72,0,-28.4881691520263,0.0,47.2322618194685,0.0,1.5707963267948966,3.141592653589793
200,0,120,24,84,0,-28.8815123388178,0.0,43.4898513847488,0.0,1.5707963267948966,3.141592653589793
201,0,120,24,96,0,-28.4881691520263,0.0,39.7474409500292,3.141592653589793,1.3613568165555774,0.0
202,0,120,24,108,0,-27.3253305763846,0.0,36.1685918093844,3.141592653589793,1.1519173063162578,0.0
203,0,120,24,120,0,-25.4438182375668,0.0,32.9097168434843,3.141592653589793,0.9424777960769384,0.0
204,0,120,36,48,0,-19.1628385756417,0.0,56.8664582433419,0.0,1.5707963267948966,3.141592653589793
205,0,120,36,60,0,-21.6807935599313,0.0,54.0699859260133,0.0,1.5707963267948966,3.141592653589793
206,0,120,36,72,0,-23.562305898749,0.0,50.8111109601132,0.0,1.5707963267948966,3.141592653589793
207,0,120,36,84,0,-24.7251444743907,0.0,47.2322618194685,0.0,1.5707963267948966,3.141592653589793
208,0,120,36,96,0,-25.1184876611822,0.0,43.4898513847488,0.0,1.5707963267948966,3.141592653589793
209,0,120,36,108,0,-24.7251444743907,0.0,39.7474409500292,3.141592653589793,1.3613568165555774,0.0
210,0,120,36,120,0,-23.562305898749,0.0,36.1685918093844,3.141592653589793,1.1519173063162578,0.0
211,0,120,48,72,0,-18.0,0.0,53.2876091026972,0.0,1.5707963267948966,3.141592653589793
212,0,120,48,84,0,-19.8815123388178,0.0,50.0287341367971,0.0,1.5707963267948966,3.141592653589793
213,0,120,48,96,0,-21.0443509144594,0.0,46.4498849961523,0.0,1.5707963267948966,3.141592653589793
214,0,120,48,108,0,-21.4376941012509,0.0,42.7074745614327,0.0,1.5707963267948966,3.141592653589793
215,0,120,48,120,0,-21.0443509144594,0.0,38.965064126713,3.141592653589793,1.3613568165555774,0.0
216,0,120,60,108,0,-17.6066568132085,0.0,44.9193249709595,0.0,1.5707963267948966,3.141592653589793
217,0,120,60,120,0,-18.0,0.0,41.1769145362398,0.0,1.5707963267948966,3.141592653589793
218,0,120,84,0,0,20.1246117974981,0.0,46.7487263506489,0.0,-1.5707963267948966,3.141592653589793
219,0,120,84,12,0,17.6066568132085,0.0,49.5451986679775,0.0,-1.5707963267948966,3.141592653589793
220,0,120,96,0,0,23.8876364751336,0.0,40.2309764188487,0.0,-1.5707963267948966,3.141592653589793
221,0,120,96,12,0,22.0061241363159,0.0,43.4898513847488,0.0,-1.5707963267948966,3.141592653589793
222,0,120,108,0,0,26.213313626417,0.0,33.0732781375592,0.0,-1.5707963267948966,3.141592653589793
223,0,120,108,12,0,25.0504750507753,0.0,36.652127278204,0.0,-1.5707963267948966,3.141592653589793
224,0,120,108,48,0,17.6066568132085,0.0,44.9193249709595,0.0,-1.5707963267948966,3.141592653589793
225,0,120,120,0,0,27.0,0.0,25.5884572681199,3.141592653589793,-1.5707963267948966,0.0
226,0,120,120,12,0,26.6066568132085,0.0,29.3308677028396,0.0,-1.5707963267948966,3.141592653589793
227,0,120,120,48,0,21.0443509144595,0.0,38.965064126713,0.0,-1.5707963267948966,3.141592653589793
228,0,120,120,60,0,18.0,0.0,41.1769145362398,0.0,-1.5707963267948966,3.141592653589793
229,5,0,12,0,0,53.0108209025299,4.63784587317445,2.51517913056066,3.141592653589793,-1.3613568165555772,0.08726646259971664
230,5,12,12,0,0,53.4026672997421,4.672127990774,13.7424104347197,3.141592653589793,-1.5707963267948966,0.08726646259971654
231,5,12,24,0,0,52.6189745053177,4.60356375557491,6.25758956528033,3.141592653589793,-1.3613568165555772,0.08726646259971664
232,5,12,24,12,0,53.0108209025299,4.63784587317445,10.0,3.141592653589793,-1.5707963267948966,0.08726646259971654
233,5,12,36,12,0,51.4605608815268,4.50221569581923,2.6787404246356,3.141592653589793,-1.3613568165555772,0.08726646259971664
234,5,12,60,48,0,47.4696812570316,4.1530589711793,0.365803576126575,0.0,-1.5707963267948966,-3.0543261909900763
235,5,24,12,0,0,51.4605608815268,4.50221569581923,24.8060804448037,0.0,-1.361356816555577,-3.0543261909900767
236,5,24,24,0,0,52.2442536759512,4.57077993101832,17.3212595753644,3.141592653589793,-1.5707963267948966,0.08726646259971654
237,5,24,24,12,0,51.8524072787391,4.53649781341877,21.0636700100841,0.0,-1.361356816555577,-3.0543261909900767
238,5,24,36,0,0,51.4605608815268,4.50221569581923,9.83643870592507,3.141592653589793,-1.3613568165555772,0.08726646259971664
239,5,24,36,12,0,51.8524072787391,4.53649781341877,13.5788491406447,3.141592653589793,-1.5707963267948966,0.08726646259971657
240,5,24,48,0,0,49.1437336339452,4.29951957630787,2.6787404246356,3.141592653589793,-1.1519173063162573,0.08726646259971642
241,5,24,48,12,0,50.302147257736,4.40086763606355,6.25758956528033,3.141592653589793,-1.3613568165555772,0.08726646259971664
242,5,24,72,36,0,45.9194212360286,4.01742879382408,0.20224228205164,3.141592653589793,-1.3613568165555772,0.08726646259971664
243,5,24,72,48,0,46.3112676332408,4.05171091142362,3.94465271677131,0.0,-1.5707963267948966,-3.0543261909900767
244,5,24,72,60,0,45.9194212360286,4.01742879382408,7.68706315149097,0.0,-1.361356816555577,-3.0543261909900767
245,5,24,84,60,0,43.2785013931255,3.78637824628939,1.73280230724451,3.141592653589793,-1.5707963267948966,0.08726646259971663
246,5,24,96,72,0,39.8538887557981,3.48676346355562,0.202242282051636,3.141592653589793,-1.5707963267948966,0.08726646259971663
247,5,36,12,0,0,47.2693810176208,4.13553497092932,35.2226536919933,0.0,-1.1519173063162578,-3.0543261909900767
248,5,36,24,0,0,49.5862082652024,4.33823109044068,28.0649554107038,0.0,-1.361356816555577,-3.0543261909900767
249,5,36,24,12,0,48.4277946414116,4.236883030685,31.6438045513486,0.0,-1.1519173063162578,-3.0543261909900767
250,5,36,36,0,0,50.3699010596268,4.40679532563977,20.5801345412645,3.141592653589793,-1.5707963267948966,0.08726646259971654
251,5,36,36,12,0,49.9780546624146,4.37251320804023,24.3225449759842,0.0,-1.361356816555577,-3.0543261909900767
252,5,36,48,0,0,49.5862082652024,4.33823109044068,13.0953136718252,3.141592653589793,-1.3613568165555772,0.08726646259971664
253,5,36,48,12,0,49.9780546624146,4.37251320804023,16.8377241065448,3.141592653589793,-1.5707963267948966,0.08726646259971622
254,5,36,60,0,0,47.2693810176208,4.13553497092932,5.93761539053571,3.141592653589793,-1.1519173063162573,0.08726646259971642
255,5,36,60,12,0,48.4277946414116,4.236883030685,9.51646453118045,3.141592653589793,-1.3613568165555772,0.08726646259971664
256,5,36,72,12,0,45.3950284012963,3.97155036555078,2.6787404246356,3.141592653589793,-1.1519173063162573,0.08726646259971642
257,5,36,72,36,0,46.9452884222993,4.107180542906,10.0,3.141592653589793,-1.5707963267948966,0.08726646259971654
258,5,36,72,48,0,46.5534420250871,4.07289842530646,13.7424104347197,0.0,-1.361356816555577,-3.0543261909900767
259,5,36,72,60,0,45.3950284012963,3.97155036555078,17.3212595753644,0.0,-1.1519173063162578,-3.0543261909900767
260,5,36,84,36,0,44.0450686197041,3.85344418844553,3.46111724795175,3.141592653589793,-1.3613568165555772,0.08726646259971664
261,5,36,84,48,0,44.4369150169163,3.88772630604507,7.20352768267142,3.141592653589793,-1.5707963267948966,0.08726646259971654
262,5,36,84,60,0,44.0450686197041,3.85344418844553,10.9459381173911,0.0,-1.361356816555577,-3.0543261909900767
263,5,48,12,0,0,41.0123023795889,3.5881115233113,44.5368759411221,0.0,-0.9424777960769383,-3.0543261909900767
264,5,48,24,0,0,44.7610076122378,3.9160807340684,38.0191260093219,0.0,-1.1519173063162578,-3.0543261909900767
265,5,48,24,12,0,42.8866549959133,3.75209612868985,41.278000975222,0.0,-0.9424777960769383,-3.0543261909900767
266,5,48,36,0,0,47.0778348598194,4.11877685357975,30.8614277280324,0.0,-1.361356816555577,-3.0543261909900767
267,5,48,36,12,0,45.9194212360286,4.01742879382408,34.4402768686772,0.0,-1.1519173063162578,-3.0543261909900767
268,5,48,48,0,0,47.8615276542438,4.18734108877884,23.3766068585931,3.141592653589793,-1.5707963267948966,0.08726646259971654
269,5,48,48,12,0,47.4696812570316,4.1530589711793,27.1190172933128,0.0,-1.361356816555577,-3.0543261909900767
270,5,48,60,0,0,47.0778348598194,4.11877685357976,15.8917859891538,3.141592653589793,-1.3613568165555772,0.08726646259971664
271,5,48,60,12,0,47.4696812570316,4.1530589711793,19.6341964238734,0.0,-1.5707963267948966,-3.0543261909900763
272,5,48,72,0,0,44.7610076122378,3.9160807340684,8.73408770786429,3.141592653589793,-1.1519173063162573,0.08726646259971642
273,5,48,72,12,0,45.9194212360286,4.01742879382408,12.312936848509,3.141592653589793,-1.3613568165555772,0.08726646259971664
274,5,48,72,36,0,45.9194212360286,4.01742879382408,19.7977577179484,0.0,-1.361356816555577,-3.0543261909900767
275,5,48,72,48,0,44.7610076122378,3.9160807340684,23.3766068585931,0.0,-1.1519173063162578,-3.0543261909900767
276,5,48,72,60,0,42.8866549959133,3.75209612868985,26.6354818244932,0.0,-0.9424777960769383,-3.0543261909900767
277,5,48,84,0,0,41.0123023795889,3.5881115233113,2.21633777606406,3.141592653589793,-0.9424777960769375,0.08726646259971636
278,5,48,84,12,0,42.8866549959133,3.75209612868985,5.47521274196418,3.141592653589793,-1.1519173063162573,0.08726646259971642
279,5,48,84,36,0,44.4369150169163,3.88772630604507,12.7964723173286,3.141592653589793,-1.5707963267948966,0.08726646259971654
280,5,48,84,48,0,44.0450686197041,3.85344418844553,16.5388827520482,0.0,-1.361356816555577,-3.0543261909900767
281,5,48,84,60,0,42.8866549959133,3.75209612868985,20.117731892693,0.0,-1.1519173063162578,-3.0543261909900767
282,5,48,96,36,0,41.5366952143212,3.6339899515846,6.25758956528033,3.141592653589793,-1.3613568165555772,0.08726646259971664
283,5,48,108,36,0,37.3455153504151,3.2673092266947,0.466890015108799,3.141592653589793,-1.1519173063162573,0.08726646259971642
284,5,60,12,0,0,32.9627893287077,2.88387038445522,52.3416709853061,0.0,-0.7330382858376184,-3.0543261909900767
285,5,60,24,0,0,37.9795361394736,3.32277885817708,46.7487263506489,0.0,-0.9424777960769388,-3.0543261909900767
286,5,60,24,12,0,35.4711627340906,3.10332462131615,49.5451986679775,0.0,-0.7330382858376184,-3.0543261909900767
287,5,60,36,0,0,41.7282413721225,3.65074806893417,40.2309764188487,0.0,-1.1519173063162578,-3.0543261909900767
288,5,60,36,12,0,39.8538887557981,3.48676346355562,43.4898513847488,0.0,-0.9424777960769383,-3.0543261909900767
289,5,60,48,0,0,44.0450686197041,3.85344418844553,33.0732781375592,0.0,-1.361356816555577,-3.0543261909900767
290,5,60,48,12,0,42.8866549959133,3.75209612868985,36.652127278204,0.0,-1.1519173063162578,-3.0543261909900767
291,5,60,60,0,0,44.8287614141286,3.92200842364462,25.5884572681199,3.141592653589793,-1.5707963267948966,0.08726646259971654
292,5,60,60,12,0,44.4369150169164,3.88772630604507,29.3308677028396,0.0,-1.361356816555577,-3.0543261909900767
293,5,60,72,0,0,44.0450686197041,3.85344418844553,18.1036363986806,3.141592653589793,-1.3613568165555772,0.08726646259971664
294,5,60,72,12,0,44.4369150169164,3.88772630604507,21.8460468334002,3.141592653589793,-1.5707963267948966,0.08726646259971622
295,5,60,72,36,0,42.8866549959133,3.75209612868985,29.1673064087646,0.0,-1.1519173063162578,-3.0543261909900767
296,5,60,72,48,0,41.0123023795889,3.5881115233113,32.4261813746647,0.0,-0.9424777960769383,-3.0543261909900767
297,5,60,72,60,0,38.5039289742059,3.36865728645038,35.2226536919933,0.0,-0.7330382858376184,-3.0543261909900767
298,5,60,84,0,0,41.7282413721225,3.65074806893417,10.9459381173911,3.141592653589793,-1.1519173063162573,0.08726646259971642
299,5,60,84,12,0,42.8866549959133,3.75209612868985,14.5247872580358,3.141592653589793,-1.3613568165555772,0.08726646259971664
300,5,60,84,36,0,42.8866549959133,3.75209612868985,22.0096081274752,0.0,-1.361356816555577,-3.0543261909900767
301,5,60,84,48,0,41.7282413721225,3.65074806893417,25.5884572681199,0.0,-1.1519173063162578,-3.0543261909900767
302,5,60,84,60,0,39.8538887557981,3.48676346355562,28.84733223402,0.0,-0.9424777960769388,-3.0543261909900767
303,5,60,96,0,0,37.9795361394736,3.32277885817708,4.42818818559086,3.141592653589793,-0.9424777960769375,0.08726646259971654
304,5,60,96,12,0,39.8538887557981,3.48676346355562,7.68706315149097,3.141592653589793,-1.1519173063162573,0.08726646259971642
305,5,60,96,36,0,41.4041487768011,3.62239364091085,15.0083227268554,3.141592653589793,-1.5707963267948963,0.08726646259971661
306,5,60,108,12,0,35.4711627340906,3.10332462131615,1.63171586826228,3.141592653589793,-0.9424777960769375,0.08726646259971636
307,5,72,12,0,0,23.4726442111497,2.053590271453,58.2959318295526,0.0,-0.5235987755982991,-3.0543261909900767
308,5,72,24,0,0,29.5381766913802,2.58425560172145,53.872231010499,0.0,-0.7330382858376184,-3.0543261909900767
309,5,72,24,12,0,26.5054104512649,2.31892293658723,56.0840814200258,0.0,-0.5235987755982991,-3.0543261909900767
310,5,72,36,0,0,34.5549235021462,3.02316407544331,48.2792863758418,0.0,-0.9424777960769383,-3.0543261909900767
311,5,72,36,12,0,32.0465500967632,2.80370983858238,51.0757586931704,0.0,-0.7330382858376184,-3.0543261909900767
312,5,72,48,0,0,38.3036287347951,3.3511332862004,41.7615364440416,0.0,-1.1519173063162578,-3.0543261909900767
313,5,72,48,12,0,36.4292761184706,3.18714868082185,45.0204114099417,0.0,-0.9424777960769383,-3.0543261909900767
314,5,72,60,0,0,40.6204559823767,3.55382940571176,34.6038381627521,0.0,-1.361356816555577,-3.0543261909900767
315,5,72,60,12,0,39.4620423585859,3.45248134595608,38.1826873033968,0.0,-1.1519173063162578,-3.0543261909900767
316,5,72,72,0,0,41.4041487768011,3.62239364091085,27.1190172933128,3.141592653589793,-1.5707963267948966,0.08726646259971654
317,5,72,72,12,0,41.0123023795889,3.5881115233113,30.8614277280324,0.0,-1.361356816555577,-3.0543261909900767
318,5,72,72,36,0,37.9795361394736,3.32277885817708,37.6991518345773,0.0,-0.9424777960769383,-3.0543261909900767
319,5,72,72,48,0,35.4711627340906,3.10332462131615,40.4956241519059,0.0,-0.7330382858376184,-3.0543261909900767
320,5,72,72,60,0,32.4383964939754,2.83799195618192,42.7074745614327,0.0,-0.5235987755982991,-3.0543261909900767
321,5,72,84,0,0,40.6204559823767,3.55382940571176,19.6341964238734,3.141592653589793,-1.3613568165555772,0.08726646259971664
322,5,72,84,12,0,41.0123023795889,3.5881115233113,23.3766068585931,3.141592653589793,-1.5707963267948966,0.08726646259971622
323,5,72,84,36,0,39.4620423585859,3.45248134595608,30.6978664339575,0.0,-1.1519173063162578,-3.0543261909900767
324,5,72,84,48,0,37.5876897422614,3.28849674057753,33.9567413998576,0.0,-0.9424777960769383,-3.0543261909900767
325,5,72,84,60,0,35.0793163368784,3.06904250371661,36.7532137171862,0.0,-0.7330382858376184,-3.0543261909900767
326,5,72,96,0,0,38.3036287347951,3.3511332862004,12.476498142584,3.141592653589793,-1.1519173063162573,0.08726646259971642
327,5,72,96,12,0,39.4620423585859,3.45248134595608,16.0553472832287,3.141592653589793,-1.3613568165555772,0.08726646259971664
328,5,72,96,36,0,39.4620423585859,3.45248134595608,23.540168152668,0.0,-1.361356816555577,-3.0543261909900767
329,5,72,108,0,0,34.5549235021462,3.02316407544331,5.95874821078373,3.141592653589793,-0.9424777960769375,0.08726646259971636
330,5,72,108,12,0,36.4292761184706,3.18714868082185,9.21762317668384,3.141592653589793,-1.1519173063162573,0.08726646259971642
331,5,72,120,0,0,29.5381766913802,2.58425560172145,0.365803576126575,3.141592653589793,-0.7330382858376181,0.08726646259971643
332,5,72,120,12,0,32.0465500967632,2.80370983858238,3.16227589345516,3.141592653589793,-0.9424777960769375,0.08726646259971636
333,5,72,120,120,0,23.0807978139375,2.01930815385346,30.8614277280324,0.0,-0.31415926535897987,-3.0543261909900767
334,5,84,24,0,0,19.8058571819759,1.73278797483639,59.0783086528687,0.0,-0.5235987755982991,-3.0543261909900767
335,5,84,36,0,0,25.8713896622064,2.26345330510484,54.6546078338151,0.0,-0.7330382858376184,-3.0543261909900767
336,5,84,36,12,0,22.8386234220911,1.99812063997062,56.8664582433419,0.0,-0.5235987755982991,-3.0543261909900767
337,5,84,48,0,0,30.8881364729724,2.7023617788267,49.0616631991579,0.0,-0.9424777960769383,-3.0543261909900767
338,5,84,48,12,0,28.3797630675894,2.48290754196577,51.8581355164865,0.0,-0.7330382858376184,-3.0543261909900767
339,5,84,60,0,0,34.6368417056213,3.03033098958379,42.5439132673577,0.0,-1.1519173063162578,-3.0543261909900767
340,5,84,60,12,0,32.7624890892968,2.86634638420525,45.8027882332578,0.0,-0.9424777960769383,-3.0543261909900767
341,5,84,72,0,0,36.9536689532029,3.23302710909515,35.3862149860683,0.0,-1.361356816555577,-3.0543261909900767
342,5,84,72,12,0,35.7952553294121,3.13167904933947,38.965064126713,0.0,-1.1519173063162578,-3.0543261909900767
343,5,84,72,36,0,31.4125293077046,2.7482402071,45.0204114099417,0.0,-0.7330382858376184,-3.0543261909900767
344,5,84,72,48,0,28.3797630675894,2.48290754196577,47.2322618194685,0.0,-0.5235987755982991,-3.0543261909900767
345,5,84,72,60,0,24.9551504302619,2.183292759232,48.7628218446614,0.0,-0.31415926535897987,-3.0543261909900767
346,5,84,84,0,0,37.7373617476273,3.30159134429424,27.9013941166289,3.141592653589793,-1.5707963267948966,0.08726646259971654
347,5,84,84,12,0,37.3455153504151,3.2673092266947,31.6438045513486,0.0,-1.361356816555577,-3.0543261909900767
348,5,84,84,36,0,34.3127491102998,3.00197656156047,38.4815286578934,0.0,-0.9424777960769383,-3.0543261909900767
349,5,84,84,48,0,31.8043757049168,2.78252232469954,41.278000975222,0.0,-0.7330382858376184,-3.0543261909900767
350,5,84,84,60,0,28.7716094648016,2.51718965956532,43.4898513847488,0.0,-0.5235987755982991,-3.0543261909900767
351,5,84,96,0,0,36.9536689532029,3.23302710909515,20.4165732471896,3.141592653589793,-1.3613568165555772,0.08726646259971664
352,5,84,96,12,0,37.3455153504151,3.2673092266947,24.1589836819092,3.141592653589793,-1.5707963267948966,0.08726646259971622
353,5,84,96,36,0,35.7952553294121,3.13167904933947,31.4802432572737,0.0,-1.1519173063162578,-3.0543261909900767
354,5,84,108,0,0,34.6368417056213,3.03033098958379,13.2588749659001,3.141592653589793,-1.1519173063162573,0.08726646259971642
355,5,84,108,12,0,35.7952553294121,3.13167904933947,16.8377241065449,3.141592653589793,-1.3613568165555772,0.08726646259971664
356,5,84,120,0,0,30.8881364729724,2.7023617788267,6.74112503409989,3.141592653589793,-0.9424777960769382,0.08726646259971636
357,5,84,120,12,0,32.7624890892968,2.86634638420525,10.0,3.141592653589793,-1.1519173063162573,0.08726646259971642
358,5,84,120,108,0,21.9223841901467,1.91796009409778,34.4402768686772,0.0,-0.3141592653589789,-3.0543261909900767
359,5,84,120,120,0,18.2555971609729,1.59715779748117,35.2226536919933,0.0,-0.10471975511966039,-3.0543261909900767
360,5,96,0,120,0,-18.2555971609729,-1.59715779748117,35.2226536919933,3.141592653589793,0.9424777960769382,0.08726646259971636
361,5,96,12,84,0,-17.5396581684392,-1.5345212518583,49.5451986679775,0.0,1.361356816555577,-3.0543261909900767
362,5,96,48,0,0,22.1226844295575,1.93548409434775,54.6546078338151,0.0,-0.7330382858376184,-3.0543261909900767
363,5,96,48,12,0,19.0899181894422,1.67015142921353,56.8664582433419,0.0,-0.5235987755982991,-3.0543261909900767
364,5,96,60,0,0,27.1394312403235,2.37439256806961,49.061663199158,0.0,-0.9424777960769373,-3.0543261909900767
365,5,96,60,12,0,24.6310578349405,2.15493833120868,51.8581355164865,0.0,-0.7330382858376184,-3.0543261909900767
366,5,96,72,0,0,30.8881364729724,2.7023617788267,42.5439132673577,0.0,-1.1519173063162578,-3.0543261909900767
367,5,96,72,12,0,29.0137838566479,2.53837717344816,45.8027882332578,0.0,-0.9424777960769383,-3.0543261909900767
368,5,96,72,36,0,23.4726442111497,2.053590271453,50.8111109601132,0.0,-0.5235987755982991,-3.0543261909900767
369,5,96,72,48,0,20.0480315738222,1.75397548871923,52.3416709853061,0.0,-0.3141592653589789,-3.0543261909900767
370,5,96,84,0,0,33.204963720554,2.90505789833806,35.3862149860683,0.0,-1.361356816555577,-3.0543261909900767
371,5,96,84,12,0,32.0465500967632,2.80370983858238,38.965064126713,0.0,-1.1519173063162578,-3.0543261909900767
372,5,96,84,36,0,27.6638240750557,2.42027099634291,45.0204114099417,0.0,-0.7330382858376184,-3.0543261909900767
373,5,96,84,48,0,24.6310578349405,2.15493833120868,47.2322618194685,0.0,-0.5235987755982991,-3.0543261909900767
374,5,96,84,60,0,21.206445197613,1.85532354847491,48.7628218446614,0.0,-0.31415926535897987,-3.0543261909900767
375,5,96,96,0,0,33.9886565149784,2.97362213353715,27.9013941166289,3.141592653589793,-1.5707963267948966,0.08726646259971654
376,5,96,96,12,0,33.5968101177662,2.9393400159376,31.6438045513486,0.0,-1.361356816555577,-3.0543261909900767
377,5,96,96,36,0,30.5640438776509,2.67400735080338,38.4815286578934,0.0,-0.9424777960769383,-3.0543261909900767
378,5,96,108,0,0,33.204963720554,2.90505789833806,20.4165732471896,3.141592653589793,-1.3613568165555772,0.08726646259971664
379,5,96,108,12,0,33.5968101177662,2.9393400159376,24.1589836819093,0.0,-1.5707963267948966,-3.0543261909900763
380,5,96,120,0,0,30.8881364729724,2.7023617788267,13.2588749659001,3.141592653589793,-1.1519173063162573,0.08726646259971642
381,5,96,120,12,0,32.0465500967632,2.80370983858238,16.8377241065449,3.141592653589793,-1.3613568165555772,0.08726646259971664
382,5,108,0,120,0,-23.0807978139375,-2.01930815385346,30.8614277280324,3.141592653589793,0.7330382858376188,0.08726646259971654
383,5,108,12,48,0,-21.9223841901467,-1.91796009409778,55.6005459512062,0.0,0.9424777960769383,-3.0543261909900767
384,5,108,12,60,0,-23.7967368064711,-2.08194469947632,52.3416709853061,0.0,1.1519173063162578,-3.0543261909900767
385,5,108,12,72,0,-24.9551504302619,-2.183292759232,48.7628218446614,0.0,1.361356816555577,-3.0543261909900767
386,5,108,12,84,0,-25.3469968274741,-2.21757487683155,45.0204114099417,0.0,1.5707963267948966,-3.0543261909900767
387,5,108,12,96,0,-24.9551504302619,-2.183292759232,41.278000975222,3.141592653589793,1.3613568165555772,0.08726646259971664
388,5,108,12,108,0,-23.7967368064711,-2.08194469947632,37.6991518345773,3.141592653589793,1.1519173063162573,0.08726646259971642
389,5,108,12,120,0,-21.9223841901467,-1.91796009409778,34.4402768686772,3.141592653589793,0.9424777960769389,0.08726646259971652
390,5,108,24,72,0,-20.0480315738222,-1.75397548871923,52.3416709853061,0.0,1.1519173063162578,-3.0543261909900767
391,5,108,24,84,0,-21.206445197613,-1.85532354847491,48.7628218446614,0.0,1.361356816555577,-3.0543261909900767
392,5,108,60,0,0,18.4558974003837,1.61468179773114,53.872231010499,0.0,-0.7330382858376184,-3.0543261909900767
393,5,108,72,0,0,23.4726442111497,2.053590271453,48.2792863758418,0.0,-0.9424777960769383,-3.0543261909900767
394,5,108,72,12,0,20.9642708057667,1.83413603459207,51.0757586931704,0.0,-0.7330382858376184,-3.0543261909900767
395,5,108,84,0,0,27.2213494437986,2.38155948221009,41.7615364440416,0.0,-1.1519173063162578,-3.0543261909900767
396,5,108,84,12,0,25.3469968274741,2.21757487683155,45.0204114099417,0.0,-0.9424777960769383,-3.0543261909900767
397,5,108,84,36,0,19.8058571819759,1.73278797483639,50.0287341367971,0.0,-0.5235987755982991,-3.0543261909900767
398,5,108,96,0,0,29.5381766913802,2.58425560172145,34.6038381627521,0.0,-1.361356816555577,-3.0543261909900767
399,5,108,96,12,0,28.3797630675894,2.48290754196577,38.1826873033968,0.0,-1.1519173063162578,-3.0543261909900767
400,5,108,96,36,0,23.9970370458819,2.0994686997263,44.2380345866255,0.0,-0.7330382858376184,-3.0543261909900767
401,5,108,108,0,0,30.3218694858046,2.65281983692054,27.1190172933128,3.141592653589793,-1.5707963267948966,0.08726646259971654
402,5,108,108,12,0,29.9300230885924,2.618537719321,30.8614277280324,0.0,-1.361356816555577,-3.0543261909900767
403,5,108,120,0,0,29.5381766913802,2.58425560172145,19.6341964238734,3.141592653589793,-1.3613568165555772,0.08726646259971664
404,5,108,120,12,0,29.9300230885924,2.618537719321,23.3766068585931,0.0,-1.5707963267948966,-3.0543261909900763
405,5,120,0,0,0,-26.8972568484771,-2.35320505418677,56.7653718043597,0.0,0.5235987755982991,-3.0543261909900767
406,5,120,0,12,0,-29.9300230885924,-2.618537719321,54.5535213948329,0.0,0.7330382858376184,-3.0543261909900767
407,5,120,0,24,0,-32.4383964939754,-2.83799195618192,51.7570490775043,0.0,0.9424777960769373,-3.0543261909900767
408,5,120,0,36,0,-34.3127491102998,-3.00197656156047,48.4981741116042,0.0,1.1519173063162578,-3.0543261909900767
409,5,120,0,48,0,-35.4711627340906,-3.10332462131615,44.9193249709595,0.0,1.361356816555577,-3.0543261909900767
410,5,120,0,60,0,-35.8630091313028,-3.13760673891569,41.1769145362398,0.0,1.5707963267948961,-3.0543261909900767
411,5,120,0,72,0,-35.4711627340906,-3.10332462131615,37.4345041015201,3.141592653589793,1.3613568165555772,0.08726646259971617
412,5,120,0,84,0,-34.3127491102998,-3.00197656156047,33.8556549608754,3.141592653589793,1.1519173063162573,0.08726646259971642
413,5,120,0,96,0,-32.4383964939754,-2.83799195618192,30.5967799949753,3.141592653589793,0.9424777960769382,0.08726646259971636
414,5,120,0,108,0,-29.9300230885924,-2.618537719321,27.8003076776467,3.141592653589793,0.7330382858376188,0.08726646259971654
415,5,120,0,120,0,-26.8972568484771,-2.35320505418677,25.5884572681199,3.141592653589793,0.5235987755982988,0.08726646259971643
416,5,120,12,0,0,-20.0480315738222,-1.75397548871923,59.8264918547454,0.0,0.3141592653589789,-3.0543261909900767
417,5,120,12,12,0,-23.4726442111497,-2.053590271453,58.2959318295526,0.0,0.5235987755982991,-3.0543261909900767
418,5,120,12,36,0,-29.0137838566479,-2.53837717344815,53.2876091026972,0.0,0.9424777960769373,-3.0543261909900767
419,5,120,12,48,0,-30.8881364729724,-2.7023617788267,50.0287341367971,0.0,1.1519173063162578,-3.0543261909900767
420,5,120,12,60,0,-32.0465500967632,-2.80370983858238,46.4498849961523,0.0,1.3613568165555758,-3.054326190990077
421,5,120,12,72,0,-32.4383964939754,-2.83799195618192,42.7074745614327,0.0,1.5707963267948963,-3.0543261909900767
422,5,120,12,84,0,-32.0465500967632,-2.80370983858238,38.965064126713,3.141592653589793,1.3613568165555772,0.08726646259971664
423,5,120,12,96,0,-30.8881364729724,-2.7023617788267,35.3862149860683,3.141592653589793,1.1519173063162573,0.08726646259971642
424,5,120,12,108,0,-29.0137838566479,-2.53837717344816,32.1273400201682,3.141592653589793,0.9424777960769389,0.08726646259971652
425,5,120,12,120,0,-26.5054104512649,-2.31892293658723,29.3308677028396,3.141592653589793,0.7330382858376194,0.08726646259971654
426,5,120,24,48,0,-25.3469968274741,-2.21757487683155,54.0699859260133,0.0,0.9424777960769373,-3.0543261909900767
427,5,120,24,60,0,-27.2213494437986,-2.38155948221009,50.8111109601132,0.0,1.1519173063162578,-3.0543261909900767
428,5,120,24,72,0,-28.3797630675894,-2.48290754196577,47.2322618194685,0.0,1.361356816555577,-3.0543261909900767
429,5,120,24,84,0,-28.7716094648016,-2.51718965956532,43.4898513847488,0.0,1.5707963267948963,-3.0543261909900767
430,5,120,24,96,0,-28.3797630675894,-2.48290754196577,39.7474409500292,3.141592653589793,1.3613568165555772,0.08726646259971664
431,5,120,24,108,0,-27.2213494437986,-2.38155948221009,36.1685918093844,3.141592653589793,1.1519173063162573,0.08726646259971642
432,5,120,24,120,0,-25.3469968274741,-2.21757487683155,32.9097168434843,3.141592653589793,0.9424777960769389,0.08726646259971652
433,5,120,36,48,0,-19.0899181894422,-1.67015142921353,56.8664582433419,0.0,0.7330382858376184,-3.0543261909900767
434,5,120,36,60,0,-21.5982915948252,-1.88960566607445,54.0699859260133,0.0,0.9424777960769373,-3.0543261909900767
435,5,120,36,72,0,-23.4726442111497,-2.053590271453,50.8111109601132,0.0,1.1519173063162578,-3.0543261909900767
436,5,120,36,84,0,-24.6310578349405,-2.15493833120868,47.2322618194685,0.0,1.361356816555577,-3.0543261909900767
437,5,120,36,96,0,-25.0229042321527,-2.18922044880822,43.4898513847488,0.0,1.5707963267948963,-3.0543261909900767
438,5,120,36,108,0,-24.6310578349405,-2.15493833120868,39.7474409500292,3.141592653589793,1.3613568165555772,0.08726646259971617
439,5,120,36,120,0,-23.4726442111497,-2.053590271453,36.1685918093844,3.141592653589793,1.1519173063162582,0.08726646259971664
440,5,120,48,72,0,-17.9315045656514,-1.56880336945785,53.2876091026972,0.0,0.9424777960769373,-3.0543261909900767
441,5,120,48,84,0,-19.8058571819759,-1.73278797483639,50.0287341367971,0.0,1.1519173063162578,-3.0543261909900767
442,5,120,48,96,0,-20.9642708057667,-1.83413603459207,46.4498849961523,0.0,1.361356816555577,-3.0543261909900767
443,5,120,48,108,0,-21.3561172029789,-1.86841815219162,42.7074745614327,0.0,1.5707963267948961,-3.0543261909900767
444,5,120,48,120,0,-20.9642708057667,-1.83413603459207,38.965064126713,3.141592653589793,1.3613568165555772,0.08726646259971617
445,5,120,60,108,0,-17.5396581684392,-1.5345212518583,44.9193249709595,0.0,1.361356816555577,-3.0543261909900767
446,5,120,60,120,0,-17.9315045656514,-1.56880336945785,41.1769145362398,0.0,1.5707963267948961,-3.0543261909900767
447,5,120,84,0,0,20.0480315738222,1.75397548871923,46.7487263506489,0.0,-0.9424777960769388,-3.0543261909900767
448,5,120,84,12,0,17.5396581684392,1.5345212518583,49.5451986679775,0.0,-0.7330382858376184,-3.0543261909900767
449,5,120,96,0,0,23.7967368064711,2.08194469947632,40.2309764188487,0.0,-1.1519173063162578,-3.0543261909900767
450,5,120,96,12,0,21.9223841901467,1.91796009409778,43.4898513847488,0.0,-0.9424777960769388,-3.0543261909900767
451,5,120,108,0,0,26.1135640540527,2.28464081898768,33.0732781375592,0.0,-1.361356816555577,-3.0543261909900767
452,5,120,108,12,0,24.9551504302619,2.183292759232,36.652127278204,0.0,-1.1519173063162578,-3.0543261909900767
453,5,120,108,48,0,17.5396581684392,1.5345212518583,44.9193249709595,0.0,-0.5235987755982991,-3.0543261909900767
454,5,120,120,0,0,26.8972568484771,2.35320505418677,25.5884572681199,3.141592653589793,-1.5707963267948966,0.08726646259971654
455,5,120,120,12,0,26.5054104512649,2.31892293658723,29.3308677028396,0.0,-1.361356816555577,-3.0543261909900767
456,5,120,120,48,0,20.9642708057667,1.83413603459207,38.965064126713,0.0,-0.7330382858376184,-3.0543261909900767
457,5,120,120,60,0,17.9315045656514,1.56880336945785,41.1769145362398,0.0,-0.5235987755982991,-3.0543261909900767
458,10,0,12,0,0,52.4048838227656,9.24039493884614,2.51517913056066,3.141592653589793,-1.3613568165555767,0.1745329251994327
459,10,12,12,0,0,52.7922512427124,9.30869826643019,13.7424104347197,3.141592653589793,-1.5707963267948966,0.1745329251994336
460,10,12,24,0,0,52.0175164028188,9.1720916112621,6.25758956528033,3.141592653589793,-1.3613568165555767,0.1745329251994327
461,10,12,24,12,0,52.4048838227656,9.24039493884614,10.0,3.141592653589793,-1.5707963267948966,0.1745329251994336
462,10,12,36,12,0,50.8723439580252,8.97016681168111,2.6787404246356,3.141592653589793,-1.3613568165555767,0.1745329251994327
463,10,12,60,48,0,46.927081849052,8.27451065590235,0.365803576126575,0.0,-1.5707963267948966,-2.967059728390361
464,10,24,12,0,0,50.8723439580252,8.97016681168111,24.8060804448037,0.0,-1.3613568165555774,-2.96705972839036
465,10,24,24,0,0,51.6470787979188,9.1067734668492,17.3212595753644,3.141592653589793,-1.5707963267948966,0.1745329251994336
466,10,24,24,12,0,51.259711377972,9.03847013926516,21.0636700100841,0.0,-1.3613568165555774,-2.96705972839036
467,10,24,36,0,0,50.8723439580252,8.97016681168111,9.83643870592507,3.141592653589793,-1.3613568165555767,0.1745329251994327
468,10,24,36,12,0,51.259711377972,9.03847013926516,13.5788491406447,3.141592653589793,-1.5707963267948966,0.17453292519943303
469,10,24,48,0,0,48.581999068438,8.56631721251913,2.6787404246356,3.141592653589793,-1.1519173063162578,0.1745329251994331
470,10,24,48,12,0,49.7271715132316,8.76824201210012,6.25758956528033,3.141592653589793,-1.3613568165555767,0.1745329251994327
471,10,24,72,36,0,45.3945419843116,8.00428252873732,0.20224228205164,3.141592653589793,-1.3613568165555767,0.1745329251994327
472,10,24,72,48,0,45.7819094042584,8.07258585632137,3.94465271677131,0.0,-1.5707963267948966,-2.9670597283903604
473,10,24,72,60,0,45.3945419843116,8.00428252873732,7.68706315149097,0.0,-1.3613568165555774,-2.9670597283903604
474,10,24,84,60,0,42.783809020809,7.54393986784683,1.73280230724451,3.141592653589793,-1.5707963267948963,0.1745329251994329
475,10,24,96,72,0,39.3983412174127,6.94699055178825,0.202242282051636,3.141592653589793,-1.5707963267948963,0.1745329251994329
476,10,36,12,0,0,46.7290711297822,8.23959602362559,35.2226536919933,0.0,-1.1519173063162573,-2.9670597283903604
477,10,36,24,0,0,49.0194160193694,8.64344562278756,28.0649554107038,0.0,-1.3613568165555774,-2.9670597283903604
478,10,36,24,12,0,47.8742435745758,8.44152082320658,31.6438045513486,0.0,-1.1519173063162573,-2.9670597283903604
479,10,36,36,0,0,49.794150859263,8.78005227795566,20.5801345412645,3.141592653589793,-1.5707963267948966,0.1745329251994336
480,10,36,36,12,0,49.4067834393162,8.71174895037161,24.3225449759842,0.0,-1.3613568165555774,-2.96705972839036
481,10,36,48,0,0,49.0194160193694,8.64344562278756,13.0953136718252,3.141592653589793,-1.3613568165555767,0.1745329251994327
482,10,36,48,12,0,49.4067834393162,8.71174895037161,16.8377241065448,3.141592653589793,-1.5707963267948966,0.174532925199433
483,10,36,60,0,0,46.7290711297822,8.23959602362559,5.93761539053571,3.141592653589793,-1.1519173063162578,0.1745329251994331
484,10,36,60,12,0,47.8742435745758,8.44152082320658,9.51646453118045,3.141592653589793,-1.3613568165555776,0.17453292519943353
485,10,36,72,12,0,44.8761431911263,7.91287483473204,2.6787404246356,3.141592653589793,-1.1519173063162578,0.1745329251994331
486,10,36,72,36,0,46.4086830558667,8.18310296189707,10.0,3.141592653589793,-1.5707963267948966,0.1745329251994336
487,10,36,72,48,0,46.0213156359199,8.11479963431303,13.7424104347197,0.0,-1.3613568165555774,-2.96705972839036
488,10,36,72,60,0,44.8761431911263,7.91287483473204,17.3212595753644,0.0,-1.1519173063162573,-2.9670597283903604
489,10,36,84,36,0,43.5416140456558,7.67756133984377,3.46111724795175,3.141592653589793,-1.3613568165555767,0.1745329251994327
490,10,36,84,48,0,43.9289814656026,7.74586466742782,7.20352768267142,3.141592653589793,-1.5707963267948966,0.1745329251994336
491,10,36,84,60,0,43.5416140456558,7.67756133984377,10.9459381173911,0.0,-1.3613568165555774,-2.9670597283903604
492,10,48,12,0,0,40.5435136622063,7.14891535136924,44.5368759411221,0.0,-0.9424777960769379,-2.96705972839036
493,10,48,24,0,0,44.249369539518,7.80235772915633,38.0191260093219,0.0,-1.1519173063162573,-2.9670597283903604
494,10,48,24,12,0,42.3964416008622,7.47563654026278,41.278000975222,0.0,-0.9424777960769379,-2.96705972839036
495,10,48,36,0,0,46.5397144291052,8.20620732831831,30.8614277280324,0.0,-1.3613568165555774,-2.96705972839036
496,10,48,36,12,0,45.3945419843116,8.00428252873732,34.4402768686772,0.0,-1.1519173063162573,-2.9670597283903604
497,10,48,48,0,0,47.3144492689988,8.3428139834864,23.3766068585931,3.141592653589793,-1.5707963267948966,0.1745329251994336
498,10,48,48,12,0,46.927081849052,8.27451065590235,27.1190172933128,0.0,-1.3613568165555774,-2.96705972839036
499,10,48,60,0,0,46.5397144291052,8.20620732831831,15.8917859891538,3.141592653589793,-1.3613568165555776,0.1745329251994331
500,10,48,60,12,0,46.927081849052,8.27451065590235,19.6341964238734,0.0,-1.5707963267948966,-2.967059728390361
501,10,48,72,0,0,44.249369539518,7.80235772915633,8.73408770786429,3.141592653589793,-1.1519173063162578,0.1745329251994331
502,10,48,72,12,0,45.3945419843116,8.00428252873732,12.312936848509,3.141592653589793,-1.3613568165555776,0.17453292519943353
503,10,48,72,36,0,45.3945419843116,8.00428252873732,19.7977577179484,0.0,-1.3613568165555774,-2.96705972839036
504,10,48,72,48,0,44.249369539518,7.80235772915633,23.3766068585931,0.0,-1.1519173063162573,-2.9670597283903604
505,10,48,72,60,0,42.3964416008622,7.47563654026278,26.6354818244932,0.0,-0.9424777960769379,-2.96705972839036
506,10,48,84,0,0,40.5435136622063,7.14891535136924,2.21633777606406,3.141592653589793,-0.9424777960769379,0.17453292519943328
507,10,48,84,12,0,42.3964416008622,7.47563654026278,5.47521274196418,3.141592653589793,-1.1519173063162578,0.1745329251994331
508,10,48,84,36,0,43.9289814656026,7.74586466742782,12.7964723173286,3.141592653589793,-1.5707963267948966,0.1745329251994336
509,10,48,84,48,0,43.5416140456558,7.67756133984377,16.5388827520482,0.0,-1.3613568165555774,-2.96705972839036
510,10,48,84,60,0,42.3964416008622,7.47563654026278,20.117731892693,0.0,-1.1519173063162573,-2.9670597283903604
511,10,48,96,36,0,41.0619124553916,7.24032304537452,6.25758956528033,3.141592653589793,-1.3613568165555767,0.1745329251994327
512,10,48,108,36,0,36.9186396271486,6.50975225731899,0.466890015108799,3.141592653589793,-1.1519173063162578,0.1745329251994331
513,10,60,12,0,0,32.5860100982286,5.74579277395619,52.3416709853061,0.0,-0.7330382858376188,-2.967059728390361
514,10,60,24,0,0,37.5454132787568,6.6202693628947,46.7487263506489,0.0,-0.9424777960769386,-2.96705972839036
515,10,60,24,12,0,35.0657116884927,6.18303106842545,49.5451986679775,0.0,-0.7330382858376188,-2.967059728390361
516,10,60,36,0,0,41.2512691560686,7.2737117406818,40.2309764188487,0.0,-1.1519173063162573,-2.9670597283903604
517,10,60,36,12,0,39.3983412174127,6.94699055178825,43.4898513847488,0.0,-0.9424777960769379,-2.96705972839036
518,10,60,48,0,0,43.5416140456558,7.67756133984377,33.0732781375592,0.0,-1.3613568165555774,-2.9670597283903604
519,10,60,48,12,0,42.3964416008622,7.47563654026279,36.652127278204,0.0,-1.1519173063162573,-2.9670597283903604
520,10,60,60,0,0,44.3163488855494,7.81416799501187,25.5884572681199,3.141592653589793,-1.5707963267948966,0.1745329251994336
521,10,60,60,12,0,43.9289814656026,7.74586466742782,29.3308677028396,0.0,-1.3613568165555774,-2.96705972839036
522,10,60,72,0,0,43.5416140456558,7.67756133984377,18.1036363986806,3.141592653589793,-1.3613568165555767,0.1745329251994327
523,10,60,72,12,0,43.9289814656026,7.74586466742782,21.8460468334002,3.141592653589793,-1.5707963267948966,0.174532925199433
524,10,60,72,36,0,42.3964416008622,7.47563654026278,29.1673064087646,0.0,-1.1519173063162573,-2.9670597283903604
525,10,60,72,48,0,40.5435136622063,7.14891535136924,32.4261813746647,0.0,-0.9424777960769379,-2.96705972839036
526,10,60,72,60,0,38.0638120719422,6.71167705689998,35.2226536919933,0.0,-0.7330382858376188,-2.967059728390361
527,10,60,84,0,0,41.2512691560686,7.2737117406818,10.9459381173911,3.141592653589793,-1.1519173063162578,0.1745329251994331
528,10,60,84,12,0,42.3964416008622,7.47563654026278,14.5247872580358,3.141592653589793,-1.3613568165555767,0.1745329251994327
529,10,60,84,36,0,42.3964416008622,7.47563654026278,22.0096081274752,0.0,-1.3613568165555774,-2.9670597283903604
530,10,60,84,48,0,41.2512691560686,7.2737117406818,25.5884572681199,0.0,-1.1519173063162573,-2.9670597283903604
531,10,60,84,60,0,39.3983412174127,6.94699055178825,28.84733223402,0.0,-0.9424777960769386,-2.96705972839036
532,10,60,96,0,0,37.5454132787568,6.6202693628947,4.42818818559086,3.141592653589793,-0.9424777960769379,0.17453292519943328
533,10,60,96,12,0,39.3983412174127,6.94699055178825,7.68706315149097,3.141592653589793,-1.1519173063162569,0.17453292519943264
534,10,60,96,36,0,40.9308810821531,7.21721867895328,15.0083227268554,3.141592653589793,-1.5707963267948963,0.17453292519943303
535,10,60,108,12,0,35.0657116884927,6.18303106842545,1.63171586826228,3.141592653589793,-0.9424777960769379,0.17453292519943328
536,10,72,12,0,0,23.2043415279334,4.09155148094854,58.2959318295526,0.0,-0.5235987755982985,-2.967059728390361
537,10,72,24,0,0,29.2005422948323,5.14884345789761,53.872231010499,0.0,-0.7330382858376188,-2.967059728390361
538,10,72,24,12,0,26.2024419113828,4.62019746942307,56.0840814200258,0.0,-0.5235987755982985,-2.967059728390361
539,10,72,36,0,0,34.1599454753606,6.02332004683612,48.2792863758418,0.0,-0.9424777960769379,-2.96705972839036
540,10,72,36,12,0,31.6802438850964,5.58608175236686,51.0757586931704,0.0,-0.7330382858376188,-2.967059728390361
541,10,72,48,0,0,37.8658013526723,6.67676242462321,41.7615364440416,0.0,-1.1519173063162573,-2.9670597283903604
542,10,72,48,12,0,36.0128734140164,6.35004123572967,45.0204114099417,0.0,-0.9424777960769379,-2.96705972839036
543,10,72,60,0,0,40.1561462422595,7.08061202378519,34.6038381627521,0.0,-1.3613568165555774,-2.96705972839036
544,10,72,60,12,0,39.0109737974659,6.8786872242042,38.1826873033968,0.0,-1.1519173063162573,-2.9670597283903604
545,10,72,72,0,0,40.9308810821531,7.21721867895328,27.1190172933128,3.141592653589793,-1.5707963267948966,0.1745329251994336
546,10,72,72,12,0,40.5435136622063,7.14891535136924,30.8614277280324,0.0,-1.3613568165555774,-2.96705972839036
547,10,72,72,36,0,37.5454132787568,6.6202693628947,37.6991518345773,0.0,-0.9424777960769379,-2.96705972839036
548,10,72,72,48,0,35.0657116884927,6.18303106842545,40.4956241519059,0.0,-0.7330382858376187,-2.9670597283903595
549,10,72,72,60,0,32.0676113050432,5.65438507995091,42.7074745614327,0.0,-0.5235987755982985,-2.967059728390361
550,10,72,84,0,0,40.1561462422595,7.08061202378519,19.6341964238734,3.141592653589793,-1.3613568165555767,0.1745329251994327
551,10,72,84,12,0,40.5435136622063,7.14891535136924,23.3766068585931,3.141592653589793,-1.5707963267948966,0.174532925199433
552,10,72,84,36,0,39.0109737974659,6.8786872242042,30.6978664339575,0.0,-1.1519173063162573,-2.9670597283903604
553,10,72,84,48,0,37.15804585881,6.55196603531065,33.9567413998576,0.0,-0.9424777960769379,-2.96705972839036
554,10,72,84,60,0,34.6783442685459,6.1147277408414,36.7532137171862,0.0,-0.7330382858376188,-2.967059728390361
555,10,72,96,0,0,37.8658013526723,6.67676242462321,12.476498142584,3.141592653589793,-1.1519173063162578,0.1745329251994331
556,10,72,96,12,0,39.0109737974659,6.8786872242042,16.0553472832287,3.141592653589793,-1.3613568165555767,0.1745329251994327
557,10,72,96,36,0,39.0109737974659,6.8786872242042,23.540168152668,0.0,-1.3613568165555774,-2.9670597283903604
558,10,72,108,0,0,34.1599454753606,6.02332004683612,5.95874821078373,3.141592653589793,-0.9424777960769379,0.17453292519943328
559,10,72,108,12,0,36.0128734140164,6.35004123572967,9.21762317668384,3.141592653589793,-1.1519173063162578,0.1745329251994331
560,10,72,120,0,0,29.2005422948323,5.14884345789761,0.365803576126575,3.141592653589793,-0.7330382858376184,0.1745329251994323
561,10,72,120,12,0,31.6802438850964,5.58608175236686,3.16227589345516,3.141592653589793,-0.9424777960769379,0.17453292519943328
562,10,72,120,120,0,22.8169741079866,4.02324815336449,30.8614277280324,0.0,-0.31415926535897987,-2.96705972839036
563,10,84,24,0,0,19.5794674928756,3.45238838689829,59.0783086528687,0.0,-0.5235987755982985,-2.967059728390361
564,10,84,36,0,0,25.5756682597745,4.50968036384737,54.6546078338151,0.0,-0.7330382858376187,-2.9670597283903595
565,10,84,36,12,0,22.5775678763251,3.98103437537283,56.8664582433419,0.0,-0.5235987755982985,-2.967059728390361
566,10,84,48,0,0,30.5350714403028,5.38415695278588,49.0616631991579,0.0,-0.9424777960769379,-2.96705972839036
567,10,84,48,12,0,28.0553698500387,4.94691865831662,51.8581355164865,0.0,-0.7330382858376188,-2.967059728390361
568,10,84,60,0,0,34.2409273176145,6.03759933057297,42.5439132673577,0.0,-1.1519173063162573,-2.9670597283903604
569,10,84,60,12,0,32.3879993789587,5.71087814167942,45.8027882332578,0.0,-0.9424777960769379,-2.96705972839036
570,10,84,72,0,0,36.5312722072018,6.44144892973495,35.3862149860683,0.0,-1.3613568165555774,-2.96705972839036
571,10,84,72,12,0,35.3860997624082,6.23952413015396,38.965064126713,0.0,-1.1519173063162573,-2.9670597283903604
572,10,84,72,36,0,31.0534702334882,5.47556464679116,45.0204114099417,0.0,-0.7330382858376187,-2.9670597283903595
573,10,84,72,48,0,28.0553698500387,4.94691865831662,47.2322618194685,0.0,-0.5235987755982985,-2.967059728390361
574,10,84,72,60,0,24.6699020466424,4.34996934225804,48.7628218446614,0.0,-0.31415926535897987,-2.96705972839036
575,10,84,84,0,0,37.3060070470954,6.57805558490304,27.9013941166289,3.141592653589793,-1.5707963267948966,0.1745329251994336
576,10,84,84,12,0,36.9186396271486,6.50975225731899,31.6438045513486,0.0,-1.3613568165555774,-2.96705972839036
577,10,84,84,36,0,33.9205392436991,5.98110626884446,38.4815286578934,0.0,-0.9424777960769379,-2.96705972839036
578,10,84,84,48,0,31.440837653435,5.5438679743752,41.278000975222,0.0,-0.7330382858376187,-2.9670597283903595
579,10,84,84,60,0,28.4427372699855,5.01522198590067,43.4898513847488,0.0,-0.5235987755982985,-2.967059728390361
580,10,84,96,0,0,36.5312722072018,6.44144892973495,20.4165732471896,3.141592653589793,-1.3613568165555767,0.1745329251994327
581,10,84,96,12,0,36.9186396271486,6.50975225731899,24.1589836819092,3.141592653589793,-1.5707963267948966,0.174532925199433
582,10,84,96,36,0,35.3860997624082,6.23952413015396,31.4802432572737,0.0,-1.1519173063162573,-2.9670597283903604
583,10,84,108,0,0,34.2409273176145,6.03759933057297,13.2588749659001,3.141592653589793,-1.1519173063162578,0.1745329251994331
584,10,84,108,12,0,35.3860997624082,6.23952413015396,16.8377241065449,3.141592653589793,-1.3613568165555776,0.17453292519943353
585,10,84,120,0,0,30.5350714403028,5.38415695278588,6.74112503409989,3.141592653589793,-0.9424777960769385,0.17453292519943328
586,10,84,120,12,0,32.3879993789587,5.71087814167942,10.0,3.141592653589793,-1.1519173063162578,0.1745329251994331
587,10,84,120,108,0,21.671801663193,3.8213233537835,34.4402768686772,0.0,-0.3141592653589789,-2.96705972839036
588,10,84,120,120,0,18.0469276281352,3.18216025973326,35.2226536919933,0.0,-0.10471975511966013,-2.967059728390361
589,10,96,0,120,0,-18.0469276281352,-3.18216025973326,35.2226536919933,3.141592653589793,0.9424777960769385,0.17453292519943328
590,10,96,12,84,0,-17.3391721342729,-3.0573638704207,49.5451986679775,0.0,1.3613568165555774,-2.96705972839036
591,10,96,48,0,0,21.8698123824628,3.85623798606027,54.6546078338151,0.0,-0.7330382858376187,-2.9670597283903595
592,10,96,48,12,0,18.8717119990133,3.32759199758573,56.8664582433419,0.0,-0.5235987755982985,-2.967059728390361
593,10,96,60,0,0,26.8292155629911,4.73071457499878,49.061663199158,0.0,-0.9424777960769379,-2.96705972839036
594,10,96,60,12,0,24.3495139727269,4.29347628052952,51.8581355164865,0.0,-0.7330382858376187,-2.9670597283903595
595,10,96,72,0,0,30.5350714403028,5.38415695278588,42.5439132673577,0.0,-1.1519173063162573,-2.9670597283903604
596,10,96,72,12,0,28.682143501647,5.05743576389233,45.8027882332578,0.0,-0.9424777960769379,-2.96705972839036
597,10,96,72,36,0,23.2043415279333,4.09155148094854,50.8111109601132,0.0,-0.5235987755982985,-2.967059728390361
598,10,96,72,48,0,19.8188737245371,3.49460216488995,52.3416709853061,0.0,-0.3141592653589789,-2.96705972839036
599,10,96,84,0,0,32.82541632989,5.78800655194785,35.3862149860683,0.0,-1.3613568165555774,-2.96705972839036
600,10,96,84,12,0,31.6802438850964,5.58608175236686,38.965064126713,0.0,-1.1519173063162573,-2.9670597283903604
601,10,96,84,36,0,27.3476143561764,4.82212226900406,45.0204114099417,0.0,-0.7330382858376187,-2.9670597283903595
602,10,96,84,48,0,24.349513972727,4.29347628052952,47.2322618194685,0.0,-0.5235987755982985,-2.967059728390361
603,10,96,84,60,0,20.9640461693307,3.69652696447094,48.7628218446614,0.0,-0.31415926535897987,-2.96705972839036
604,10,96,96,0,0,33.6001511697836,5.92461320711594,27.9013941166289,3.141592653589793,-1.5707963267948966,0.1745329251994336
605,10,96,96,12,0,33.2127837498368,5.8563098795319,31.6438045513486,0.0,-1.3613568165555774,-2.96705972839036
606,10,96,96,36,0,30.2146833663874,5.32766389105736,38.4815286578934,0.0,-0.9424777960769379,-2.96705972839036
607,10,96,108,0,0,32.82541632989,5.78800655194785,20.4165732471896,3.141592653589793,-1.3613568165555776,0.1745329251994331
608,10,96,108,12,0,33.2127837498368,5.8563098795319,24.1589836819093,0.0,-1.5707963267948966,-2.967059728390361
609,10,96,120,0,0,30.5350714403028,5.38415695278588,13.2588749659001,3.141592653589793,-1.1519173063162578,0.17453292519943284
610,10,96,120,12,0,31.6802438850964,5.58608175236686,16.8377241065449,3.141592653589793,-1.3613568165555776,0.1745329251994331
611,10,108,0,120,0,-22.8169741079866,-4.02324815336449,30.8614277280324,3.141592653589793,0.7330382858376184,0.1745329251994323
612,10,108,12,48,0,-21.6718016631929,-3.8213233537835,55.6005459512062,0.0,0.9424777960769379,-2.96705972839036
613,10,108,12,60,0,-23.5247296018488,-4.14804454267705,52.3416709853061,0.0,1.1519173063162564,-2.967059728390361
614,10,108,12,72,0,-24.6699020466424,-4.34996934225804,48.7628218446614,0.0,1.361356816555577,-2.9670597283903604
615,10,108,12,84,0,-25.0572694665892,-4.41827266984208,45.0204114099417,0.0,1.5707963267948966,-2.9670597283903604
616,10,108,12,96,0,-24.6699020466424,-4.34996934225804,41.278000975222,3.141592653589793,1.3613568165555776,0.17453292519943353
617,10,108,12,108,0,-23.5247296018488,-4.14804454267705,37.6991518345773,3.141592653589793,1.1519173063162578,0.1745329251994331
618,10,108,12,120,0,-21.671801663193,-3.8213233537835,34.4402768686772,3.141592653589793,0.9424777960769385,0.17453292519943328
619,10,108,24,72,0,-19.8188737245371,-3.49460216488995,52.3416709853061,0.0,1.1519173063162573,-2.9670597283903604
620,10,108,24,84,0,-20.9640461693307,-3.69652696447094,48.7628218446614,0.0,1.361356816555577,-2.9670597283903604
621,10,108,60,0,0,18.2449383474051,3.21707489201003,53.872231010499,0.0,-0.7330382858376187,-2.9670597283903595
622,10,108,72,0,0,23.2043415279334,4.09155148094854,48.2792863758418,0.0,-0.9424777960769379,-2.96705972839036
623,10,108,72,12,0,20.7246399376692,3.65431318647928,51.0757586931704,0.0,-0.7330382858376188,-2.967059728390361
624,10,108,84,0,0,26.9101974052451,4.74499385873563,41.7615364440416,0.0,-1.1519173063162573,-2.9670597283903604
625,10,108,84,12,0,25.0572694665892,4.41827266984209,45.0204114099417,0.0,-0.9424777960769379,-2.96705972839036
626,10,108,84,36,0,19.5794674928756,3.4523883868983,50.0287341367971,0.0,-0.5235987755982985,-2.967059728390361
627,10,108,96,0,0,29.2005422948323,5.14884345789761,34.6038381627521,0.0,-1.3613568165555774,-2.9670597283903604
628,10,108,96,12,0,28.0553698500387,4.94691865831662,38.1826873033968,0.0,-1.1519173063162573,-2.9670597283903604
629,10,108,96,36,0,23.7227403211187,4.18295917495382,44.2380345866255,0.0,-0.7330382858376188,-2.967059728390361
630,10,108,108,0,0,29.9752771347259,5.2854501130657,27.1190172933128,3.141592653589793,-1.5707963267948966,0.1745329251994336
631,10,108,108,12,0,29.5879097147791,5.21714678548166,30.8614277280324,0.0,-1.3613568165555774,-2.96705972839036
632,10,108,120,0,0,29.2005422948323,5.14884345789761,19.6341964238734,3.141592653589793,-1.3613568165555776,0.1745329251994331
633,10,108,120,12,0,29.5879097147791,5.21714678548166,23.3766068585931,0.0,-1.5707963267948966,-2.967059728390361
634,10,120,0,0,0,-26.5898093313296,-4.68850079700712,56.7653718043597,0.0,0.5235987755982985,-2.967059728390361
635,10,120,0,12,0,-29.5879097147791,-5.21714678548165,54.5535213948329,0.0,0.7330382858376187,-2.9670597283903595
636,10,120,0,24,0,-32.0676113050432,-5.65438507995091,51.7570490775043,0.0,0.9424777960769379,-2.96705972839036
637,10,120,0,36,0,-33.9205392436991,-5.98110626884446,48.4981741116042,0.0,1.1519173063162564,-2.967059728390361
638,10,120,0,48,0,-35.0657116884927,-6.18303106842544,44.9193249709595,0.0,1.361356816555577,-2.9670597283903604
639,10,120,0,60,0,-35.4530791084395,-6.25133439600949,41.1769145362398,0.0,1.5707963267948961,-2.96705972839036
640,10,120,0,72,0,-35.0657116884927,-6.18303106842544,37.4345041015201,3.141592653589793,1.3613568165555776,0.1745329251994331
641,10,120,0,84,0,-33.9205392436991,-5.98110626884446,33.8556549608754,3.141592653589793,1.1519173063162578,0.17453292519943284
642,10,120,0,96,0,-32.0676113050432,-5.65438507995091,30.5967799949753,3.141592653589793,0.9424777960769385,0.17453292519943328
643,10,120,0,108,0,-29.5879097147791,-5.21714678548165,27.8003076776467,3.141592653589793,0.7330382858376184,0.1745329251994323
644,10,120,0,120,0,-26.5898093313296,-4.68850079700712,25.5884572681199,3.141592653589793,0.523598775598299,0.17453292519943264
645,10,120,12,0,0,-19.8188737245371,-3.49460216488995,59.8264918547454,0.0,0.3141592653589789,-2.96705972839036
646,10,120,12,12,0,-23.2043415279333,-4.09155148094853,58.2959318295526,0.0,0.5235987755982985,-2.967059728390361
647,10,120,12,36,0,-28.6821435016469,-5.05743576389232,53.2876091026972,0.0,0.9424777960769368,-2.9670597283903604
648,10,120,12,48,0,-30.5350714403028,-5.38415695278587,50.0287341367971,0.0,1.1519173063162564,-2.967059728390361
649,10,120,12,60,0,-31.6802438850964,-5.58608175236686,46.4498849961523,0.0,1.361356816555577,-2.9670597283903604
650,10,120,12,72,0,-32.0676113050432,-5.65438507995091,42.7074745614327,0.0,1.5707963267948963,-2.96705972839036
651,10,120,12,84,0,-31.6802438850964,-5.58608175236686,38.965064126713,3.141592653589793,1.3613568165555776,0.1745329251994331
652,10,120,12,96,0,-30.5350714403028,-5.38415695278587,35.3862149860683,3.141592653589793,1.1519173063162578,0.1745329251994331
653,10,120,12,108,0,-28.682143501647,-5.05743576389233,32.1273400201682,3.141592653589793,0.9424777960769385,0.17453292519943328
654,10,120,12,120,0,-26.2024419113828,-4.62019746942307,29.3308677028396,3.141592653589793,0.7330382858376192,0.1745329251994323
655,10,120,24,48,0,-25.0572694665892,-4.41827266984208,54.0699859260133,0.0,0.9424777960769379,-2.96705972839036
656,10,120,24,60,0,-26.9101974052451,-4.74499385873563,50.8111109601132,0.0,1.1519173063162569,-2.9670597283903604
657,10,120,24,72,0,-28.0553698500387,-4.94691865831662,47.2322618194685,0.0,1.361356816555577,-2.9670597283903604
658,10,120,24,84,0,-28.4427372699855,-5.01522198590067,43.4898513847488,0.0,1.5707963267948963,-2.96705972839036
659,10,120,24,96,0,-28.0553698500387,-4.94691865831662,39.7474409500292,3.141592653589793,1.3613568165555776,0.1745329251994331
660,10,120,24,108,0,-26.9101974052451,-4.74499385873563,36.1685918093844,3.141592653589793,1.1519173063162578,0.17453292519943284
661,10,120,24,120,0,-25.0572694665892,-4.41827266984208,32.9097168434843,3.141592653589793,0.9424777960769385,0.17453292519943328
662,10,120,36,48,0,-18.8717119990133,-3.32759199758573,56.8664582433419,0.0,0.7330382858376187,-2.9670597283903595
663,10,120,36,60,0,-21.3514135892775,-3.76483029205499,54.0699859260133,0.0,0.9424777960769368,-2.9670597283903604
664,10,120,36,72,0,-23.2043415279333,-4.09155148094854,50.8111109601132,0.0,1.1519173063162564,-2.967059728390361
665,10,120,36,84,0,-24.3495139727269,-4.29347628052952,47.2322618194685,0.0,1.361356816555577,-2.9670597283903604
666,10,120,36,96,0,-24.7368813926737,-4.36177960811357,43.4898513847488,0.0,1.5707963267948963,-2.9670597283903604
667,10,120,36,108,0,-24.3495139727269,-4.29347628052952,39.7474409500292,3.141592653589793,1.3613568165555776,0.1745329251994331
668,10,120,36,120,0,-23.2043415279333,-4.09155148094854,36.1685918093844,3.141592653589793,1.1519173063162578,0.17453292519943284
669,10,120,48,72,0,-17.7265395542197,-3.12566719800474,53.2876091026972,0.0,0.9424777960769368,-2.9670597283903604
670,10,120,48,84,0,-19.5794674928756,-3.45238838689829,50.0287341367971,0.0,1.1519173063162564,-2.967059728390361
671,10,120,48,96,0,-20.7246399376692,-3.65431318647928,46.4498849961523,0.0,1.361356816555577,-2.9670597283903604
672,10,120,48,108,0,-21.112007357616,-3.72261651406333,42.7074745614327,0.0,1.5707963267948961,-2.96705972839036
673,10,120,48,120,0,-20.7246399376692,-3.65431318647928,38.965064126713,3.141592653589793,1.3613568165555776,0.1745329251994331
674,10,120,60,108,0,-17.3391721342729,-3.0573638704207,44.9193249709595,0.0,1.361356816555577,-2.9670597283903604
675,10,120,60,120,0,-17.7265395542197,-3.12566719800475,41.1769145362398,0.0,1.5707963267948961,-2.96705972839036
676,10,120,84,0,0,19.8188737245371,3.49460216488996,46.7487263506489,0.0,-0.9424777960769386,-2.96705972839036
677,10,120,84,12,0,17.339172134273,3.0573638704207,49.5451986679775,0.0,-0.7330382858376188,-2.967059728390361
678,10,120,96,0,0,23.5247296018488,4.14804454267705,40.2309764188487,0.0,-1.1519173063162578,-2.9670597283903604
679,10,120,96,12,0,21.671801663193,3.8213233537835,43.4898513847488,0.0,-0.9424777960769386,-2.96705972839036
680,10,120,108,0,0,25.815074491436,4.55189414183903,33.0732781375592,0.0,-1.3613568165555774,-2.9670597283903604
681,10,120,108,12,0,24.6699020466424,4.34996934225804,36.652127278204,0.0,-1.1519173063162573,-2.9670597283903604
682,10,120,108,48,0,17.339172134273,3.0573638704207,44.9193249709595,0.0,-0.5235987755982985,-2.967059728390361
683,10,120,120,0,0,26.5898093313296,4.68850079700712,25.5884572681199,3.141592653589793,-1.5707963267948966,0.1745329251994336
684,10,120,120,12,0,26.2024419113828,4.62019746942307,29.3308677028396,0.0,-1.3613568165555774,-2.96705972839036
685,10,120,120,48,0,20.7246399376692,3.65431318647928,38.965064126713,0.0,-0.7330382858376187,-2.9670597283903595
686,10,120,120,60,0,17.7265395542198,3.12566719800475,41.1769145362398,0.0,-0.5235987755982985,-2.967059728390361
687,15,0,12,0,0,51.4001139341762,13.7726190195302,2.51517913056066,3.141592653589793,-1.3613568165555767,0.26179938779914874
688,15,12,12,0,0,51.7800542768929,13.8744237275332,13.7424104347197,3.141592653589793,-1.5707963267948966,0.26179938779914896
689,15,12,24,0,0,51.0201735914594,13.6708143115272,6.25758956528033,3.141592653589793,-1.3613568165555767,0.26179938779914874
690,15,12,24,12,0,51.4001139341762,13.7726190195302,10.0,3.141592653589793,-1.5707963267948966,0.26179938779914896
691,15,12,36,12,0,49.8969577794419,13.3698495417713,2.6787404246356,3.141592653589793,-1.3613568165555767,0.26179938779914874
692,15,12,60,48,0,46.0273390128544,12.3329883182479,0.365803576126575,0.0,-1.5707963267948966,-2.879793265790644
693,15,24,12,0,0,49.8969577794419,13.3698495417713,24.8060804448037,0.0,-1.3613568165555776,-2.879793265790643
694,15,24,24,0,0,50.6568384648754,13.5734589577772,17.3212595753644,3.141592653589793,-1.5707963267948966,0.26179938779914896
695,15,24,24,12,0,50.2768981221587,13.4716542497742,21.0636700100841,0.0,-1.3613568165555776,-2.879793265790643
696,15,24,36,0,0,49.8969577794419,13.3698495417713,9.83643870592507,3.141592653589793,-1.3613568165555767,0.26179938779914874
697,15,24,36,12,0,50.2768981221587,13.4716542497742,13.5788491406447,3.141592653589793,-1.5707963267948966,0.26179938779914885
698,15,24,48,0,0,47.6505261554069,12.7679200022594,2.6787404246356,3.141592653589793,-1.1519173063162578,0.2617993877991485
699,15,24,48,12,0,48.7737419674244,13.0688847720153,6.25758956528033,3.141592653589793,-1.3613568165555767,0.26179938779914874
700,15,24,72,36,0,44.5241828581202,11.9302188404889,0.20224228205164,3.141592653589793,-1.3613568165555767,0.26179938779914874
701,15,24,72,48,0,44.9041232008369,12.0320235484919,3.94465271677131,0.0,-1.5707963267948966,-2.879793265790644
702,15,24,72,60,0,44.5241828581202,11.9302188404889,7.68706315149097,0.0,-1.3613568165555776,-2.879793265790643
703,15,24,84,60,0,41.9635060282738,11.2440875518545,1.73280230724451,3.141592653589793,-1.5707963267948963,0.26179938779914935
704,15,24,96,72,0,38.6429485129939,10.3543468472142,0.202242282051636,3.141592653589793,-1.5707963267948963,0.26179938779914935
705,15,36,12,0,0,45.8331247948613,12.280948775378,35.2226536919933,0.0,-1.1519173063162575,-2.879793265790645
706,15,36,24,0,0,48.0795564188963,12.8828783148899,28.0649554107038,0.0,-1.3613568165555776,-2.879793265790643
707,15,36,24,12,0,46.9563406068788,12.5819135451339,31.6438045513486,0.0,-1.1519173063162575,-2.879793265790645
708,15,36,36,0,0,48.8394371043298,13.0864877308958,20.5801345412645,3.141592653589793,-1.5707963267948966,0.26179938779914896
709,15,36,36,12,0,48.4594967616131,12.9846830228928,24.3225449759842,0.0,-1.3613568165555776,-2.879793265790643
710,15,36,48,0,0,48.0795564188963,12.8828783148899,13.0953136718252,3.141592653589793,-1.3613568165555767,0.26179938779914874
711,15,36,48,12,0,48.4594967616131,12.9846830228928,16.8377241065448,3.141592653589793,-1.5707963267948966,0.26179938779914874
712,15,36,60,0,0,45.8331247948613,12.280948775378,5.93761539053571,3.141592653589793,-1.1519173063162578,0.2617993877991485
713,15,36,60,12,0,46.9563406068788,12.5819135451339,9.51646453118045,3.141592653589793,-1.3613568165555776,0.26179938779915
714,15,36,72,12,0,44.0157234343157,11.7939775484965,2.6787404246356,3.141592653589793,-1.1519173063162578,0.2617993877991485
715,15,36,72,36,0,45.5188795890499,12.1967470262554,10.0,3.141592653589793,-1.5707963267948966,0.26179938779914896
716,15,36,72,48,0,45.1389392463332,12.0949423182525,13.7424104347197,0.0,-1.3613568165555776,-2.879793265790643
717,15,36,72,60,0,44.0157234343157,11.7939775484965,17.3212595753644,0.0,-1.1519173063162575,-2.879793265790645
718,15,36,84,36,0,42.7067814975746,11.4432476136075,3.46111724795175,3.141592653589793,-1.3613568165555767,0.26179938779914874
719,15,36,84,48,0,43.0867218402913,11.5450523216105,7.20352768267142,3.141592653589793,-1.5707963267948966,0.26179938779914896
720,15,36,84,60,0,42.7067814975746,11.4432476136075,10.9459381173911,0.0,-1.3613568165555778,-2.8797932657906435
721,15,48,12,0,0,39.7661643250114,10.6553116169701,44.5368759411221,0.0,-0.942477796076937,-2.8797932657906444
722,15,48,24,0,0,43.4009670461027,11.629254070733,38.0191260093219,0.0,-1.1519173063162575,-2.879793265790645
723,15,48,24,12,0,41.5835656855571,11.1422828438516,41.278000975222,0.0,-0.942477796076937,-2.8797932657906444
724,15,48,36,0,0,45.6473986701377,12.2311836102449,30.8614277280324,0.0,-1.3613568165555776,-2.879793265790643
725,15,48,36,12,0,44.5241828581202,11.9302188404889,34.4402768686772,0.0,-1.1519173063162575,-2.879793265790645
726,15,48,48,0,0,46.4072793555712,12.4347930262508,23.3766068585931,3.141592653589793,-1.5707963267948966,0.26179938779914896
727,15,48,48,12,0,46.0273390128544,12.3329883182479,27.1190172933128,0.0,-1.3613568165555776,-2.879793265790643
728,15,48,60,0,0,45.6473986701377,12.2311836102449,15.8917859891538,3.141592653589793,-1.3613568165555776,0.26179938779915
729,15,48,60,12,0,46.0273390128544,12.3329883182479,19.6341964238734,0.0,-1.5707963267948966,-2.879793265790644
730,15,48,72,0,0,43.4009670461027,11.629254070733,8.73408770786429,3.141592653589793,-1.1519173063162578,0.2617993877991485
731,15,48,72,12,0,44.5241828581202,11.9302188404889,12.312936848509,3.141592653589793,-1.3613568165555776,0.26179938779915
732,15,48,72,36,0,44.5241828581202,11.9302188404889,19.7977577179484,0.0,-1.3613568165555776,-2.879793265790643
733,15,48,72,48,0,43.4009670461027,11.629254070733,23.3766068585931,0.0,-1.1519173063162575,-2.879793265790645
734,15,48,72,60,0,41.5835656855571,11.1422828438516,26.6354818244932,0.0,-0.9424777960769378,-2.879793265790644
735,15,48,84,0,0,39.7661643250114,10.6553116169701,2.21633777606406,3.141592653589793,-0.9424777960769375,0.261799387799149
736,15,48,84,12,0,41.5835656855571,11.1422828438516,5.47521274196418,3.141592653589793,-1.1519173063162578,0.2617993877991485
737,15,48,84,36,0,43.0867218402913,11.5450523216105,12.7964723173286,3.141592653589793,-1.5707963267948966,0.26179938779914896
738,15,48,84,48,0,42.7067814975746,11.4432476136075,16.5388827520482,0.0,-1.3613568165555776,-2.879793265790643
739,15,48,84,60,0,41.5835656855571,11.1422828438516,20.117731892693,0.0,-1.1519173063162575,-2.879793265790645
740,15,48,96,36,0,40.2746237488159,10.7915529089625,6.25758956528033,3.141592653589793,-1.3613568165555767,0.26179938779914874
741,15,48,108,36,0,36.2107907642353,9.70265214256921,0.466890015108799,3.141592653589793,-1.1519173063162578,0.2617993877991485
742,15,60,12,0,0,31.9612316549311,8.56398621104282,52.3416709853061,0.0,-0.7330382858376185,-2.879793265790643
743,15,60,24,0,0,36.8255471524483,9.86737562033276,46.7487263506489,0.0,-0.9424777960769384,-2.879793265790644
744,15,60,24,12,0,34.3933894036897,9.21568091568779,49.5451986679775,0.0,-0.7330382858376185,-2.879793265790643
745,15,60,36,0,0,40.4603498735396,10.8413180740956,40.2309764188487,0.0,-1.1519173063162575,-2.879793265790645
746,15,60,36,12,0,38.6429485129939,10.3543468472142,43.4898513847488,0.0,-0.9424777960769378,-2.879793265790644
747,15,60,48,0,0,42.7067814975746,11.4432476136075,33.0732781375592,0.0,-1.3613568165555778,-2.8797932657906435
748,15,60,48,12,0,41.5835656855571,11.1422828438516,36.652127278204,0.0,-1.1519173063162575,-2.879793265790645
749,15,60,60,0,0,43.4666621830081,11.6468570296134,25.5884572681199,3.141592653589793,-1.5707963267948966,0.26179938779914896
750,15,60,60,12,0,43.0867218402913,11.5450523216105,29.3308677028396,0.0,-1.3613568165555776,-2.879793265790643
751,15,60,72,0,0,42.7067814975746,11.4432476136075,18.1036363986806,3.141592653589793,-1.3613568165555767,0.26179938779914874
752,15,60,72,12,0,43.0867218402913,11.5450523216105,21.8460468334002,3.141592653589793,-1.5707963267948966,0.26179938779914874
753,15,60,72,36,0,41.5835656855571,11.1422828438516,29.1673064087646,0.0,-1.1519173063162575,-2.879793265790645
754,15,60,72,48,0,39.7661643250114,10.6553116169701,32.4261813746647,0.0,-0.9424777960769378,-2.879793265790644
755,15,60,72,60,0,37.3340065762528,10.0036169123252,35.2226536919933,0.0,-0.7330382858376185,-2.879793265790643
756,15,60,84,0,0,40.4603498735396,10.8413180740956,10.9459381173911,3.141592653589793,-1.1519173063162578,0.2617993877991485
757,15,60,84,12,0,41.5835656855571,11.1422828438516,14.5247872580358,3.141592653589793,-1.3613568165555767,0.26179938779914874
758,15,60,84,36,0,41.5835656855571,11.1422828438516,22.0096081274752,0.0,-1.3613568165555778,-2.8797932657906435
759,15,60,84,48,0,40.4603498735396,10.8413180740956,25.5884572681199,0.0,-1.1519173063162575,-2.879793265790645
760,15,60,84,60,0,38.6429485129939,10.3543468472142,28.84733223402,0.0,-0.9424777960769384,-2.879793265790644
761,15,60,96,0,0,36.8255471524483,9.86737562033276,4.42818818559086,3.141592653589793,-0.9424777960769375,0.261799387799149
762,15,60,96,12,0,38.6429485129939,10.3543468472142,7.68706315149097,3.141592653589793,-1.1519173063162578,0.2617993877991485
763,15,60,96,36,0,40.1461046677282,10.7571163249731,15.0083227268554,3.141592653589793,-1.5707963267948963,0.2617993877991495
764,15,60,108,12,0,34.3933894036897,9.21568091568779,1.63171586826228,3.141592653589793,-0.9424777960769375,0.261799387799149
765,15,72,12,0,0,22.759439794525,6.09837351312772,58.2959318295526,0.0,-0.5235987755982986,-2.8797932657906444
766,15,72,24,0,0,28.6406741396512,7.67424550640248,53.872231010499,0.0,-0.7330382858376185,-2.879793265790643
767,15,72,24,12,0,25.7000569670881,6.8863095097651,56.0840814200258,0.0,-0.5235987755982986,-2.8797932657906444
768,15,72,36,0,0,33.5049896371684,8.97763491569242,48.2792863758418,0.0,-0.9424777960769378,-2.879793265790644
769,15,72,36,12,0,31.0728318884098,8.32594021104745,51.0757586931704,0.0,-0.7330382858376185,-2.879793265790643
770,15,72,48,0,0,37.1397923582597,9.95157736945527,41.7615364440416,0.0,-1.1519173063162575,-2.879793265790645
771,15,72,48,12,0,35.3223909977141,9.46460614257384,45.0204114099417,0.0,-0.9424777960769378,-2.879793265790644
772,15,72,60,0,0,39.3862239822947,10.5535069089672,34.6038381627521,0.0,-1.3613568165555776,-2.879793265790643
773,15,72,60,12,0,38.2630081702772,10.2525421392112,38.1826873033968,0.0,-1.1519173063162575,-2.879793265790645
774,15,72,72,0,0,40.1461046677282,10.7571163249731,27.1190172933128,3.141592653589793,-1.5707963267948966,0.26179938779914896
775,15,72,72,12,0,39.7661643250114,10.6553116169701,30.8614277280324,0.0,-1.3613568165555776,-2.879793265790643
776,15,72,72,36,0,36.8255471524483,9.86737562033276,37.6991518345773,0.0,-0.9424777960769378,-2.879793265790644
777,15,72,72,48,0,34.3933894036897,9.21568091568779,40.4956241519059,0.0,-0.7330382858376185,-2.879793265790643
778,15,72,72,60,0,31.4527722311266,8.42774491905041,42.7074745614327,0.0,-0.5235987755982986,-2.8797932657906444
779,15,72,84,0,0,39.3862239822947,10.5535069089672,19.6341964238734,3.141592653589793,-1.3613568165555767,0.26179938779914874
780,15,72,84,12,0,39.7661643250114,10.6553116169701,23.3766068585931,3.141592653589793,-1.5707963267948966,0.26179938779914874
781,15,72,84,36,0,38.2630081702772,10.2525421392112,30.6978664339575,0.0,-1.1519173063162575,-2.879793265790645
782,15,72,84,48,0,36.4456068097316,9.7655709123298,33.9567413998576,0.0,-0.9424777960769378,-2.879793265790644
783,15,72,84,60,0,34.013449060973,9.11387620768483,36.7532137171862,0.0,-0.7330382858376185,-2.879793265790643
784,15,72,96,0,0,37.1397923582597,9.95157736945526,12.476498142584,3.141592653589793,-1.1519173063162578,0.2617993877991485
785,15,72,96,12,0,38.2630081702772,10.2525421392112,16.0553472832287,3.141592653589793,-1.3613568165555767,0.26179938779914874
786,15,72,96,36,0,38.2630081702772,10.2525421392112,23.540168152668,0.0,-1.3613568165555778,-2.8797932657906435
787,15,72,108,0,0,33.5049896371684,8.97763491569242,5.95874821078373,3.141592653589793,-0.9424777960769375,0.261799387799149
788,15,72,108,12,0,35.3223909977141,9.46460614257384,9.21762317668384,3.141592653589793,-1.1519173063162578,0.2617993877991485
789,15,72,120,0,0,28.6406741396512,7.67424550640248,0.365803576126575,3.141592653589793,-0.7330382858376185,0.2617993877991501
790,15,72,120,12,0,31.0728318884098,8.32594021104745,3.16227589345516,3.141592653589793,-0.9424777960769382,0.26179938779914946
791,15,72,120,120,0,22.3794994518082,5.99656880512476,30.8614277280324,0.0,-0.3141592653589797,-2.8797932657906435
792,15,84,24,0,0,19.2040662337489,5.1457140387268,59.0783086528687,0.0,-0.5235987755982986,-2.8797932657906444
793,15,84,36,0,0,25.0853005788751,6.72158603200156,54.6546078338151,0.0,-0.7330382858376185,-2.879793265790643
794,15,84,36,12,0,22.144683406312,5.93365003536418,56.8664582433419,0.0,-0.5235987755982986,-2.8797932657906444
795,15,84,48,0,0,29.9496160763923,8.02497544129149,49.0616631991579,0.0,-0.9424777960769378,-2.879793265790644
796,15,84,48,12,0,27.5174583276337,7.37328073664653,51.8581355164865,0.0,-0.7330382858376185,-2.879793265790643
797,15,84,60,0,0,33.5844187974836,8.99891789505434,42.5439132673577,0.0,-1.1519173063162575,-2.879793265790645
798,15,84,60,12,0,31.767017436938,8.51194666817292,45.8027882332578,0.0,-0.942477796076937,-2.8797932657906444
799,15,84,72,0,0,35.8308504215186,9.60084743456625,35.3862149860683,0.0,-1.3613568165555776,-2.879793265790643
800,15,84,72,12,0,34.7076346095011,9.2998826648103,38.965064126713,0.0,-1.1519173063162575,-2.879793265790645
801,15,84,72,36,0,30.4580755001968,8.16121673328391,45.0204114099417,0.0,-0.7330382858376185,-2.879793265790643
802,15,84,72,48,0,27.5174583276337,7.37328073664653,47.2322618194685,0.0,-0.5235987755982986,-2.8797932657906444
803,15,84,72,60,0,24.1969008123538,6.48354003200619,48.7628218446614,0.0,-0.3141592653589797,-2.8797932657906435
804,15,84,84,0,0,36.5907311069521,9.80445685057217,27.9013941166289,3.141592653589793,-1.5707963267948966,0.26179938779914896
805,15,84,84,12,0,36.2107907642353,9.70265214256921,31.6438045513486,0.0,-1.3613568165555776,-2.879793265790643
806,15,84,84,36,0,33.2701735916722,8.91471614593183,38.4815286578934,0.0,-0.9424777960769378,-2.879793265790644
807,15,84,84,48,0,30.8380158429136,8.26302144128686,41.278000975222,0.0,-0.7330382858376185,-2.879793265790643
808,15,84,84,60,0,27.8973986703505,7.47508544464948,43.4898513847488,0.0,-0.5235987755982986,-2.8797932657906444
809,15,84,96,0,0,35.8308504215186,9.60084743456625,20.4165732471896,3.141592653589793,-1.3613568165555767,0.26179938779914874
810,15,84,96,12,0,36.2107907642353,9.70265214256921,24.1589836819092,3.141592653589793,-1.5707963267948966,0.26179938779914874
811,15,84,96,36,0,34.7076346095011,9.2998826648103,31.4802432572737,0.0,-1.1519173063162575,-2.879793265790645
812,15,84,108,0,0,33.5844187974836,8.99891789505434,13.2588749659001,3.141592653589793,-1.1519173063162578,0.2617993877991485
813,15,84,108,12,0,34.7076346095011,9.2998826648103,16.8377241065449,3.141592653589793,-1.3613568165555776,0.26179938779915
814,15,84,120,0,0,29.9496160763923,8.0249754412915,6.74112503409989,3.141592653589793,-0.9424777960769387,0.26179938779914946
815,15,84,120,12,0,31.767017436938,8.51194666817292,10.0,3.141592653589793,-1.1519173063162578,0.2617993877991485
816,15,84,120,108,0,21.2562836397907,5.69560403536881,34.4402768686772,0.0,-0.31415926535897876,-2.8797932657906435
817,15,84,120,120,0,17.7009100790146,4.74294456096788,35.2226536919933,0.0,-0.10471975511966024,-2.8797932657906435
818,15,96,0,120,0,-17.7009100790146,-4.74294456096788,35.2226536919933,3.141592653589793,0.9424777960769387,0.26179938779914946
819,15,96,12,84,0,-17.0067245304865,-4.55693810384242,49.5451986679775,0.0,1.3613568165555776,-2.879793265790643
820,15,96,48,0,0,21.4504978577838,5.74764357823871,54.6546078338151,0.0,-0.7330382858376185,-2.879793265790643
821,15,96,48,12,0,18.5098806852207,4.95970758160133,56.8664582433419,0.0,-0.5235987755982986,-2.8797932657906444
822,15,96,60,0,0,26.3148133553011,7.05103298752864,49.061663199158,0.0,-0.942477796076937,-2.8797932657906444
823,15,96,60,12,0,23.8826556065425,6.39933828288368,51.8581355164865,0.0,-0.7330382858376178,-2.8797932657906435
824,15,96,72,0,0,29.9496160763923,8.02497544129149,42.5439132673577,0.0,-1.1519173063162575,-2.879793265790645
825,15,96,72,12,0,28.1322147158467,7.53800421441007,45.8027882332578,0.0,-0.942477796076937,-2.8797932657906444
826,15,96,72,36,0,22.759439794525,6.09837351312772,50.8111109601132,0.0,-0.5235987755982986,-2.8797932657906444
827,15,96,72,48,0,19.4388822792451,5.20863280848738,52.3416709853061,0.0,-0.31415926535897876,-2.8797932657906435
828,15,96,84,0,0,32.1960477004273,8.62690498080341,35.3862149860683,0.0,-1.3613568165555776,-2.879793265790643
829,15,96,84,12,0,31.0728318884098,8.32594021104745,38.965064126713,0.0,-1.1519173063162575,-2.879793265790645
830,15,96,84,36,0,26.8232727791056,7.18727427952106,45.0204114099417,0.0,-0.7330382858376185,-2.879793265790643
831,15,96,84,48,0,23.8826556065425,6.39933828288368,47.2322618194685,0.0,-0.5235987755982986,-2.8797932657906444
832,15,96,84,60,0,20.5620980912626,5.50959757824334,48.7628218446614,0.0,-0.3141592653589797,-2.8797932657906435
833,15,96,96,0,0,32.9559283858608,8.83051439680932,27.9013941166289,3.141592653589793,-1.5707963267948966,0.26179938779914896
834,15,96,96,12,0,32.5759880431441,8.72870968880637,31.6438045513486,0.0,-1.3613568165555776,-2.879793265790643
835,15,96,96,36,0,29.635370870581,7.94077369216898,38.4815286578934,0.0,-0.9424777960769378,-2.879793265790644
836,15,96,108,0,0,32.1960477004273,8.62690498080341,20.4165732471896,3.141592653589793,-1.3613568165555776,0.26179938779915
837,15,96,108,12,0,32.5759880431441,8.72870968880637,24.1589836819093,0.0,-1.5707963267948966,-2.879793265790644
838,15,96,120,0,0,29.9496160763923,8.0249754412915,13.2588749659001,3.141592653589793,-1.1519173063162578,0.2617993877991485
839,15,96,120,12,0,31.0728318884098,8.32594021104745,16.8377241065449,3.141592653589793,-1.3613568165555776,0.2617993877991495
840,15,108,0,120,0,-22.3794994518082,-5.99656880512476,30.8614277280324,3.141592653589793,0.7330382858376185,0.2617993877991501
841,15,108,12,48,0,-21.2562836397907,-5.69560403536881,55.6005459512062,0.0,0.942477796076937,-2.8797932657906444
842,15,108,12,60,0,-23.0736850003363,-6.18257526225023,52.3416709853061,0.0,1.1519173063162575,-2.879793265790645
843,15,108,12,72,0,-24.1969008123538,-6.48354003200619,48.7628218446614,0.0,1.3613568165555767,-2.879793265790644
844,15,108,12,84,0,-24.5768411550706,-6.58534474000914,45.0204114099417,0.0,1.5707963267948966,-2.879793265790643
845,15,108,12,96,0,-24.1969008123538,-6.48354003200619,41.278000975222,3.141592653589793,1.3613568165555776,0.26179938779915
846,15,108,12,108,0,-23.0736850003363,-6.18257526225023,37.6991518345773,3.141592653589793,1.1519173063162578,0.2617993877991485
847,15,108,12,120,0,-21.2562836397907,-5.69560403536881,34.4402768686772,3.141592653589793,0.9424777960769387,0.26179938779914946
848,15,108,24,72,0,-19.4388822792451,-5.20863280848738,52.3416709853061,0.0,1.1519173063162575,-2.879793265790645
849,15,108,24,84,0,-20.5620980912626,-5.50959757824334,48.7628218446614,0.0,1.3613568165555767,-2.8797932657906444
850,15,108,60,0,0,17.8951242970077,4.79498410383778,53.872231010499,0.0,-0.7330382858376185,-2.879793265790643
851,15,108,72,0,0,22.759439794525,6.09837351312772,48.2792863758418,0.0,-0.9424777960769378,-2.879793265790644
852,15,108,72,12,0,20.3272820457664,5.44667880848275,51.0757586931704,0.0,-0.7330382858376185,-2.879793265790643
853,15,108,84,0,0,26.3942425156162,7.07231596689057,41.7615364440416,0.0,-1.1519173063162575,-2.879793265790645
854,15,108,84,12,0,24.5768411550706,6.58534474000915,45.0204114099417,0.0,-0.9424777960769378,-2.879793265790644
855,15,108,84,36,0,19.2040662337489,5.1457140387268,50.0287341367971,0.0,-0.5235987755982986,-2.8797932657906444
856,15,108,96,0,0,28.6406741396512,7.67424550640248,34.6038381627521,0.0,-1.3613568165555778,-2.8797932657906435
857,15,108,96,12,0,27.5174583276337,7.37328073664653,38.1826873033968,0.0,-1.1519173063162575,-2.879793265790645
858,15,108,96,36,0,23.2678992183295,6.23461480512013,44.2380345866255,0.0,-0.7330382858376185,-2.879793265790643
859,15,108,108,0,0,29.4005548250847,7.8778549224084,27.1190172933128,3.141592653589793,-1.5707963267948966,0.26179938779914896
860,15,108,108,12,0,29.020614482368,7.77605021440544,30.8614277280324,0.0,-1.3613568165555776,-2.879793265790643
861,15,108,120,0,0,28.6406741396512,7.67424550640248,19.6341964238734,3.141592653589793,-1.3613568165555776,0.26179938779915
862,15,108,120,12,0,29.020614482368,7.77605021440544,23.3766068585931,0.0,-1.5707963267948966,-2.879793265790644
863,15,120,0,0,0,-26.0799973098048,-6.98811421776806,56.7653718043597,0.0,0.5235987755982986,-2.8797932657906444
864,15,120,0,12,0,-29.020614482368,-7.77605021440544,54.5535213948329,0.0,0.7330382858376178,-2.8797932657906435
865,15,120,0,24,0,-31.4527722311266,-8.42774491905041,51.7570490775043,0.0,0.942477796076937,-2.8797932657906444
866,15,120,0,36,0,-33.2701735916722,-8.91471614593183,48.4981741116042,0.0,1.1519173063162575,-2.879793265790645
867,15,120,0,48,0,-34.3933894036897,-9.21568091568779,44.9193249709595,0.0,1.3613568165555767,-2.879793265790644
868,15,120,0,60,0,-34.7733297464065,-9.31748562369074,41.1769145362398,0.0,1.5707963267948961,-2.8797932657906427
869,15,120,0,72,0,-34.3933894036897,-9.21568091568779,37.4345041015201,3.141592653589793,1.3613568165555776,0.2617993877991495
870,15,120,0,84,0,-33.2701735916722,-8.91471614593183,33.8556549608754,3.141592653589793,1.1519173063162578,0.2617993877991485
871,15,120,0,96,0,-31.4527722311266,-8.42774491905041,30.5967799949753,3.141592653589793,0.9424777960769387,0.26179938779914946
872,15,120,0,108,0,-29.020614482368,-7.77605021440544,27.8003076776467,3.141592653589793,0.7330382858376185,0.2617993877991501
873,15,120,0,120,0,-26.0799973098048,-6.98811421776806,25.5884572681199,3.141592653589793,0.5235987755982988,0.26179938779914896
874,15,120,12,0,0,-19.4388822792451,-5.20863280848738,59.8264918547454,0.0,0.31415926535897876,-2.8797932657906435
875,15,120,12,12,0,-22.759439794525,-6.09837351312772,58.2959318295526,0.0,0.5235987755982986,-2.8797932657906444
876,15,120,12,36,0,-28.1322147158467,-7.53800421441007,53.2876091026972,0.0,0.942477796076937,-2.8797932657906444
877,15,120,12,48,0,-29.9496160763923,-8.02497544129149,50.0287341367971,0.0,1.1519173063162575,-2.879793265790645
878,15,120,12,60,0,-31.0728318884098,-8.32594021104745,46.4498849961523,0.0,1.3613568165555767,-2.879793265790644
879,15,120,12,72,0,-31.4527722311266,-8.42774491905041,42.7074745614327,0.0,1.5707963267948963,-2.879793265790644
880,15,120,12,84,0,-31.0728318884098,-8.32594021104745,38.965064126713,3.141592653589793,1.3613568165555776,0.2617993877991495
881,15,120,12,96,0,-29.9496160763923,-8.02497544129149,35.3862149860683,3.141592653589793,1.1519173063162578,0.2617993877991485
882,15,120,12,108,0,-28.1322147158467,-7.53800421441007,32.1273400201682,3.141592653589793,0.9424777960769387,0.26179938779914946
883,15,120,12,120,0,-25.7000569670881,-6.8863095097651,29.3308677028396,3.141592653589793,0.7330382858376192,0.2617993877991501
884,15,120,24,48,0,-24.5768411550706,-6.58534474000914,54.0699859260133,0.0,0.942477796076937,-2.8797932657906444
885,15,120,24,60,0,-26.3942425156162,-7.07231596689057,50.8111109601132,0.0,1.1519173063162564,-2.879793265790643
886,15,120,24,72,0,-27.5174583276337,-7.37328073664652,47.2322618194685,0.0,1.3613568165555767,-2.879793265790644
