matheussooares/kinematics-robotics/src/data/ready/dataset_7mm.csv
,theta_1,theta_2,theta_3,theta_4,theta_5,p_x,p_y,p_z,Roll,Pich,Yaw
0,0,0,0,0,0,54.0,0.0,10.0,3.141592653589793,-1.5707963267948966,0.0
1,0,0,12,0,0,53.213313626417,0.0,2.51517913056066,3.141592653589793,-1.3613568165555774,0.0
2,0,0,12,12,0,53.6066568132085,0.0,6.25758956528033,3.141592653589793,-1.5707963267948966,0.0
3,0,0,24,24,0,52.4438182375668,0.0,2.67874042463559,3.141592653589793,-1.5707963267948966,0.0
4,0,12,0,0,0,52.8199704396255,0.0,21.227231304159,0.0,-1.5707963267948966,3.141592653589793
5,0,12,12,0,0,53.6066568132085,0.0,13.7424104347197,3.141592653589793,-1.5707963267948966,0.0
6,0,12,12,12,0,53.213313626417,0.0,17.4848208694393,0.0,-1.5707963267948966,3.141592653589793
7,0,12,24,0,0,52.8199704396255,0.0,6.25758956528033,3.141592653589793,-1.3613568165555774,0.0
8,0,12,24,12,0,53.213313626417,0.0,10.0,3.141592653589793,-1.5707963267948966,0.0
9,0,12,24,24,0,52.8199704396255,0.0,13.7424104347197,0.0,-1.5707963267948966,3.141592653589793
10,0,12,36,12,0,51.6571318639838,0.0,2.6787404246356,3.141592653589793,-1.3613568165555774,0.0
11,0,12,36,24,0,52.0504750507753,0.0,6.42115085935527,3.141592653589793,-1.5707963267948966,0.0
12,0,12,48,36,0,50.1689627119576,0.0,3.16227589345515,3.141592653589793,-1.5707963267948966,0.0
13,0,12,48,48,0,49.7756195251661,0.0,6.90468632817482,0.0,-1.5707963267948966,3.141592653589793
14,0,12,60,48,0,47.651007727668,0.0,0.365803576126575,0.0,-1.5707963267948966,3.141592653589793
15,0,12,60,60,0,47.2576645408765,0.0,4.10821401084624,0.0,-1.5707963267948966,3.141592653589793
16,0,24,0,0,0,49.3314547127004,0.0,31.9637787260932,0.0,-1.5707963267948966,3.141592653589793
17,0,24,0,108,0,20.8432855606742,0.0,38.0191260093219,0.0,1.5707963267948966,3.141592653589793
18,0,24,12,0,0,51.6571318639838,0.0,24.8060804448037,0.0,-1.5707963267948966,3.141592653589793
19,0,24,12,12,0,50.4942932883421,0.0,28.3849295854485,0.0,-1.5707963267948966,3.141592653589793
20,0,24,24,0,0,52.4438182375668,0.0,17.3212595753644,3.141592653589793,-1.5707963267948966,0.0
21,0,24,24,12,0,52.0504750507753,0.0,21.0636700100841,0.0,-1.5707963267948966,3.141592653589793
22,0,24,24,24,0,50.8876364751336,0.0,24.6425191507288,0.0,-1.5707963267948966,3.141592653589793
23,0,24,36,0,0,51.6571318639838,0.0,9.83643870592507,3.141592653589793,-1.3613568165555774,0.0
24,0,24,36,12,0,52.0504750507753,0.0,13.5788491406447,3.141592653589793,-1.5707963267948966,0.0
25,0,24,36,24,0,51.6571318639838,0.0,17.3212595753644,0.0,-1.5707963267948966,3.141592653589793
26,0,24,48,0,0,49.3314547127004,0.0,2.6787404246356,3.141592653589793,-1.1519173063162578,0.0
27,0,24,48,12,0,50.4942932883421,0.0,6.25758956528033,3.141592653589793,-1.3613568165555774,0.0
28,0,24,48,24,0,50.8876364751336,0.0,10.0,3.141592653589793,-1.5707963267948966,0.0
29,0,24,48,36,0,50.4942932883421,0.0,13.7424104347197,0.0,-1.5707963267948966,3.141592653589793
30,0,24,48,48,0,49.3314547127004,0.0,17.3212595753644,0.0,-1.5707963267948966,3.141592653589793
31,0,24,60,24,0,48.6127809495244,0.0,2.99871459938022,3.141592653589793,-1.3613568165555774,0.0
32,0,24,60,36,0,49.0061241363159,0.0,6.74112503409989,0.0,-1.5707963267948966,3.141592653589793
33,0,24,60,48,0,48.6127809495244,0.0,10.4835354688196,0.0,-1.5707963267948966,3.141592653589793
34,0,24,60,60,0,47.4499423738827,0.0,14.0623846094643,0.0,-1.5707963267948966,3.141592653589793
35,0,24,72,36,0,46.0948259652348,0.0,0.20224228205164,3.141592653589793,-1.3613568165555774,0.0
36,0,24,72,48,0,46.4881691520263,0.0,3.94465271677131,0.0,-1.5707963267948966,3.141592653589793
37,0,24,72,60,0,46.0948259652348,0.0,7.68706315149097,0.0,-1.5707963267948966,3.141592653589793
38,0,24,72,72,0,44.9319873895931,0.0,11.2659122921357,0.0,-1.5707963267948966,3.141592653589793
39,0,24,84,60,0,43.4438182375668,0.0,1.73280230724451,3.141592653589793,-1.5707963267948966,0.0
40,0,24,84,84,0,41.8876364751336,0.0,9.05406188260891,0.0,-1.5707963267948966,3.141592653589793
41,0,24,96,72,0,40.0061241363159,0.0,0.202242282051636,3.141592653589793,-1.5707963267948966,0.0
42,0,24,96,84,0,39.6127809495244,0.0,3.94465271677131,0.0,-1.5707963267948966,3.141592653589793
43,0,36,0,0,0,43.6869176962472,0.0,41.7404036237935,0.0,-1.5707963267948966,3.141592653589793
44,0,36,0,108,0,14.5623058987491,0.0,41.7404036237936,0.0,1.5707963267948966,3.141592653589793
45,0,36,12,0,0,47.4499423738827,0.0,35.2226536919933,0.0,-1.5707963267948966,3.141592653589793
46,0,36,12,12,0,45.5684300350649,0.0,38.4815286578934,0.0,-1.5707963267948966,3.141592653589793
47,0,36,12,108,0,18.9617732218564,0.0,41.278000975222,0.0,1.5707963267948966,3.141592653589793
48,0,36,24,0,0,49.7756195251661,0.0,28.0649554107038,0.0,-1.5707963267948966,3.141592653589793
49,0,36,24,12,0,48.6127809495244,0.0,31.6438045513486,0.0,-1.5707963267948966,3.141592653589793
50,0,36,24,24,0,46.7312686107066,0.0,34.9026795172487,0.0,-1.5707963267948966,3.141592653589793
51,0,36,36,0,0,50.5623058987491,0.0,20.5801345412645,3.141592653589793,-1.5707963267948966,0.0
52,0,36,36,12,0,50.1689627119576,0.0,24.3225449759842,0.0,-1.5707963267948966,3.141592653589793
53,0,36,36,24,0,49.0061241363159,0.0,27.9013941166289,0.0,-1.5707963267948966,3.141592653589793
54,0,36,48,0,0,49.7756195251661,0.0,13.0953136718252,3.141592653589793,-1.3613568165555774,0.0
55,0,36,48,12,0,50.1689627119576,0.0,16.8377241065448,3.141592653589793,-1.5707963267948966,0.0
56,0,36,48,24,0,49.7756195251661,0.0,20.5801345412645,0.0,-1.5707963267948966,3.141592653589793
57,0,36,48,36,0,48.6127809495244,0.0,24.1589836819092,0.0,-1.5707963267948966,3.141592653589793
58,0,36,48,48,0,46.7312686107066,0.0,27.4178586478094,0.0,-1.5707963267948966,3.141592653589793
59,0,36,60,0,0,47.4499423738827,0.0,5.93761539053571,3.141592653589793,-1.1519173063162578,0.0
60,0,36,60,12,0,48.6127809495244,0.0,9.51646453118045,3.141592653589793,-1.3613568165555774,0.0
61,0,36,60,24,0,49.0061241363159,0.0,13.2588749659001,0.0,-1.5707963267948966,3.141592653589793
62,0,36,60,36,0,48.6127809495244,0.0,17.0012854006198,0.0,-1.5707963267948966,3.141592653589793
63,0,36,60,48,0,47.4499423738827,0.0,20.5801345412645,0.0,-1.5707963267948966,3.141592653589793
64,0,36,60,60,0,45.5684300350649,0.0,23.8390095071646,0.0,-1.5707963267948966,3.141592653589793
65,0,36,72,12,0,45.5684300350649,0.0,2.6787404246356,3.141592653589793,-1.1519173063162578,0.0
66,0,36,72,24,0,46.7312686107066,0.0,6.25758956528033,3.141592653589793,-1.3613568165555774,0.0
67,0,36,72,36,0,47.1246117974981,0.0,10.0,3.141592653589793,-1.5707963267948966,0.0
68,0,36,72,48,0,46.7312686107066,0.0,13.7424104347197,0.0,-1.5707963267948966,3.141592653589793
69,0,36,72,60,0,45.5684300350649,0.0,17.3212595753644,0.0,-1.5707963267948966,3.141592653589793
70,0,36,72,72,0,43.6869176962472,0.0,20.5801345412645,0.0,-1.5707963267948966,3.141592653589793
71,0,36,84,36,0,44.213313626417,0.0,3.46111724795175,3.141592653589793,-1.3613568165555774,0.0
72,0,36,84,48,0,44.6066568132085,0.0,7.20352768267142,3.141592653589793,-1.5707963267948966,0.0
73,0,36,84,60,0,44.213313626417,0.0,10.9459381173911,0.0,-1.5707963267948966,3.141592653589793
74,0,36,84,84,0,41.1689627119576,0.0,17.7836622239359,0.0,-1.5707963267948966,3.141592653589793
75,0,36,96,48,0,41.1689627119576,0.0,1.24926683842495,3.141592653589793,-1.3613568165555774,0.0
76,0,36,96,60,0,41.5623058987491,0.0,4.99167727314461,3.141592653589793,-1.5707963267948963,0.0
77,0,36,96,72,0,41.1689627119576,0.0,8.73408770786428,0.0,-1.5707963267948966,3.141592653589793
78,0,36,96,84,0,40.0061241363159,0.0,12.312936848509,0.0,-1.5707963267948966,3.141592653589793
79,0,36,108,72,0,38.1246117974981,0.0,3.46111724795175,3.141592653589793,-1.5707963267948966,0.0
80,0,36,108,84,0,37.7312686107066,0.0,7.20352768267142,0.0,-1.5707963267948966,3.141592653589793
81,0,36,108,96,0,36.5684300350649,0.0,10.7823768233162,0.0,-1.5707963267948966,3.141592653589793
82,0,36,108,108,0,34.6869176962472,0.0,14.0412517892163,0.0,-1.5707963267948966,3.141592653589793
83,0,48,0,0,0,36.1330527433783,0.0,50.1298205757793,0.0,-1.5707963267948966,3.141592653589793
84,0,48,0,84,0,12.0443509144594,0.0,50.1298205757793,0.0,1.5707963267948966,3.141592653589793
85,0,48,12,0,0,41.1689627119576,0.0,44.5368759411221,0.0,-1.5707963267948966,3.141592653589793
86,0,48,12,12,0,38.6510077276679,0.0,47.3333482584507,0.0,-1.5707963267948966,3.141592653589793
87,0,48,12,96,0,14.5623058987491,0.0,47.3333482584507,0.0,1.5707963267948966,3.141592653589793
88,0,48,12,108,0,12.0443509144594,0.0,44.5368759411221,0.0,1.5707963267948966,3.141592653589793
89,0,48,24,0,0,44.9319873895931,0.0,38.0191260093219,0.0,-1.5707963267948966,3.141592653589793
90,0,48,24,12,0,43.0504750507753,0.0,41.278000975222,0.0,-1.5707963267948966,3.141592653589793
91,0,48,24,24,0,40.5325200664857,0.0,44.0744732925506,0.0,-1.5707963267948966,3.141592653589793
92,0,48,24,108,0,16.4438182375668,0.0,44.0744732925506,0.0,1.5707963267948966,3.141592653589793
93,0,48,36,0,0,47.2576645408764,0.0,30.8614277280324,0.0,-1.5707963267948966,3.141592653589793
94,0,48,36,12,0,46.0948259652348,0.0,34.4402768686772,0.0,-1.5707963267948966,3.141592653589793
95,0,48,36,24,0,44.213313626417,0.0,37.6991518345773,0.0,-1.5707963267948966,3.141592653589793
96,0,48,48,0,0,48.0443509144595,0.0,23.3766068585931,3.141592653589793,-1.5707963267948966,0.0
97,0,48,48,12,0,47.6510077276679,0.0,27.1190172933128,0.0,-1.5707963267948966,3.141592653589793
98,0,48,48,24,0,46.4881691520263,0.0,30.6978664339575,0.0,-1.5707963267948966,3.141592653589793
99,0,48,48,36,0,44.6066568132085,0.0,33.9567413998576,0.0,-1.5707963267948966,3.141592653589793
100,0,48,48,48,0,42.0887018289189,0.0,36.7532137171862,0.0,-1.5707963267948966,3.141592653589793
101,0,48,60,0,0,47.2576645408764,0.0,15.8917859891538,3.141592653589793,-1.3613568165555774,0.0
102,0,48,60,12,0,47.651007727668,0.0,19.6341964238734,0.0,-1.5707963267948966,3.141592653589793
103,0,48,60,24,0,47.2576645408764,0.0,23.3766068585931,0.0,-1.5707963267948966,3.141592653589793
104,0,48,60,36,0,46.0948259652348,0.0,26.9554559992378,0.0,-1.5707963267948966,3.141592653589793
105,0,48,60,48,0,44.213313626417,0.0,30.214330965138,0.0,-1.5707963267948966,3.141592653589793
106,0,48,60,60,0,41.6953586421274,0.0,33.0108032824665,0.0,-1.5707963267948966,3.141592653589793
107,0,48,72,0,0,44.9319873895931,0.0,8.73408770786429,3.141592653589793,-1.1519173063162578,0.0
108,0,48,72,12,0,46.0948259652348,0.0,12.312936848509,3.141592653589793,-1.3613568165555774,0.0
109,0,48,72,24,0,46.4881691520263,0.0,16.0553472832287,0.0,-1.5707963267948966,3.141592653589793
110,0,48,72,36,0,46.0948259652348,0.0,19.7977577179484,0.0,-1.5707963267948966,3.141592653589793
111,0,48,72,48,0,44.9319873895931,0.0,23.3766068585931,0.0,-1.5707963267948966,3.141592653589793
112,0,48,72,60,0,43.0504750507753,0.0,26.6354818244932,0.0,-1.5707963267948966,3.141592653589793
113,0,48,72,72,0,40.5325200664857,0.0,29.4319541418218,0.0,-1.5707963267948966,3.141592653589793
114,0,48,84,0,0,41.1689627119576,0.0,2.21633777606406,3.141592653589793,-0.9424777960769378,0.0
115,0,48,84,12,0,43.0504750507753,0.0,5.47521274196418,3.141592653589793,-1.1519173063162578,0.0
116,0,48,84,24,0,44.213313626417,0.0,9.05406188260891,3.141592653589793,-1.3613568165555774,0.0
117,0,48,84,36,0,44.6066568132085,0.0,12.7964723173286,3.141592653589793,-1.5707963267948966,0.0
118,0,48,84,48,0,44.213313626417,0.0,16.5388827520482,0.0,-1.5707963267948966,3.141592653589793
119,0,48,84,60,0,43.0504750507753,0.0,20.117731892693,0.0,-1.5707963267948966,3.141592653589793
120,0,48,84,84,0,38.651007727668,0.0,26.1730791759217,0.0,-1.5707963267948966,3.141592653589793
121,0,48,96,24,0,40.5325200664857,0.0,2.6787404246356,3.141592653589793,-1.1519173063162578,0.0
122,0,48,96,36,0,41.6953586421274,0.0,6.25758956528033,3.141592653589793,-1.3613568165555774,0.0
123,0,48,96,48,0,42.0887018289189,0.0,10.0,3.141592653589793,-1.5707963267948966,0.0
124,0,48,96,60,0,41.6953586421274,0.0,13.7424104347197,0.0,-1.5707963267948966,3.141592653589793
125,0,48,96,72,0,40.5325200664857,0.0,17.3212595753644,0.0,-1.5707963267948966,3.141592653589793
126,0,48,96,84,0,38.651007727668,0.0,20.5801345412645,0.0,-1.5707963267948966,3.141592653589793
127,0,48,108,36,0,37.4881691520263,0.0,0.466890015108799,3.141592653589793,-1.1519173063162578,0.0
128,0,48,108,60,0,39.0443509144595,0.0,7.7881495904732,3.141592653589793,-1.5707963267948966,0.0
129,0,48,108,72,0,38.651007727668,0.0,11.5305600251929,0.0,-1.5707963267948966,3.141592653589793
130,0,48,108,84,0,37.4881691520263,0.0,15.1094091658376,0.0,-1.5707963267948966,3.141592653589793
131,0,48,108,96,0,35.6066568132085,0.0,18.3682841317377,0.0,-1.5707963267948966,3.141592653589793
132,0,48,108,108,0,33.0887018289189,0.0,21.1647564490663,0.0,-1.5707963267948966,3.141592653589793
133,0,48,120,60,0,35.213313626417,0.0,2.51517913056067,3.141592653589793,-1.3613568165555774,0.0
134,0,60,0,0,0,27.0,0.0,56.7653718043597,0.0,-1.5707963267948966,3.141592653589793
135,0,60,12,0,0,33.0887018289189,0.0,52.3416709853061,0.0,-1.5707963267948966,3.141592653589793
136,0,60,12,12,0,30.0443509144595,0.0,54.5535213948329,0.0,-1.5707963267948966,3.141592653589793
137,0,60,24,0,0,38.1246117974981,0.0,46.7487263506489,0.0,-1.5707963267948966,3.141592653589793
138,0,60,24,12,0,35.6066568132085,0.0,49.5451986679775,0.0,-1.5707963267948966,3.141592653589793
139,0,60,24,24,0,32.5623058987491,0.0,51.7570490775043,0.0,-1.5707963267948966,3.141592653589793
140,0,60,24,96,0,11.5179549842896,0.0,49.5451986679775,0.0,1.5707963267948966,3.141592653589793
141,0,60,24,108,0,9.00000000000001,0.0,46.7487263506489,0.0,1.5707963267948966,3.141592653589793
142,0,60,36,0,0,41.8876364751336,0.0,40.2309764188487,0.0,-1.5707963267948966,3.141592653589793
143,0,60,36,12,0,40.0061241363159,0.0,43.4898513847488,0.0,-1.5707963267948966,3.141592653589793
144,0,60,36,24,0,37.4881691520263,0.0,46.2863237020774,0.0,-1.5707963267948966,3.141592653589793
145,0,60,36,108,0,13.3994673231074,0.0,46.2863237020774,0.0,1.5707963267948966,3.141592653589793
146,0,60,48,0,0,44.213313626417,0.0,33.0732781375592,0.0,-1.5707963267948966,3.141592653589793
147,0,60,48,12,0,43.0504750507753,0.0,36.652127278204,0.0,-1.5707963267948966,3.141592653589793
148,0,60,48,24,0,41.1689627119576,0.0,39.9110022441041,0.0,-1.5707963267948966,3.141592653589793
149,0,60,48,36,0,38.651007727668,0.0,42.7074745614327,0.0,-1.5707963267948966,3.141592653589793
150,0,60,48,48,0,35.6066568132085,0.0,44.9193249709595,0.0,-1.5707963267948966,3.141592653589793
151,0,60,60,0,0,45.0,0.0,25.5884572681199,3.141592653589793,-1.5707963267948966,0.0
152,0,60,60,12,0,44.6066568132085,0.0,29.3308677028396,0.0,-1.5707963267948966,3.141592653589793
153,0,60,60,24,0,43.4438182375668,0.0,32.9097168434843,0.0,-1.5707963267948966,3.141592653589793
154,0,60,60,36,0,41.5623058987491,0.0,36.1685918093844,0.0,-1.5707963267948966,3.141592653589793
155,0,60,60,48,0,39.0443509144595,0.0,38.965064126713,0.0,-1.5707963267948966,3.141592653589793
156,0,60,60,60,0,36.0,0.0,41.1769145362398,0.0,-1.5707963267948966,3.141592653589793
157,0,60,72,0,0,44.213313626417,0.0,18.1036363986806,3.141592653589793,-1.3613568165555774,0.0
158,0,60,72,12,0,44.6066568132085,0.0,21.8460468334002,3.141592653589793,-1.5707963267948966,0.0
159,0,60,72,24,0,44.213313626417,0.0,25.5884572681199,0.0,-1.5707963267948966,3.141592653589793
160,0,60,72,36,0,43.0504750507753,0.0,29.1673064087646,0.0,-1.5707963267948966,3.141592653589793
161,0,60,72,48,0,41.1689627119576,0.0,32.4261813746647,0.0,-1.5707963267948966,3.141592653589793
162,0,60,72,60,0,38.651007727668,0.0,35.2226536919933,0.0,-1.5707963267948966,3.141592653589793
163,0,60,72,72,0,35.6066568132085,0.0,37.4345041015201,0.0,-1.5707963267948966,3.141592653589793
164,0,60,84,0,0,41.8876364751336,0.0,10.9459381173911,3.141592653589793,-1.1519173063162578,0.0
165,0,60,84,12,0,43.0504750507753,0.0,14.5247872580358,3.141592653589793,-1.3613568165555765,0.0
166,0,60,84,24,0,43.4438182375668,0.0,18.2671976927555,3.141592653589793,-1.5707963267948966,0.0
167,0,60,84,36,0,43.0504750507753,0.0,22.0096081274752,0.0,-1.5707963267948966,3.141592653589793
168,0,60,84,48,0,41.8876364751336,0.0,25.5884572681199,0.0,-1.5707963267948966,3.141592653589793
169,0,60,84,60,0,40.0061241363159,0.0,28.84733223402,0.0,-1.5707963267948966,3.141592653589793
170,0,60,84,84,0,34.4438182375668,0.0,33.8556549608754,0.0,-1.5707963267948966,3.141592653589793
171,0,60,96,0,0,38.1246117974981,0.0,4.42818818559086,3.141592653589793,-0.9424777960769378,0.0
172,0,60,96,12,0,40.0061241363159,0.0,7.68706315149097,3.141592653589793,-1.1519173063162578,0.0
173,0,60,96,24,0,41.1689627119576,0.0,11.2659122921357,3.141592653589793,-1.3613568165555765,0.0
174,0,60,96,36,0,41.5623058987491,0.0,15.0083227268554,3.141592653589793,-1.5707963267948963,0.0
175,0,60,96,48,0,41.1689627119576,0.0,18.750733161575,0.0,-1.5707963267948966,3.141592653589793
176,0,60,96,60,0,40.0061241363159,0.0,22.3295823022198,0.0,-1.5707963267948966,3.141592653589793
177,0,60,96,72,0,38.1246117974981,0.0,25.5884572681199,0.0,-1.5707963267948966,3.141592653589793
178,0,60,96,84,0,35.6066568132085,0.0,28.3849295854485,0.0,-1.5707963267948966,3.141592653589793
179,0,60,108,12,0,35.6066568132085,0.0,1.63171586826228,3.141592653589793,-0.9424777960769378,0.0
180,0,60,108,24,0,37.4881691520263,0.0,4.89059083416239,3.141592653589793,-1.1519173063162578,0.0
181,0,60,108,36,0,38.651007727668,0.0,8.46943997480713,3.141592653589793,-1.3613568165555774,0.0
182,0,60,108,60,0,38.651007727668,0.0,15.9542608442465,0.0,-1.5707963267948966,3.141592653589793
183,0,60,108,72,0,37.4881691520263,0.0,19.5331099848912,0.0,-1.5707963267948966,3.141592653589793
184,0,60,108,84,0,35.6066568132085,0.0,22.7919849507913,0.0,-1.5707963267948966,3.141592653589793
185,0,60,108,96,0,33.0887018289189,0.0,25.5884572681199,0.0,-1.5707963267948966,3.141592653589793
186,0,60,108,108,0,30.0443509144595,0.0,27.8003076776467,0.0,-1.5707963267948966,3.141592653589793
187,0,60,120,36,0,34.4438182375668,0.0,2.6787404246356,3.141592653589793,-1.1519173063162578,0.0
188,0,60,120,48,0,35.6066568132085,0.0,6.25758956528033,3.141592653589793,-1.3613568165555774,0.0
189,0,60,120,60,0,36.0,0.0,10.0,3.141592653589793,-1.5707963267948966,0.0
190,0,72,0,0,0,16.6869176962472,0.0,61.3570518799383,0.0,-1.5707963267948966,3.141592653589793
191,0,72,12,0,0,23.5623058987491,0.0,58.2959318295526,0.0,-1.5707963267948966,3.141592653589793
192,0,72,12,12,0,20.1246117974981,0.0,59.8264918547454,0.0,-1.5707963267948966,3.141592653589793
193,0,72,24,0,0,29.651007727668,0.0,53.872231010499,0.0,-1.5707963267948966,3.141592653589793
194,0,72,24,12,0,26.6066568132085,0.0,56.0840814200258,0.0,-1.5707963267948966,3.141592653589793
195,0,72,24,24,0,23.1689627119576,0.0,57.6146414452186,0.0,-1.5707963267948966,3.141592653589793
196,0,72,36,0,0,34.6869176962472,0.0,48.2792863758418,0.0,-1.5707963267948966,3.141592653589793
197,0,72,36,12,0,32.1689627119576,0.0,51.0757586931704,0.0,-1.5707963267948966,3.141592653589793
198,0,72,36,24,0,29.1246117974981,0.0,53.2876091026972,0.0,-1.5707963267948966,3.141592653589793
199,0,72,36,96,0,8.08026088303866,0.0,51.0757586931704,0.0,1.5707963267948966,3.141592653589793
200,0,72,48,0,0,38.4499423738827,0.0,41.7615364440416,0.0,-1.5707963267948966,3.141592653589793
201,0,72,48,12,0,36.5684300350649,0.0,45.0204114099417,0.0,-1.5707963267948966,3.141592653589793
202,0,72,48,24,0,34.0504750507753,0.0,47.8168837272703,0.0,-1.5707963267948966,3.141592653589793
203,0,72,48,36,0,31.0061241363159,0.0,50.0287341367971,0.0,-1.5707963267948966,3.141592653589793
204,0,72,48,48,0,27.5684300350649,0.0,51.5592941619899,0.0,-1.5707963267948966,3.141592653589793
205,0,72,48,108,0,9.96177322185643,0.0,47.8168837272703,0.0,1.5707963267948966,3.141592653589793
206,0,72,60,0,0,40.7756195251661,0.0,34.6038381627521,0.0,-1.5707963267948966,3.141592653589793
207,0,72,60,12,0,39.6127809495244,0.0,38.1826873033968,0.0,-1.5707963267948966,3.141592653589793
208,0,72,60,24,0,37.7312686107066,0.0,41.441562269297,0.0,-1.5707963267948966,3.141592653589793
209,0,72,60,36,0,35.213313626417,0.0,44.2380345866255,0.0,-1.5707963267948966,3.141592653589793
210,0,72,60,48,0,32.1689627119576,0.0,46.4498849961523,0.0,-1.5707963267948966,3.141592653589793
211,0,72,60,60,0,28.7312686107066,0.0,47.9804450213452,0.0,-1.5707963267948966,3.141592653589793
212,0,72,60,120,0,11.1246117974981,0.0,44.2380345866255,0.0,1.5707963267948966,3.141592653589793
213,0,72,72,0,0,41.5623058987491,0.0,27.1190172933128,3.141592653589793,-1.5707963267948966,0.0
214,0,72,72,12,0,41.1689627119576,0.0,30.8614277280324,0.0,-1.5707963267948966,3.141592653589793
215,0,72,72,24,0,40.0061241363159,0.0,34.4402768686772,0.0,-1.5707963267948966,3.141592653589793
216,0,72,72,36,0,38.1246117974981,0.0,37.6991518345773,0.0,-1.5707963267948966,3.141592653589793
217,0,72,72,48,0,35.6066568132085,0.0,40.4956241519059,0.0,-1.5707963267948966,3.141592653589793
218,0,72,72,60,0,32.5623058987491,0.0,42.7074745614327,0.0,-1.5707963267948966,3.141592653589793
219,0,72,72,72,0,29.1246117974981,0.0,44.2380345866255,0.0,-1.5707963267948966,3.141592653589793
220,0,72,84,0,0,40.7756195251661,0.0,19.6341964238734,3.141592653589793,-1.3613568165555774,0.0
221,0,72,84,12,0,41.1689627119576,0.0,23.3766068585931,3.141592653589793,-1.5707963267948966,0.0
222,0,72,84,24,0,40.7756195251661,0.0,27.1190172933128,0.0,-1.5707963267948966,3.141592653589793
223,0,72,84,36,0,39.6127809495244,0.0,30.6978664339575,0.0,-1.5707963267948966,3.141592653589793
224,0,72,84,48,0,37.7312686107066,0.0,33.9567413998576,0.0,-1.5707963267948966,3.141592653589793
225,0,72,84,60,0,35.213313626417,0.0,36.7532137171862,0.0,-1.5707963267948966,3.141592653589793
226,0,72,84,84,0,28.7312686107066,0.0,40.4956241519059,0.0,-1.5707963267948966,3.141592653589793
227,0,72,96,0,0,38.4499423738827,0.0,12.476498142584,3.141592653589793,-1.1519173063162578,0.0
228,0,72,96,12,0,39.6127809495244,0.0,16.0553472832287,3.141592653589793,-1.3613568165555765,0.0
229,0,72,96,24,0,40.0061241363159,0.0,19.7977577179484,3.141592653589793,-1.5707963267948966,0.0
230,0,72,96,36,0,39.6127809495244,0.0,23.540168152668,0.0,-1.5707963267948966,3.141592653589793
231,0,72,96,48,0,38.4499423738827,0.0,27.1190172933128,0.0,-1.5707963267948966,3.141592653589793
232,0,72,96,60,0,36.5684300350649,0.0,30.3778922592129,0.0,-1.5707963267948966,3.141592653589793
233,0,72,96,72,0,34.0504750507753,0.0,33.1743645765414,0.0,-1.5707963267948966,3.141592653589793
234,0,72,96,84,0,31.0061241363159,0.0,35.3862149860683,0.0,-1.5707963267948966,3.141592653589793
235,0,72,108,0,0,34.6869176962472,0.0,5.95874821078373,3.141592653589793,-0.9424777960769378,0.0
236,0,72,108,12,0,36.5684300350649,0.0,9.21762317668384,3.141592653589793,-1.1519173063162578,0.0
237,0,72,108,24,0,37.7312686107066,0.0,12.7964723173286,3.141592653589793,-1.3613568165555774,0.0
238,0,72,108,36,0,38.1246117974981,0.0,16.5388827520482,3.141592653589793,-1.5707963267948966,0.0
239,0,72,108,60,0,36.5684300350649,0.0,23.8601423274126,0.0,-1.5707963267948966,3.141592653589793
240,0,72,108,72,0,34.6869176962472,0.0,27.1190172933128,0.0,-1.5707963267948966,3.141592653589793
241,0,72,108,84,0,32.1689627119576,0.0,29.9154896106413,0.0,-1.5707963267948966,3.141592653589793
242,0,72,108,96,0,29.1246117974981,0.0,32.1273400201681,0.0,-1.5707963267948966,3.141592653589793
243,0,72,108,108,0,25.6869176962472,0.0,33.657900045361,0.0,-1.5707963267948966,3.141592653589793
244,0,72,120,0,0,29.651007727668,0.0,0.365803576126575,3.141592653589793,-0.7330382858376184,0.0
245,0,72,120,12,0,32.1689627119576,0.0,3.16227589345516,3.141592653589793,-0.9424777960769378,0.0
246,0,72,120,24,0,34.0504750507753,0.0,6.42115085935527,3.141592653589793,-1.1519173063162578,0.0
247,0,72,120,36,0,35.213313626417,0.0,10.0,3.141592653589793,-1.3613568165555774,0.0
248,0,72,120,48,0,35.6066568132085,0.0,13.7424104347197,0.0,-1.5707963267948966,3.141592653589793
249,0,72,120,60,0,35.213313626417,0.0,17.4848208694393,0.0,-1.5707963267948966,3.141592653589793
250,0,72,120,120,0,23.1689627119576,0.0,30.8614277280324,0.0,-1.5707963267948966,3.141592653589793
251,0,84,0,48,0,-8.28132623682392,0.0,59.1793950918509,0.0,1.5707963267948966,3.141592653589793
252,0,84,0,60,0,-10.7992812211135,0.0,56.3829227745224,0.0,1.5707963267948966,3.141592653589793
253,0,84,0,72,0,-12.6807935599313,0.0,53.1240478086222,0.0,1.5707963267948966,3.141592653589793
254,0,84,0,84,0,-13.843632135573,0.0,49.5451986679775,0.0,1.5707963267948966,3.141592653589793
255,0,84,0,108,0,-13.843632135573,0.0,42.0603777985382,3.141592653589793,1.3613568165555774,0.0
256,0,84,0,120,0,-12.6807935599313,0.0,38.4815286578934,3.141592653589793,1.1519173063162578,0.0
257,0,84,12,0,0,13.0061241363159,0.0,62.1394287032544,0.0,-1.5707963267948966,3.141592653589793
258,0,84,12,12,0,9.32533057638458,0.0,62.9218055265706,0.0,-1.5707963267948966,3.141592653589793
259,0,84,12,96,0,-10.1628385756417,0.0,48.7628218446614,0.0,1.5707963267948966,3.141592653589793
260,0,84,12,108,0,-10.5561817624332,0.0,45.0204114099417,0.0,1.5707963267948966,3.141592653589793
261,0,84,12,120,0,-10.1628385756417,0.0,41.278000975222,3.141592653589793,1.3613568165555774,0.0
262,0,84,24,0,0,19.8815123388178,0.0,59.0783086528687,0.0,-1.5707963267948966,3.141592653589793
263,0,84,24,12,0,16.4438182375668,0.0,60.6088686780616,0.0,-1.5707963267948966,3.141592653589793
264,0,84,24,24,0,12.7630246776355,0.0,61.3912455013777,0.0,-1.5707963267948966,3.141592653589793
265,0,84,36,0,0,25.9702141677367,0.0,54.6546078338151,0.0,-1.5707963267948966,3.141592653589793
266,0,84,36,12,0,22.9258632532772,0.0,56.8664582433419,0.0,-1.5707963267948966,3.141592653589793
267,0,84,36,24,0,19.4881691520263,0.0,58.3970182685348,0.0,-1.5707963267948966,3.141592653589793
268,0,84,48,0,0,31.0061241363159,0.0,49.0616631991579,0.0,-1.5707963267948966,3.141592653589793
269,0,84,48,12,0,28.4881691520263,0.0,51.8581355164865,0.0,-1.5707963267948966,3.141592653589793
270,0,84,48,24,0,25.4438182375668,0.0,54.0699859260133,0.0,-1.5707963267948966,3.141592653589793
271,0,84,48,36,0,22.0061241363159,0.0,55.6005459512062,0.0,-1.5707963267948966,3.141592653589793
272,0,84,48,48,0,18.3253305763846,0.0,56.3829227745224,0.0,-1.5707963267948966,3.141592653589793
273,0,84,60,0,0,34.7691488139514,0.0,42.5439132673577,0.0,-1.5707963267948966,3.141592653589793
274,0,84,60,12,0,32.8876364751336,0.0,45.8027882332578,0.0,-1.5707963267948966,3.141592653589793
275,0,84,60,24,0,30.369681490844,0.0,48.5992605505864,0.0,-1.5707963267948966,3.141592653589793
276,0,84,60,36,0,27.3253305763846,0.0,50.8111109601132,0.0,-1.5707963267948966,3.141592653589793
277,0,84,60,48,0,23.8876364751336,0.0,52.3416709853061,0.0,-1.5707963267948966,3.141592653589793
278,0,84,60,60,0,20.2068429152023,0.0,53.1240478086222,0.0,-1.5707963267948966,3.141592653589793
279,0,84,72,0,0,37.0948259652348,0.0,35.3862149860683,0.0,-1.5707963267948966,3.141592653589793
280,0,84,72,12,0,35.9319873895931,0.0,38.965064126713,0.0,-1.5707963267948966,3.141592653589793
281,0,84,72,24,0,34.0504750507753,0.0,42.2239390926131,0.0,-1.5707963267948966,3.141592653589793
282,0,84,72,36,0,31.5325200664857,0.0,45.0204114099417,0.0,-1.5707963267948966,3.141592653589793
283,0,84,72,48,0,28.4881691520263,0.0,47.2322618194685,0.0,-1.5707963267948966,3.141592653589793
284,0,84,72,60,0,25.0504750507753,0.0,48.7628218446614,0.0,-1.5707963267948966,3.141592653589793
285,0,84,72,72,0,21.369681490844,0.0,49.5451986679775,0.0,-1.5707963267948966,3.141592653589793
286,0,84,84,0,0,37.8815123388178,0.0,27.9013941166289,3.141592653589793,-1.5707963267948966,0.0
287,0,84,84,12,0,37.4881691520263,0.0,31.6438045513486,0.0,-1.5707963267948966,3.141592653589793
288,0,84,84,24,0,36.3253305763846,0.0,35.2226536919933,0.0,-1.5707963267948966,3.141592653589793
289,0,84,84,36,0,34.4438182375668,0.0,38.4815286578934,0.0,-1.5707963267948966,3.141592653589793
290,0,84,84,48,0,31.9258632532772,0.0,41.278000975222,0.0,-1.5707963267948966,3.141592653589793
291,0,84,84,60,0,28.8815123388178,0.0,43.4898513847488,0.0,-1.5707963267948966,3.141592653589793
292,0,84,84,84,0,21.7630246776355,0.0,45.8027882332578,0.0,-1.5707963267948966,3.141592653589793
293,0,84,96,0,0,37.0948259652348,0.0,20.4165732471896,3.141592653589793,-1.3613568165555774,0.0
294,0,84,96,12,0,37.4881691520263,0.0,24.1589836819092,3.141592653589793,-1.5707963267948966,0.0
295,0,84,96,24,0,37.0948259652348,0.0,27.9013941166289,0.0,-1.5707963267948966,3.141592653589793
296,0,84,96,36,0,35.9319873895931,0.0,31.4802432572737,0.0,-1.5707963267948966,3.141592653589793
297,0,84,96,48,0,34.0504750507753,0.0,34.7391182231738,0.0,-1.5707963267948966,3.141592653589793
298,0,84,96,60,0,31.5325200664857,0.0,37.5355905405023,0.0,-1.5707963267948966,3.141592653589793
299,0,84,96,72,0,28.4881691520263,0.0,39.7474409500291,0.0,-1.5707963267948966,3.141592653589793
300,0,84,96,84,0,25.0504750507753,0.0,41.278000975222,0.0,-1.5707963267948966,3.141592653589793
301,0,84,108,0,0,34.7691488139514,0.0,13.2588749659001,3.141592653589793,-1.1519173063162578,0.0
302,0,84,108,12,0,35.9319873895931,0.0,16.8377241065449,3.141592653589793,-1.3613568165555774,0.0
303,0,84,108,24,0,36.3253305763846,0.0,20.5801345412645,0.0,-1.5707963267948966,3.141592653589793
304,0,84,108,36,0,35.9319873895931,0.0,24.3225449759842,0.0,-1.5707963267948966,3.141592653589793
305,0,84,108,60,0,32.8876364751336,0.0,31.160269082529,0.0,-1.5707963267948966,3.141592653589793
306,0,84,108,72,0,30.369681490844,0.0,33.9567413998576,0.0,-1.5707963267948966,3.141592653589793
307,0,84,108,84,0,27.3253305763846,0.0,36.1685918093844,0.0,-1.5707963267948966,3.141592653589793
308,0,84,108,96,0,23.8876364751336,0.0,37.6991518345773,0.0,-1.5707963267948966,3.141592653589793
309,0,84,108,108,0,20.2068429152023,0.0,38.4815286578934,0.0,-1.5707963267948966,3.141592653589793
310,0,84,120,0,0,31.0061241363159,0.0,6.74112503409989,3.141592653589793,-0.9424777960769384,0.0
311,0,84,120,12,0,32.8876364751336,0.0,10.0,3.141592653589793,-1.1519173063162578,0.0
312,0,84,120,24,0,34.0504750507753,0.0,13.5788491406447,3.141592653589793,-1.3613568165555774,0.0
313,0,84,120,36,0,34.4438182375668,0.0,17.3212595753644,0.0,-1.5707963267948966,3.141592653589793
314,0,84,120,48,0,34.0504750507753,0.0,21.0636700100841,0.0,-1.5707963267948966,3.141592653589793
315,0,84,120,60,0,32.8876364751336,0.0,24.6425191507288,0.0,-1.5707963267948966,3.141592653589793
316,0,84,120,108,0,22.0061241363159,0.0,34.4402768686772,0.0,-1.5707963267948966,3.141592653589793
317,0,84,120,120,0,18.3253305763846,0.0,35.2226536919933,0.0,-1.5707963267948966,3.141592653589793
318,0,96,0,48,0,-18.3253305763846,0.0,56.3829227745224,0.0,1.5707963267948966,3.141592653589793
319,0,96,0,60,0,-20.2068429152023,0.0,53.1240478086222,0.0,1.5707963267948966,3.141592653589793
320,0,96,0,72,0,-21.369681490844,0.0,49.5451986679775,0.0,1.5707963267948966,3.141592653589793
321,0,96,0,84,0,-21.7630246776355,0.0,45.8027882332578,3.141592653589793,1.5707963267948966,0.0
322,0,96,0,108,0,-20.2068429152023,0.0,38.4815286578934,3.141592653589793,1.1519173063162578,0.0
323,0,96,0,120,0,-18.3253305763846,0.0,35.2226536919933,3.141592653589793,0.9424777960769384,0.0
324,0,96,12,48,0,-12.0443509144595,0.0,59.1793950918509,0.0,1.5707963267948966,3.141592653589793
325,0,96,12,60,0,-14.5623058987491,0.0,56.3829227745224,0.0,1.5707963267948966,3.141592653589793
326,0,96,12,72,0,-16.4438182375668,0.0,53.1240478086222,0.0,1.5707963267948966,3.141592653589793
327,0,96,12,84,0,-17.6066568132085,0.0,49.5451986679775,0.0,1.5707963267948966,3.141592653589793
328,0,96,12,96,0,-18.0,0.0,45.8027882332578,3.141592653589793,1.5707963267948966,0.0
329,0,96,12,108,0,-17.6066568132085,0.0,42.0603777985382,3.141592653589793,1.3613568165555774,0.0
330,0,96,12,120,0,-16.4438182375668,0.0,38.4815286578934,3.141592653589793,1.1519173063162578,0.0
331,0,96,24,0,0,9.24309945868034,0.0,62.1394287032545,0.0,-1.5707963267948966,3.141592653589793
332,0,96,24,60,0,-8.36355735452816,0.0,58.3970182685348,0.0,1.5707963267948966,3.141592653589793
333,0,96,24,72,0,-10.8815123388178,0.0,55.6005459512062,0.0,1.5707963267948966,3.141592653589793
334,0,96,24,84,0,-12.7630246776355,0.0,52.3416709853061,0.0,1.5707963267948966,3.141592653589793
335,0,96,24,96,0,-13.9258632532772,0.0,48.7628218446614,0.0,1.5707963267948966,3.141592653589793
336,0,96,24,108,0,-14.3192064400687,0.0,45.0204114099417,0.0,1.5707963267948966,3.141592653589793
337,0,96,24,120,0,-13.9258632532772,0.0,41.278000975222,3.141592653589793,1.3613568165555774,0.0
338,0,96,36,0,0,16.1184876611822,0.0,59.0783086528687,0.0,-1.5707963267948966,3.141592653589793
339,0,96,36,12,0,12.6807935599313,0.0,60.6088686780616,0.0,-1.5707963267948966,3.141592653589793
340,0,96,36,24,0,9.0,0.0,61.3912455013777,0.0,-1.5707963267948966,3.141592653589793
341,0,96,36,96,0,-9.32533057638458,0.0,50.8111109601132,0.0,1.5707963267948966,3.141592653589793
342,0,96,36,108,0,-10.4881691520263,0.0,47.2322618194685,0.0,1.5707963267948966,3.141592653589793
343,0,96,48,0,0,22.2071894901011,0.0,54.6546078338151,0.0,-1.5707963267948966,3.141592653589793
344,0,96,48,12,0,19.1628385756417,0.0,56.8664582433419,0.0,-1.5707963267948966,3.141592653589793
345,0,96,48,24,0,15.7251444743907,0.0,58.3970182685348,0.0,-1.5707963267948966,3.141592653589793
346,0,96,48,36,0,12.0443509144594,0.0,59.1793950918509,0.0,-1.5707963267948966,3.141592653589793
347,0,96,48,48,0,8.28132623682392,0.0,59.1793950918509,0.0,1.5707963267948966,3.141592653589793
348,0,96,60,0,0,27.2430994586803,0.0,49.061663199158,0.0,-1.5707963267948966,3.141592653589793
349,0,96,60,12,0,24.7251444743907,0.0,51.8581355164865,0.0,-1.5707963267948966,3.141592653589793
350,0,96,60,24,0,21.6807935599313,0.0,54.0699859260133,0.0,-1.5707963267948966,3.141592653589793
351,0,96,60,36,0,18.2430994586803,0.0,55.6005459512062,0.0,-1.5707963267948966,3.141592653589793
352,0,96,60,48,0,14.562305898749,0.0,56.3829227745224,0.0,-1.5707963267948966,3.141592653589793
353,0,96,60,60,0,10.7992812211135,0.0,56.3829227745224,0.0,1.5707963267948966,3.141592653589793
354,0,96,72,0,0,31.0061241363159,0.0,42.5439132673577,0.0,-1.5707963267948966,3.141592653589793
355,0,96,72,12,0,29.1246117974981,0.0,45.8027882332578,0.0,-1.5707963267948966,3.141592653589793
356,0,96,72,24,0,26.6066568132085,0.0,48.5992605505864,0.0,-1.5707963267948966,3.141592653589793
357,0,96,72,36,0,23.5623058987491,0.0,50.8111109601132,0.0,-1.5707963267948966,3.141592653589793
358,0,96,72,48,0,20.1246117974981,0.0,52.3416709853061,0.0,-1.5707963267948966,3.141592653589793
359,0,96,72,60,0,16.4438182375668,0.0,53.1240478086222,0.0,-1.5707963267948966,3.141592653589793
360,0,96,72,72,0,12.6807935599313,0.0,53.1240478086222,0.0,1.5707963267948966,3.141592653589793
361,0,96,84,0,0,33.3318012875992,0.0,35.3862149860683,0.0,-1.5707963267948966,3.141592653589793
362,0,96,84,12,0,32.1689627119576,0.0,38.965064126713,0.0,-1.5707963267948966,3.141592653589793
363,0,96,84,24,0,30.2874503731398,0.0,42.2239390926131,0.0,-1.5707963267948966,3.141592653589793
364,0,96,84,36,0,27.7694953888502,0.0,45.0204114099417,0.0,-1.5707963267948966,3.141592653589793
365,0,96,84,48,0,24.7251444743907,0.0,47.2322618194685,0.0,-1.5707963267948966,3.141592653589793
366,0,96,84,60,0,21.2874503731398,0.0,48.7628218446614,0.0,-1.5707963267948966,3.141592653589793
367,0,96,84,84,0,13.843632135573,0.0,49.5451986679775,0.0,1.5707963267948966,3.141592653589793
368,0,96,96,0,0,34.1184876611822,0.0,27.9013941166289,3.141592653589793,-1.5707963267948966,0.0
369,0,96,96,12,0,33.7251444743907,0.0,31.6438045513486,0.0,-1.5707963267948966,3.141592653589793
370,0,96,96,24,0,32.5623058987491,0.0,35.2226536919933,0.0,-1.5707963267948966,3.141592653589793
371,0,96,96,36,0,30.6807935599313,0.0,38.4815286578934,0.0,-1.5707963267948966,3.141592653589793
372,0,96,96,48,0,28.1628385756417,0.0,41.278000975222,0.0,-1.5707963267948966,3.141592653589793
373,0,96,96,60,0,25.1184876611822,0.0,43.4898513847488,0.0,-1.5707963267948966,3.141592653589793
374,0,96,96,72,0,21.6807935599313,0.0,45.0204114099417,0.0,-1.5707963267948966,3.141592653589793
375,0,96,96,84,0,18.0,0.0,45.8027882332578,0.0,-1.5707963267948966,3.141592653589793
376,0,96,108,0,0,33.3318012875992,0.0,20.4165732471896,3.141592653589793,-1.3613568165555774,0.0
377,0,96,108,12,0,33.7251444743907,0.0,24.1589836819093,0.0,-1.5707963267948966,3.141592653589793
378,0,96,108,24,0,33.3318012875992,0.0,27.9013941166289,0.0,-1.5707963267948966,3.141592653589793
379,0,96,108,36,0,32.1689627119576,0.0,31.4802432572737,0.0,-1.5707963267948966,3.141592653589793
380,0,96,108,60,0,27.7694953888502,0.0,37.5355905405023,0.0,-1.5707963267948966,3.141592653589793
381,0,96,108,72,0,24.7251444743907,0.0,39.7474409500292,0.0,-1.5707963267948966,3.141592653589793
382,0,96,108,84,0,21.2874503731398,0.0,41.278000975222,0.0,-1.5707963267948966,3.141592653589793
383,0,96,108,96,0,17.6066568132085,0.0,42.0603777985382,0.0,-1.5707963267948966,3.141592653589793
384,0,96,108,108,0,13.843632135573,0.0,42.0603777985382,0.0,1.5707963267948966,3.141592653589793
385,0,96,120,0,0,31.0061241363159,0.0,13.2588749659001,3.141592653589793,-1.1519173063162578,0.0
386,0,96,120,12,0,32.1689627119576,0.0,16.8377241065449,3.141592653589793,-1.3613568165555774,0.0
387,0,96,120,24,0,32.5623058987491,0.0,20.5801345412645,0.0,-1.5707963267948966,3.141592653589793
388,0,96,120,36,0,32.1689627119576,0.0,24.3225449759842,0.0,-1.5707963267948966,3.141592653589793
389,0,96,120,48,0,31.0061241363159,0.0,27.9013941166289,0.0,-1.5707963267948966,3.141592653589793
390,0,96,120,60,0,29.1246117974981,0.0,31.160269082529,0.0,-1.5707963267948966,3.141592653589793
391,0,96,120,96,0,20.1246117974981,0.0,37.6991518345773,0.0,-1.5707963267948966,3.141592653589793
392,0,96,120,108,0,16.4438182375668,0.0,38.4815286578934,0.0,-1.5707963267948966,3.141592653589793
393,0,96,120,120,0,12.6807935599313,0.0,38.4815286578934,0.0,1.5707963267948966,3.141592653589793
394,0,108,0,0,0,-16.6869176962472,0.0,61.3570518799383,0.0,1.5707963267948966,3.141592653589793
395,0,108,0,24,0,-23.1689627119576,0.0,57.6146414452186,0.0,1.5707963267948966,3.141592653589793
396,0,108,0,36,0,-25.6869176962472,0.0,54.81816912789,0.0,1.5707963267948966,3.141592653589793
397,0,108,0,48,0,-27.5684300350649,0.0,51.5592941619899,0.0,1.5707963267948966,3.141592653589793
398,0,108,0,60,0,-28.7312686107066,0.0,47.9804450213452,0.0,1.5707963267948966,3.141592653589793
399,0,108,0,72,0,-29.1246117974981,0.0,44.2380345866255,0.0,1.5707963267948966,3.141592653589793
400,0,108,0,84,0,-28.7312686107066,0.0,40.4956241519059,3.141592653589793,1.3613568165555774,0.0
401,0,108,0,96,0,-27.5684300350649,0.0,36.9167750112611,3.141592653589793,1.1519173063162578,0.0
402,0,108,0,108,0,-25.6869176962472,0.0,33.657900045361,3.141592653589793,0.9424777960769384,0.0
403,0,108,0,120,0,-23.1689627119576,0.0,30.8614277280324,3.141592653589793,0.7330382858376184,0.0
404,0,108,12,0,0,-9.32533057638457,0.0,62.9218055265706,0.0,1.5707963267948966,3.141592653589793
405,0,108,12,12,0,-13.0061241363159,0.0,62.1394287032545,0.0,1.5707963267948966,3.141592653589793
406,0,108,12,36,0,-19.4881691520263,0.0,58.3970182685348,0.0,1.5707963267948966,3.141592653589793
407,0,108,12,48,0,-22.0061241363159,0.0,55.6005459512062,0.0,1.5707963267948966,3.141592653589793
408,0,108,12,60,0,-23.8876364751336,0.0,52.3416709853061,0.0,1.5707963267948966,3.141592653589793
409,0,108,12,72,0,-25.0504750507753,0.0,48.7628218446614,0.0,1.5707963267948966,3.141592653589793
410,0,108,12,84,0,-25.4438182375668,0.0,45.0204114099417,0.0,1.5707963267948966,3.141592653589793
411,0,108,12,96,0,-25.0504750507753,0.0,41.278000975222,3.141592653589793,1.3613568165555774,0.0
412,0,108,12,108,0,-23.8876364751336,0.0,37.6991518345773,3.141592653589793,1.1519173063162578,0.0
413,0,108,12,120,0,-22.0061241363159,0.0,34.4402768686772,3.141592653589793,0.9424777960769384,0.0
414,0,108,24,24,0,-9.24309945868034,0.0,62.1394287032545,0.0,1.5707963267948966,3.141592653589793
415,0,108,24,48,0,-15.7251444743907,0.0,58.3970182685348,0.0,1.5707963267948966,3.141592653589793
416,0,108,24,60,0,-18.2430994586803,0.0,55.6005459512062,0.0,1.5707963267948966,3.141592653589793
417,0,108,24,72,0,-20.1246117974981,0.0,52.3416709853061,0.0,1.5707963267948966,3.141592653589793
418,0,108,24,84,0,-21.2874503731398,0.0,48.7628218446614,0.0,1.5707963267948966,3.141592653589793
419,0,108,24,96,0,-21.6807935599313,0.0,45.0204114099417,0.0,1.5707963267948966,3.141592653589793
420,0,108,24,108,0,-21.2874503731398,0.0,41.278000975222,3.141592653589793,1.3613568165555774,0.0
421,0,108,24,120,0,-20.1246117974981,0.0,37.6991518345773,3.141592653589793,1.1519173063162578,0.0
422,0,108,36,60,0,-12.0443509144594,0.0,57.6146414452186,0.0,1.5707963267948966,3.141592653589793
423,0,108,36,72,0,-14.5623058987491,0.0,54.81816912789,0.0,1.5707963267948966,3.141592653589793
424,0,108,36,84,0,-16.4438182375668,0.0,51.5592941619899,0.0,1.5707963267948966,3.141592653589793
425,0,108,36,96,0,-17.6066568132085,0.0,47.9804450213452,0.0,1.5707963267948966,3.141592653589793
426,0,108,36,108,0,-18.0,0.0,44.2380345866255,0.0,1.5707963267948966,3.141592653589793
427,0,108,36,120,0,-17.6066568132085,0.0,40.4956241519059,3.141592653589793,1.3613568165555774,0.0
428,0,108,48,0,0,12.437694101251,0.0,58.2959318295526,0.0,-1.5707963267948966,3.141592653589793
429,0,108,48,12,0,9.00000000000001,0.0,59.8264918547454,0.0,-1.5707963267948966,3.141592653589793
430,0,108,48,72,0,-8.6066568132085,0.0,56.0840814200258,0.0,1.5707963267948966,3.141592653589793
431,0,108,48,84,0,-11.1246117974981,0.0,53.2876091026972,0.0,1.5707963267948966,3.141592653589793
432,0,108,48,96,0,-13.0061241363159,0.0,50.0287341367971,0.0,1.5707963267948966,3.141592653589793
433,0,108,48,108,0,-14.1689627119576,0.0,46.4498849961523,0.0,1.5707963267948966,3.141592653589793
434,0,108,60,0,0,18.5263959301698,0.0,53.872231010499,0.0,-1.5707963267948966,3.141592653589793
435,0,108,60,12,0,15.4820450157104,0.0,56.0840814200258,0.0,-1.5707963267948966,3.141592653589793
436,0,108,60,24,0,12.0443509144594,0.0,57.6146414452186,0.0,-1.5707963267948966,3.141592653589793
437,0,108,60,36,0,8.36355735452816,0.0,58.3970182685348,0.0,-1.5707963267948966,3.141592653589793
438,0,108,60,96,0,-8.08026088303866,0.0,51.0757586931704,0.0,1.5707963267948966,3.141592653589793
439,0,108,60,108,0,-9.96177322185642,0.0,47.8168837272703,0.0,1.5707963267948966,3.141592653589793
440,0,108,60,120,0,-11.1246117974981,0.0,44.2380345866255,0.0,1.5707963267948966,3.141592653589793
441,0,108,72,0,0,23.5623058987491,0.0,48.2792863758418,0.0,-1.5707963267948966,3.141592653589793
442,0,108,72,12,0,21.0443509144595,0.0,51.0757586931704,0.0,-1.5707963267948966,3.141592653589793
443,0,108,72,24,0,18.0,0.0,53.2876091026972,0.0,-1.5707963267948966,3.141592653589793
444,0,108,72,36,0,14.5623058987491,0.0,54.81816912789,0.0,-1.5707963267948966,3.141592653589793
445,0,108,72,48,0,10.8815123388178,0.0,55.6005459512062,0.0,-1.5707963267948966,3.141592653589793
446,0,108,84,0,0,27.3253305763846,0.0,41.7615364440416,0.0,-1.5707963267948966,3.141592653589793
447,0,108,84,12,0,25.4438182375668,0.0,45.0204114099417,0.0,-1.5707963267948966,3.141592653589793
448,0,108,84,24,0,22.9258632532772,0.0,47.8168837272703,0.0,-1.5707963267948966,3.141592653589793
449,0,108,84,36,0,19.8815123388178,0.0,50.0287341367971,0.0,-1.5707963267948966,3.141592653589793
450,0,108,84,48,0,16.4438182375668,0.0,51.5592941619899,0.0,-1.5707963267948966,3.141592653589793
451,0,108,84,60,0,12.7630246776355,0.0,52.3416709853061,0.0,-1.5707963267948966,3.141592653589793
452,0,108,84,72,0,9.00000000000001,0.0,52.3416709853061,0.0,1.5707963267948966,3.141592653589793
453,0,108,96,0,0,29.651007727668,0.0,34.6038381627521,0.0,-1.5707963267948966,3.141592653589793
454,0,108,96,12,0,28.4881691520263,0.0,38.1826873033968,0.0,-1.5707963267948966,3.141592653589793
455,0,108,96,24,0,26.6066568132085,0.0,41.4415622692969,0.0,-1.5707963267948966,3.141592653589793
456,0,108,96,36,0,24.0887018289189,0.0,44.2380345866255,0.0,-1.5707963267948966,3.141592653589793
457,0,108,96,48,0,21.0443509144595,0.0,46.4498849961523,0.0,-1.5707963267948966,3.141592653589793
458,0,108,96,60,0,17.6066568132085,0.0,47.9804450213452,0.0,-1.5707963267948966,3.141592653589793
459,0,108,96,72,0,13.9258632532772,0.0,48.7628218446613,0.0,-1.5707963267948966,3.141592653589793
460,0,108,96,84,0,10.1628385756417,0.0,48.7628218446614,0.0,1.5707963267948966,3.141592653589793
461,0,108,108,0,0,30.4376941012509,0.0,27.1190172933128,3.141592653589793,-1.5707963267948966,0.0
462,0,108,108,12,0,30.0443509144595,0.0,30.8614277280324,0.0,-1.5707963267948966,3.141592653589793
463,0,108,108,24,0,28.8815123388178,0.0,34.4402768686772,0.0,-1.5707963267948966,3.141592653589793
464,0,108,108,36,0,27.0,0.0,37.6991518345773,0.0,-1.5707963267948966,3.141592653589793
465,0,108,108,60,0,21.437694101251,0.0,42.7074745614327,0.0,-1.5707963267948966,3.141592653589793
466,0,108,108,72,0,18.0,0.0,44.2380345866255,0.0,-1.5707963267948966,3.141592653589793
467,0,108,108,84,0,14.3192064400687,0.0,45.0204114099417,0.0,-1.5707963267948966,3.141592653589793
468,0,108,108,96,0,10.5561817624332,0.0,45.0204114099417,0.0,1.5707963267948966,3.141592653589793
469,0,108,120,0,0,29.651007727668,0.0,19.6341964238734,3.141592653589793,-1.3613568165555774,0.0
470,0,108,120,12,0,30.0443509144595,0.0,23.3766068585931,0.0,-1.5707963267948966,3.141592653589793
471,0,108,120,24,0,29.651007727668,0.0,27.1190172933128,0.0,-1.5707963267948966,3.141592653589793
472,0,108,120,36,0,28.4881691520263,0.0,30.6978664339575,0.0,-1.5707963267948966,3.141592653589793
473,0,108,120,48,0,26.6066568132085,0.0,33.9567413998576,0.0,-1.5707963267948966,3.141592653589793
474,0,108,120,60,0,24.0887018289189,0.0,36.7532137171862,0.0,-1.5707963267948966,3.141592653589793
475,0,108,120,84,0,17.6066568132085,0.0,40.4956241519059,0.0,-1.5707963267948966,3.141592653589793
476,0,108,120,96,0,13.9258632532772,0.0,41.278000975222,0.0,-1.5707963267948966,3.141592653589793
477,0,108,120,108,0,10.1628385756417,0.0,41.278000975222,0.0,1.5707963267948966,3.141592653589793
478,0,120,0,0,0,-27.0,0.0,56.7653718043597,0.0,1.5707963267948966,3.141592653589793
479,0,120,0,12,0,-30.0443509144594,0.0,54.5535213948329,0.0,1.5707963267948966,3.141592653589793
480,0,120,0,24,0,-32.562305898749,0.0,51.7570490775043,0.0,1.5707963267948966,3.141592653589793
481,0,120,0,36,0,-34.4438182375668,0.0,48.4981741116042,0.0,1.5707963267948966,3.141592653589793
482,0,120,0,48,0,-35.6066568132085,0.0,44.9193249709595,0.0,1.5707963267948966,3.141592653589793
483,0,120,0,60,0,-36.0,0.0,41.1769145362398,0.0,1.5707963267948966,3.141592653589793
484,0,120,0,72,0,-35.6066568132085,0.0,37.4345041015201,3.141592653589793,1.3613568165555774,0.0
485,0,120,0,84,0,-34.4438182375668,0.0,33.8556549608754,3.141592653589793,1.1519173063162578,0.0
486,0,120,0,96,0,-32.562305898749,0.0,30.5967799949753,3.141592653589793,0.9424777960769384,0.0
487,0,120,0,108,0,-30.0443509144594,0.0,27.8003076776467,3.141592653589793,0.7330382858376184,0.0
488,0,120,0,120,0,-27.0,0.0,25.5884572681199,3.141592653589793,0.5235987755982991,0.0
489,0,120,12,0,0,-20.1246117974981,0.0,59.8264918547454,0.0,1.5707963267948966,3.141592653589793
490,0,120,12,12,0,-23.562305898749,0.0,58.2959318295526,0.0,1.5707963267948966,3.141592653589793
491,0,120,12,24,0,-26.6066568132085,0.0,56.0840814200258,0.0,1.5707963267948966,3.141592653589793
492,0,120,12,36,0,-29.1246117974981,0.0,53.2876091026972,0.0,1.5707963267948966,3.141592653589793
493,0,120,12,48,0,-31.0061241363159,0.0,50.0287341367971,0.0,1.5707963267948966,3.141592653589793
494,0,120,12,60,0,-32.1689627119575,0.0,46.4498849961523,0.0,1.5707963267948966,3.141592653589793
495,0,120,12,72,0,-32.562305898749,0.0,42.7074745614327,0.0,1.5707963267948966,3.141592653589793
496,0,120,12,84,0,-32.1689627119575,0.0,38.965064126713,3.141592653589793,1.3613568165555774,0.0
497,0,120,12,96,0,-31.0061241363159,0.0,35.3862149860683,3.141592653589793,1.1519173063162578,0.0
498,0,120,12,108,0,-29.1246117974981,0.0,32.1273400201682,3.141592653589793,0.9424777960769384,0.0
499,0,120,12,120,0,-26.6066568132085,0.0,29.3308677028396,3.141592653589793,0.7330382858376192,0.0
500,0,120,24,0,0,-12.7630246776355,0.0,61.3912455013777,0.0,1.5707963267948966,3.141592653589793
501,0,120,24,12,0,-16.4438182375668,0.0,60.6088686780616,0.0,1.5707963267948966,3.141592653589793
502,0,120,24,24,0,-19.8815123388177,0.0,59.0783086528687,0.0,1.5707963267948966,3.141592653589793
503,0,120,24,36,0,-22.9258632532772,0.0,56.8664582433419,0.0,1.5707963267948966,3.141592653589793
504,0,120,24,48,0,-25.4438182375668,0.0,54.0699859260133,0.0,1.5707963267948966,3.141592653589793
505,0,120,24,60,0,-27.3253305763846,0.0,50.8111109601132,0.0,1.5707963267948966,3.141592653589793
506,0,120,24,72,0,-28.4881691520263,0.0,47.2322618194685,0.0,1.5707963267948966,3.141592653589793
507,0,120,24,84,0,-28.8815123388178,0.0,43.4898513847488,0.0,1.5707963267948966,3.141592653589793
508,0,120,24,96,0,-28.4881691520263,0.0,39.7474409500292,3.141592653589793,1.3613568165555774,0.0
509,0,120,24,108,0,-27.3253305763846,0.0,36.1685918093844,3.141592653589793,1.1519173063162578,0.0
510,0,120,24,120,0,-25.4438182375668,0.0,32.9097168434843,3.141592653589793,0.9424777960769384,0.0
511,0,120,36,12,0,-8.99999999999999,0.0,61.3912455013777,0.0,1.5707963267948966,3.141592653589793
512,0,120,36,24,0,-12.6807935599313,0.0,60.6088686780616,0.0,1.5707963267948966,3.141592653589793
513,0,120,36,36,0,-16.1184876611822,0.0,59.0783086528687,0.0,1.5707963267948966,3.141592653589793
514,0,120,36,48,0,-19.1628385756417,0.0,56.8664582433419,0.0,1.5707963267948966,3.141592653589793
515,0,120,36,60,0,-21.6807935599313,0.0,54.0699859260133,0.0,1.5707963267948966,3.141592653589793
516,0,120,36,72,0,-23.562305898749,0.0,50.8111109601132,0.0,1.5707963267948966,3.141592653589793
517,0,120,36,84,0,-24.7251444743907,0.0,47.2322618194685,0.0,1.5707963267948966,3.141592653589793
518,0,120,36,96,0,-25.1184876611822,0.0,43.4898513847488,0.0,1.5707963267948966,3.141592653589793
519,0,120,36,108,0,-24.7251444743907,0.0,39.7474409500292,3.141592653589793,1.3613568165555774,0.0
520,0,120,36,120,0,-23.562305898749,0.0,36.1685918093844,3.141592653589793,1.1519173063162578,0.0
521,0,120,48,36,0,-8.99999999999999,0.0,59.8264918547454,0.0,1.5707963267948966,3.141592653589793
522,0,120,48,48,0,-12.4376941012509,0.0,58.2959318295526,0.0,1.5707963267948966,3.141592653589793
523,0,120,48,60,0,-15.4820450157104,0.0,56.0840814200258,0.0,1.5707963267948966,3.141592653589793
524,0,120,48,72,0,-18.0,0.0,53.2876091026972,0.0,1.5707963267948966,3.141592653589793
525,0,120,48,84,0,-19.8815123388178,0.0,50.0287341367971,0.0,1.5707963267948966,3.141592653589793
526,0,120,48,96,0,-21.0443509144594,0.0,46.4498849961523,0.0,1.5707963267948966,3.141592653589793
527,0,120,48,108,0,-21.4376941012509,0.0,42.7074745614327,0.0,1.5707963267948966,3.141592653589793
528,0,120,48,120,0,-21.0443509144594,0.0,38.965064126713,3.141592653589793,1.3613568165555774,0.0
529,0,120,60,0,0,9.00000000000001,0.0,56.7653718043597,0.0,-1.5707963267948966,3.141592653589793
530,0,120,60,60,0,-8.99999999999999,0.0,56.7653718043597,0.0,1.5707963267948966,3.141592653589793
531,0,120,60,72,0,-12.0443509144594,0.0,54.5535213948329,0.0,1.5707963267948966,3.141592653589793
532,0,120,60,84,0,-14.562305898749,0.0,51.7570490775043,0.0,1.5707963267948966,3.141592653589793
533,0,120,60,96,0,-16.4438182375668,0.0,48.4981741116042,0.0,1.5707963267948966,3.141592653589793
534,0,120,60,108,0,-17.6066568132085,0.0,44.9193249709595,0.0,1.5707963267948966,3.141592653589793
535,0,120,60,120,0,-18.0,0.0,41.1769145362398,0.0,1.5707963267948966,3.141592653589793
536,0,120,72,0,0,15.0887018289189,0.0,52.3416709853061,0.0,-1.5707963267948966,3.141592653589793
537,0,120,72,12,0,12.0443509144595,0.0,54.5535213948329,0.0,-1.5707963267948966,3.141592653589793
538,0,120,72,24,0,8.60665681320851,0.0,56.0840814200258,0.0,-1.5707963267948966,3.141592653589793
539,0,120,72,84,0,-8.99999999999999,0.0,52.3416709853061,0.0,1.5707963267948966,3.141592653589793
540,0,120,72,96,0,-11.5179549842896,0.0,49.5451986679775,0.0,1.5707963267948966,3.141592653589793
541,0,120,72,108,0,-13.3994673231074,0.0,46.2863237020774,0.0,1.5707963267948966,3.141592653589793
542,0,120,72,120,0,-14.562305898749,0.0,42.7074745614327,0.0,1.5707963267948966,3.141592653589793
543,0,120,84,0,0,20.1246117974981,0.0,46.7487263506489,0.0,-1.5707963267948966,3.141592653589793
544,0,120,84,12,0,17.6066568132085,0.0,49.5451986679775,0.0,-1.5707963267948966,3.141592653589793
545,0,120,84,24,0,14.5623058987491,0.0,51.7570490775043,0.0,-1.5707963267948966,3.141592653589793
546,0,120,84,36,0,11.1246117974981,0.0,53.2876091026972,0.0,-1.5707963267948966,3.141592653589793
547,0,120,84,108,0,-8.99999999999999,0.0,46.7487263506489,0.0,1.5707963267948966,3.141592653589793
548,0,120,84,120,0,-10.8815123388178,0.0,43.4898513847488,0.0,1.5707963267948966,3.141592653589793
549,0,120,96,0,0,23.8876364751336,0.0,40.2309764188487,0.0,-1.5707963267948966,3.141592653589793
550,0,120,96,12,0,22.0061241363159,0.0,43.4898513847488,0.0,-1.5707963267948966,3.141592653589793
551,0,120,96,24,0,19.4881691520263,0.0,46.2863237020774,0.0,-1.5707963267948966,3.141592653589793
552,0,120,96,36,0,16.4438182375668,0.0,48.4981741116042,0.0,-1.5707963267948966,3.141592653589793
553,0,120,96,48,0,13.0061241363159,0.0,50.0287341367971,0.0,-1.5707963267948966,3.141592653589793
554,0,120,96,60,0,9.32533057638459,0.0,50.8111109601132,0.0,-1.5707963267948966,3.141592653589793
555,0,120,108,0,0,26.213313626417,0.0,33.0732781375592,0.0,-1.5707963267948966,3.141592653589793
556,0,120,108,12,0,25.0504750507753,0.0,36.652127278204,0.0,-1.5707963267948966,3.141592653589793
557,0,120,108,24,0,23.1689627119576,0.0,39.9110022441041,0.0,-1.5707963267948966,3.141592653589793
558,0,120,108,36,0,20.651007727668,0.0,42.7074745614327,0.0,-1.5707963267948966,3.141592653589793
559,0,120,108,48,0,17.6066568132085,0.0,44.9193249709595,0.0,-1.5707963267948966,3.141592653589793
560,0,120,108,60,0,14.1689627119576,0.0,46.4498849961523,0.0,-1.5707963267948966,3.141592653589793
561,0,120,108,72,0,10.4881691520263,0.0,47.2322618194685,0.0,-1.5707963267948966,3.141592653589793
562,0,120,120,0,0,27.0,0.0,25.5884572681199,3.141592653589793,-1.5707963267948966,0.0
563,0,120,120,12,0,26.6066568132085,0.0,29.3308677028396,0.0,-1.5707963267948966,3.141592653589793
564,0,120,120,24,0,25.4438182375668,0.0,32.9097168434843,0.0,-1.5707963267948966,3.141592653589793
565,0,120,120,36,0,23.5623058987491,0.0,36.1685918093844,0.0,-1.5707963267948966,3.141592653589793
566,0,120,120,48,0,21.0443509144595,0.0,38.965064126713,0.0,-1.5707963267948966,3.141592653589793
567,0,120,120,60,0,18.0,0.0,41.1769145362398,0.0,-1.5707963267948966,3.141592653589793
568,0,120,120,72,0,14.5623058987491,0.0,42.7074745614327,0.0,-1.5707963267948966,3.141592653589793
569,0,120,120,84,0,10.8815123388178,0.0,43.4898513847488,0.0,-1.5707963267948966,3.141592653589793
570,5,0,0,0,0,53.7945136969543,4.70641010837354,10.0,3.141592653589793,-1.5707963267948966,0.08726646259971654
571,5,0,12,0,0,53.0108209025299,4.63784587317445,2.51517913056066,3.141592653589793,-1.3613568165555772,0.08726646259971664
572,5,0,12,12,0,53.4026672997421,4.672127990774,6.25758956528033,3.141592653589793,-1.5707963267948966,0.08726646259971654
573,5,0,24,24,0,52.2442536759512,4.57077993101832,2.67874042463559,3.141592653589793,-1.5707963267948966,0.08726646259971654
574,5,12,0,0,0,52.6189745053177,4.60356375557491,21.227231304159,0.0,-1.361356816555577,-3.0543261909900767
575,5,12,12,0,0,53.4026672997421,4.672127990774,13.7424104347197,3.141592653589793,-1.5707963267948966,0.08726646259971654
576,5,12,12,12,0,53.0108209025299,4.63784587317445,17.4848208694393,0.0,-1.361356816555577,-3.0543261909900767
577,5,12,24,0,0,52.6189745053177,4.60356375557491,6.25758956528033,3.141592653589793,-1.3613568165555772,0.08726646259971664
578,5,12,24,12,0,53.0108209025299,4.63784587317445,10.0,3.141592653589793,-1.5707963267948966,0.08726646259971654
579,5,12,24,24,0,52.6189745053177,4.60356375557491,13.7424104347197,0.0,-1.361356816555577,-3.0543261909900767
580,5,12,36,12,0,51.4605608815268,4.50221569581923,2.6787404246356,3.141592653589793,-1.3613568165555772,0.08726646259971664
581,5,12,36,24,0,51.8524072787391,4.53649781341877,6.42115085935527,3.141592653589793,-1.5707963267948966,0.08726646259971657
582,5,12,48,36,0,49.9780546624146,4.37251320804023,3.16227589345515,3.141592653589793,-1.5707963267948966,0.08726646259971622
583,5,12,48,48,0,49.5862082652024,4.33823109044068,6.90468632817482,0.0,-1.361356816555577,-3.0543261909900767
584,5,12,60,48,0,47.4696812570316,4.1530589711793,0.365803576126575,0.0,-1.5707963267948966,-3.0543261909900763
585,5,12,60,60,0,47.0778348598194,4.11877685357976,4.10821401084624,0.0,-1.361356816555577,-3.0543261909900767
586,5,24,0,0,0,49.1437336339452,4.29951957630787,31.9637787260932,0.0,-1.1519173063162578,-3.0543261909900767
587,5,24,0,108,0,20.7639705663559,1.8166120343421,38.0191260093219,0.0,0.7330382858376184,-3.0543261909900767
588,5,24,12,0,0,51.4605608815268,4.50221569581923,24.8060804448037,0.0,-1.361356816555577,-3.0543261909900767
589,5,24,12,12,0,50.302147257736,4.40086763606355,28.3849295854485,0.0,-1.1519173063162578,-3.0543261909900767
590,5,24,24,0,0,52.2442536759512,4.57077993101832,17.3212595753644,3.141592653589793,-1.5707963267948966,0.08726646259971654
591,5,24,24,12,0,51.8524072787391,4.53649781341877,21.0636700100841,0.0,-1.361356816555577,-3.0543261909900767
592,5,24,24,24,0,50.6939936549482,4.43514975366309,24.6425191507288,0.0,-1.1519173063162578,-3.0543261909900767
593,5,24,36,0,0,51.4605608815268,4.50221569581923,9.83643870592507,3.141592653589793,-1.3613568165555772,0.08726646259971664
594,5,24,36,12,0,51.8524072787391,4.53649781341877,13.5788491406447,3.141592653589793,-1.5707963267948966,0.08726646259971657
595,5,24,36,24,0,51.4605608815268,4.50221569581923,17.3212595753644,0.0,-1.361356816555577,-3.0543261909900767
596,5,24,48,0,0,49.1437336339452,4.29951957630787,2.6787404246356,3.141592653589793,-1.1519173063162573,0.08726646259971642
597,5,24,48,12,0,50.302147257736,4.40086763606355,6.25758956528033,3.141592653589793,-1.3613568165555772,0.08726646259971664
598,5,24,48,24,0,50.6939936549482,4.43514975366309,10.0,3.141592653589793,-1.5707963267948966,0.08726646259971654
599,5,24,48,36,0,50.302147257736,4.40086763606355,13.7424104347197,0.0,-1.361356816555577,-3.0543261909900767
600,5,24,48,48,0,49.1437336339452,4.29951957630787,17.3212595753644,0.0,-1.1519173063162578,-3.0543261909900767
601,5,24,60,24,0,48.4277946414116,4.236883030685,2.99871459938022,3.141592653589793,-1.3613568165555772,0.08726646259971664
602,5,24,60,36,0,48.8196410386238,4.27116514828455,6.74112503409989,0.0,-1.5707963267948966,-3.0543261909900767
603,5,24,60,48,0,48.4277946414116,4.236883030685,10.4835354688196,0.0,-1.361356816555577,-3.0543261909900767
604,5,24,60,60,0,47.2693810176208,4.13553497092932,14.0623846094643,0.0,-1.1519173063162578,-3.0543261909900767
605,5,24,72,36,0,45.9194212360286,4.01742879382408,0.20224228205164,3.141592653589793,-1.3613568165555772,0.08726646259971664
606,5,24,72,48,0,46.3112676332408,4.05171091142362,3.94465271677131,0.0,-1.5707963267948966,-3.0543261909900767
607,5,24,72,60,0,45.9194212360286,4.01742879382408,7.68706315149097,0.0,-1.361356816555577,-3.0543261909900767
608,5,24,72,72,0,44.7610076122378,3.9160807340684,11.2659122921357,0.0,-1.1519173063162578,-3.0543261909900767
609,5,24,84,60,0,43.2785013931255,3.78637824628939,1.73280230724451,3.141592653589793,-1.5707963267948966,0.08726646259971663
610,5,24,84,84,0,41.7282413721225,3.65074806893417,9.05406188260891,0.0,-1.1519173063162578,-3.0543261909900767
611,5,24,96,72,0,39.8538887557981,3.48676346355562,0.202242282051636,3.141592653589793,-1.5707963267948966,0.08726646259971663
612,5,24,96,84,0,39.4620423585859,3.45248134595608,3.94465271677131,0.0,-1.361356816555577,-3.0543261909900767
613,5,36,0,0,0,43.5206757849719,3.80756576017223,41.7404036237935,0.0,-0.9424777960769383,-3.0543261909900767
614,5,36,0,108,0,14.506891928324,1.26918858672408,41.7404036237936,0.0,0.9424777960769373,-3.0543261909900767
615,5,36,12,0,0,47.2693810176208,4.13553497092932,35.2226536919933,0.0,-1.1519173063162578,-3.0543261909900767
616,5,36,12,12,0,45.3950284012963,3.97155036555078,38.4815286578934,0.0,-0.9424777960769383,-3.0543261909900767
617,5,36,12,108,0,18.8896179500314,1.65262742896355,41.278000975222,0.0,0.7330382858376184,-3.0543261909900767
618,5,36,24,0,0,49.5862082652024,4.33823109044068,28.0649554107038,0.0,-1.361356816555577,-3.0543261909900767
619,5,36,24,12,0,48.4277946414116,4.236883030685,31.6438045513486,0.0,-1.1519173063162578,-3.0543261909900767
620,5,36,24,24,0,46.5534420250871,4.07289842530646,34.9026795172487,0.0,-0.9424777960769383,-3.0543261909900767
621,5,36,36,0,0,50.3699010596268,4.40679532563977,20.5801345412645,3.141592653589793,-1.5707963267948966,0.08726646259971654
622,5,36,36,12,0,49.9780546624146,4.37251320804023,24.3225449759842,0.0,-1.361356816555577,-3.0543261909900767
623,5,36,36,24,0,48.8196410386238,4.27116514828455,27.9013941166289,0.0,-1.1519173063162578,-3.0543261909900767
624,5,36,48,0,0,49.5862082652024,4.33823109044068,13.0953136718252,3.141592653589793,-1.3613568165555772,0.08726646259971664
625,5,36,48,12,0,49.9780546624146,4.37251320804023,16.8377241065448,3.141592653589793,-1.5707963267948966,0.08726646259971622
626,5,36,48,24,0,49.5862082652024,4.33823109044068,20.5801345412645,0.0,-1.361356816555577,-3.0543261909900767
627,5,36,48,36,0,48.4277946414116,4.236883030685,24.1589836819092,0.0,-1.1519173063162578,-3.0543261909900767
628,5,36,48,48,0,46.5534420250871,4.07289842530646,27.4178586478094,0.0,-0.9424777960769383,-3.0543261909900767
629,5,36,60,0,0,47.2693810176208,4.13553497092932,5.93761539053571,3.141592653589793,-1.1519173063162573,0.08726646259971642
630,5,36,60,12,0,48.4277946414116,4.236883030685,9.51646453118045,3.141592653589793,-1.3613568165555772,0.08726646259971664
631,5,36,60,24,0,48.8196410386238,4.27116514828455,13.2588749659001,0.0,-1.5707963267948966,-3.0543261909900767
632,5,36,60,36,0,48.4277946414116,4.236883030685,17.0012854006198,0.0,-1.361356816555577,-3.0543261909900767
633,5,36,60,48,0,47.2693810176208,4.13553497092932,20.5801345412645,0.0,-1.1519173063162578,-3.0543261909900767
634,5,36,60,60,0,45.3950284012963,3.97155036555078,23.8390095071646,0.0,-0.9424777960769383,-3.0543261909900767
635,5,36,72,12,0,45.3950284012963,3.97155036555078,2.6787404246356,3.141592653589793,-1.1519173063162573,0.08726646259971642
636,5,36,72,24,0,46.5534420250871,4.07289842530646,6.25758956528033,3.141592653589793,-1.3613568165555772,0.08726646259971664
637,5,36,72,36,0,46.9452884222993,4.107180542906,10.0,3.141592653589793,-1.5707963267948966,0.08726646259971654
638,5,36,72,48,0,46.5534420250871,4.07289842530646,13.7424104347197,0.0,-1.361356816555577,-3.0543261909900767
639,5,36,72,60,0,45.3950284012963,3.97155036555078,17.3212595753644,0.0,-1.1519173063162578,-3.0543261909900767
640,5,36,72,72,0,43.5206757849719,3.80756576017223,20.5801345412645,0.0,-0.9424777960769383,-3.0543261909900767
641,5,36,84,36,0,44.0450686197041,3.85344418844553,3.46111724795175,3.141592653589793,-1.3613568165555772,0.08726646259971664
642,5,36,84,48,0,44.4369150169163,3.88772630604507,7.20352768267142,3.141592653589793,-1.5707963267948966,0.08726646259971654
643,5,36,84,60,0,44.0450686197041,3.85344418844553,10.9459381173911,0.0,-1.361356816555577,-3.0543261909900767
644,5,36,84,84,0,41.0123023795889,3.5881115233113,17.7836622239359,0.0,-0.9424777960769383,-3.0543261909900767
645,5,36,96,48,0,41.0123023795889,3.5881115233113,1.24926683842495,3.141592653589793,-1.3613568165555772,0.08726646259971664
646,5,36,96,60,0,41.4041487768011,3.62239364091085,4.99167727314461,3.141592653589793,-1.5707963267948963,0.08726646259971661
647,5,36,96,72,0,41.0123023795889,3.5881115233113,8.73408770786428,0.0,-1.361356816555577,-3.0543261909900767
648,5,36,96,84,0,39.8538887557981,3.48676346355562,12.312936848509,0.0,-1.1519173063162578,-3.0543261909900767
649,5,36,108,72,0,37.9795361394736,3.32277885817708,3.46111724795175,3.141592653589793,-1.5707963267948966,0.08726646259971654
650,5,36,108,84,0,37.5876897422614,3.28849674057753,7.20352768267142,0.0,-1.361356816555577,-3.0543261909900767
651,5,36,108,96,0,36.4292761184706,3.18714868082185,10.7823768233162,0.0,-1.1519173063162578,-3.0543261909900767
652,5,36,108,108,0,34.5549235021462,3.02316407544331,14.0412517892163,0.0,-0.9424777960769383,-3.0543261909900767
653,5,48,0,0,0,35.9955555688229,3.14920304958945,50.1298205757793,0.0,-0.7330382858376184,-3.0543261909900767
654,5,48,0,84,0,11.998518522941,1.04973434986315,50.1298205757793,0.0,0.7330382858376184,-3.0543261909900767
655,5,48,12,0,0,41.0123023795889,3.5881115233113,44.5368759411221,0.0,-0.9424777960769383,-3.0543261909900767
656,5,48,12,12,0,38.5039289742059,3.36865728645038,47.3333482584507,0.0,-0.7330382858376184,-3.0543261909900767
657,5,48,12,96,0,14.506891928324,1.26918858672408,47.3333482584507,0.0,0.7330382858376184,-3.0543261909900767
658,5,48,12,108,0,11.998518522941,1.04973434986315,44.5368759411221,0.0,0.9424777960769383,-3.0543261909900767
659,5,48,24,0,0,44.7610076122378,3.9160807340684,38.0191260093219,0.0,-1.1519173063162578,-3.0543261909900767
660,5,48,24,12,0,42.8866549959133,3.75209612868985,41.278000975222,0.0,-0.9424777960769383,-3.0543261909900767
661,5,48,24,24,0,40.3782815905303,3.53264189182892,44.0744732925506,0.0,-0.7330382858376184,-3.0543261909900767
662,5,48,24,108,0,16.3812445446484,1.43317319210262,44.0744732925506,0.0,0.7330382858376184,-3.0543261909900767
663,5,48,36,0,0,47.0778348598194,4.11877685357975,30.8614277280324,0.0,-1.361356816555577,-3.0543261909900767
664,5,48,36,12,0,45.9194212360286,4.01742879382408,34.4402768686772,0.0,-1.1519173063162578,-3.0543261909900767
665,5,48,36,24,0,44.0450686197041,3.85344418844553,37.6991518345773,0.0,-0.9424777960769383,-3.0543261909900767
666,5,48,48,0,0,47.8615276542438,4.18734108877884,23.3766068585931,3.141592653589793,-1.5707963267948966,0.08726646259971654
667,5,48,48,12,0,47.4696812570316,4.1530589711793,27.1190172933128,0.0,-1.361356816555577,-3.0543261909900767
668,5,48,48,24,0,46.3112676332408,4.05171091142362,30.6978664339575,0.0,-1.1519173063162578,-3.0543261909900767
669,5,48,48,36,0,44.4369150169163,3.88772630604507,33.9567413998576,0.0,-0.9424777960769383,-3.0543261909900767
670,5,48,48,48,0,41.9285416115334,3.66827206918415,36.7532137171862,0.0,-0.7330382858376184,-3.0543261909900767
671,5,48,60,0,0,47.0778348598194,4.11877685357976,15.8917859891538,3.141592653589793,-1.3613568165555772,0.08726646259971664
672,5,48,60,12,0,47.4696812570316,4.1530589711793,19.6341964238734,0.0,-1.5707963267948966,-3.0543261909900763
673,5,48,60,24,0,47.0778348598194,4.11877685357975,23.3766068585931,0.0,-1.361356816555577,-3.0543261909900767
674,5,48,60,36,0,45.9194212360286,4.01742879382408,26.9554559992378,0.0,-1.1519173063162578,-3.0543261909900767
675,5,48,60,48,0,44.0450686197041,3.85344418844553,30.214330965138,0.0,-0.9424777960769373,-3.0543261909900767
676,5,48,60,60,0,41.5366952143212,3.6339899515846,33.0108032824665,0.0,-0.7330382858376184,-3.0543261909900767
677,5,48,72,0,0,44.7610076122378,3.9160807340684,8.73408770786429,3.141592653589793,-1.1519173063162573,0.08726646259971642
678,5,48,72,12,0,45.9194212360286,4.01742879382408,12.312936848509,3.141592653589793,-1.3613568165555772,0.08726646259971664
679,5,48,72,24,0,46.3112676332408,4.05171091142362,16.0553472832287,0.0,-1.5707963267948966,-3.0543261909900767
680,5,48,72,36,0,45.9194212360286,4.01742879382408,19.7977577179484,0.0,-1.361356816555577,-3.0543261909900767
681,5,48,72,48,0,44.7610076122378,3.9160807340684,23.3766068585931,0.0,-1.1519173063162578,-3.0543261909900767
682,5,48,72,60,0,42.8866549959133,3.75209612868985,26.6354818244932,0.0,-0.9424777960769383,-3.0543261909900767
683,5,48,72,72,0,40.3782815905303,3.53264189182892,29.4319541418218,0.0,-0.7330382858376184,-3.0543261909900767
684,5,48,84,0,0,41.0123023795889,3.5881115233113,2.21633777606406,3.141592653589793,-0.9424777960769375,0.08726646259971636
685,5,48,84,12,0,42.8866549959133,3.75209612868985,5.47521274196418,3.141592653589793,-1.1519173063162573,0.08726646259971642
686,5,48,84,24,0,44.0450686197041,3.85344418844553,9.05406188260891,3.141592653589793,-1.3613568165555772,0.08726646259971664
687,5,48,84,36,0,44.4369150169163,3.88772630604507,12.7964723173286,3.141592653589793,-1.5707963267948966,0.08726646259971654
688,5,48,84,48,0,44.0450686197041,3.85344418844553,16.5388827520482,0.0,-1.361356816555577,-3.0543261909900767
689,5,48,84,60,0,42.8866549959133,3.75209612868985,20.117731892693,0.0,-1.1519173063162578,-3.0543261909900767
690,5,48,84,84,0,38.5039289742059,3.36865728645038,26.1730791759217,0.0,-0.7330382858376184,-3.0543261909900767
691,5,48,96,24,0,40.3782815905303,3.53264189182892,2.6787404246356,3.141592653589793,-1.1519173063162573,0.08726646259971642
692,5,48,96,36,0,41.5366952143212,3.6339899515846,6.25758956528033,3.141592653589793,-1.3613568165555772,0.08726646259971664
693,5,48,96,48,0,41.9285416115334,3.66827206918415,10.0,3.141592653589793,-1.5707963267948966,0.08726646259971654
694,5,48,96,60,0,41.5366952143212,3.6339899515846,13.7424104347197,0.0,-1.361356816555577,-3.0543261909900767
695,5,48,96,72,0,40.3782815905303,3.53264189182892,17.3212595753644,0.0,-1.1519173063162578,-3.0543261909900767
696,5,48,96,84,0,38.5039289742059,3.36865728645038,20.5801345412645,0.0,-0.9424777960769383,-3.0543261909900767
697,5,48,108,36,0,37.3455153504151,3.2673092266947,0.466890015108799,3.141592653589793,-1.1519173063162573,0.08726646259971642
698,5,48,108,60,0,38.8957753714181,3.40293940404992,7.7881495904732,3.141592653589793,-1.5707963267948966,0.08726646259971654
699,5,48,108,72,0,38.5039289742059,3.36865728645038,11.5305600251929,0.0,-1.361356816555577,-3.0543261909900767
700,5,48,108,84,0,37.3455153504151,3.2673092266947,15.1094091658376,0.0,-1.1519173063162578,-3.0543261909900767
701,5,48,108,96,0,35.4711627340906,3.10332462131615,18.3682841317377,0.0,-0.9424777960769373,-3.0543261909900767
702,5,48,108,108,0,32.9627893287077,2.88387038445522,21.1647564490663,0.0,-0.7330382858376184,-3.0543261909900767
703,5,48,120,60,0,35.0793163368784,3.06904250371661,2.51517913056067,3.141592653589793,-1.3613568165555772,0.08726646259971664
704,5,60,0,0,0,26.8972568484771,2.35320505418677,56.7653718043597,0.0,-0.5235987755982991,-3.0543261909900767
705,5,60,12,0,0,32.9627893287077,2.88387038445522,52.3416709853061,0.0,-0.7330382858376184,-3.0543261909900767
706,5,60,12,12,0,29.9300230885924,2.618537719321,54.5535213948329,0.0,-0.5235987755982991,-3.0543261909900767
707,5,60,24,0,0,37.9795361394736,3.32277885817708,46.7487263506489,0.0,-0.9424777960769388,-3.0543261909900767
708,5,60,24,12,0,35.4711627340906,3.10332462131615,49.5451986679775,0.0,-0.7330382858376184,-3.0543261909900767
709,5,60,24,24,0,32.4383964939754,2.83799195618193,51.7570490775043,0.0,-0.5235987755982991,-3.0543261909900767
710,5,60,24,96,0,11.4741256882087,1.00385592158985,49.5451986679775,0.0,0.7330382858376184,-3.0543261909900767
711,5,60,24,108,0,8.96575228282572,0.784401684728924,46.7487263506489,0.0,0.9424777960769373,-3.0543261909900767
712,5,60,36,0,0,41.7282413721225,3.65074806893417,40.2309764188487,0.0,-1.1519173063162578,-3.0543261909900767
713,5,60,36,12,0,39.8538887557981,3.48676346355562,43.4898513847488,0.0,-0.9424777960769383,-3.0543261909900767
714,5,60,36,24,0,37.3455153504151,3.2673092266947,46.2863237020774,0.0,-0.7330382858376184,-3.0543261909900767
715,5,60,36,108,0,13.3484783045332,1.1678405269684,46.2863237020774,0.0,0.7330382858376184,-3.0543261909900767
716,5,60,48,0,0,44.0450686197041,3.85344418844553,33.0732781375592,0.0,-1.361356816555577,-3.0543261909900767
717,5,60,48,12,0,42.8866549959133,3.75209612868985,36.652127278204,0.0,-1.1519173063162578,-3.0543261909900767
718,5,60,48,24,0,41.0123023795889,3.5881115233113,39.9110022441041,0.0,-0.9424777960769388,-3.0543261909900767
719,5,60,48,36,0,38.5039289742059,3.36865728645038,42.7074745614327,0.0,-0.7330382858376184,-3.0543261909900767
720,5,60,48,48,0,35.4711627340906,3.10332462131615,44.9193249709595,0.0,-0.5235987755982991,-3.0543261909900767
721,5,60,60,0,0,44.8287614141286,3.92200842364462,25.5884572681199,3.141592653589793,-1.5707963267948966,0.08726646259971654
722,5,60,60,12,0,44.4369150169164,3.88772630604507,29.3308677028396,0.0,-1.361356816555577,-3.0543261909900767
723,5,60,60,24,0,43.2785013931255,3.78637824628939,32.9097168434843,0.0,-1.1519173063162578,-3.0543261909900767
724,5,60,60,36,0,41.4041487768011,3.62239364091085,36.1685918093844,0.0,-0.9424777960769383,-3.0543261909900767
725,5,60,60,48,0,38.8957753714181,3.40293940404992,38.965064126713,0.0,-0.7330382858376184,-3.0543261909900767
726,5,60,60,60,0,35.8630091313028,3.13760673891569,41.1769145362398,0.0,-0.5235987755982991,-3.0543261909900767
727,5,60,72,0,0,44.0450686197041,3.85344418844553,18.1036363986806,3.141592653589793,-1.3613568165555772,0.08726646259971664
728,5,60,72,12,0,44.4369150169164,3.88772630604507,21.8460468334002,3.141592653589793,-1.5707963267948966,0.08726646259971622
729,5,60,72,24,0,44.0450686197041,3.85344418844553,25.5884572681199,0.0,-1.361356816555577,-3.0543261909900767
730,5,60,72,36,0,42.8866549959133,3.75209612868985,29.1673064087646,0.0,-1.1519173063162578,-3.0543261909900767
731,5,60,72,48,0,41.0123023795889,3.5881115233113,32.4261813746647,0.0,-0.9424777960769383,-3.0543261909900767
732,5,60,72,60,0,38.5039289742059,3.36865728645038,35.2226536919933,0.0,-0.7330382858376184,-3.0543261909900767
733,5,60,72,72,0,35.4711627340906,3.10332462131615,37.4345041015201,0.0,-0.5235987755982991,-3.0543261909900767
734,5,60,84,0,0,41.7282413721225,3.65074806893417,10.9459381173911,3.141592653589793,-1.1519173063162573,0.08726646259971642
735,5,60,84,12,0,42.8866549959133,3.75209612868985,14.5247872580358,3.141592653589793,-1.3613568165555772,0.08726646259971664
736,5,60,84,24,0,43.2785013931255,3.78637824628939,18.2671976927555,3.141592653589793,-1.5707963267948966,0.08726646259971663
737,5,60,84,36,0,42.8866549959133,3.75209612868985,22.0096081274752,0.0,-1.361356816555577,-3.0543261909900767
738,5,60,84,48,0,41.7282413721225,3.65074806893417,25.5884572681199,0.0,-1.1519173063162578,-3.0543261909900767
739,5,60,84,60,0,39.8538887557981,3.48676346355562,28.84733223402,0.0,-0.9424777960769388,-3.0543261909900767
740,5,60,84,84,0,34.3127491102998,3.00197656156047,33.8556549608754,0.0,-0.5235987755982991,-3.0543261909900767
741,5,60,96,0,0,37.9795361394736,3.32277885817708,4.42818818559086,3.141592653589793,-0.9424777960769375,0.08726646259971654
742,5,60,96,12,0,39.8538887557981,3.48676346355562,7.68706315149097,3.141592653589793,-1.1519173063162573,0.08726646259971642
743,5,60,96,24,0,41.0123023795889,3.5881115233113,11.2659122921357,3.141592653589793,-1.3613568165555772,0.08726646259971664
744,5,60,96,36,0,41.4041487768011,3.62239364091085,15.0083227268554,3.141592653589793,-1.5707963267948963,0.08726646259971661
745,5,60,96,48,0,41.0123023795889,3.5881115233113,18.750733161575,0.0,-1.361356816555577,-3.0543261909900767
746,5,60,96,60,0,39.8538887557981,3.48676346355562,22.3295823022198,0.0,-1.1519173063162578,-3.0543261909900767
747,5,60,96,72,0,37.9795361394736,3.32277885817708,25.5884572681199,0.0,-0.9424777960769388,-3.0543261909900767
748,5,60,96,84,0,35.4711627340906,3.10332462131615,28.3849295854485,0.0,-0.7330382858376184,-3.0543261909900767
749,5,60,108,12,0,35.4711627340906,3.10332462131615,1.63171586826228,3.141592653589793,-0.9424777960769375,0.08726646259971636
750,5,60,108,24,0,37.3455153504151,3.2673092266947,4.89059083416239,3.141592653589793,-1.1519173063162573,0.08726646259971642
751,5,60,108,36,0,38.5039289742059,3.36865728645038,8.46943997480713,3.141592653589793,-1.3613568165555772,0.08726646259971664
752,5,60,108,60,0,38.5039289742059,3.36865728645038,15.9542608442465,0.0,-1.361356816555577,-3.0543261909900767
753,5,60,108,72,0,37.3455153504151,3.2673092266947,19.5331099848912,0.0,-1.1519173063162578,-3.0543261909900767
754,5,60,108,84,0,35.4711627340906,3.10332462131615,22.7919849507913,0.0,-0.9424777960769383,-3.0543261909900767
755,5,60,108,96,0,32.9627893287077,2.88387038445522,25.5884572681199,0.0,-0.7330382858376184,-3.0543261909900767
756,5,60,108,108,0,29.9300230885924,2.618537719321,27.8003076776467,0.0,-0.5235987755982991,-3.0543261909900767
757,5,60,120,36,0,34.3127491102998,3.00197656156047,2.6787404246356,3.141592653589793,-1.1519173063162573,0.08726646259971642
758,5,60,120,48,0,35.4711627340906,3.10332462131615,6.25758956528033,3.141592653589793,-1.3613568165555772,0.08726646259971664
759,5,60,120,60,0,35.8630091313028,3.13760673891569,10.0,3.141592653589793,-1.5707963267948966,0.08726646259971654
760,5,72,0,0,0,16.6234189364948,1.45436070598546,61.3570518799383,0.0,-0.31415926535897987,-3.0543261909900767
761,5,72,12,0,0,23.4726442111497,2.053590271453,58.2959318295526,0.0,-0.5235987755982991,-3.0543261909900767
762,5,72,12,12,0,20.0480315738222,1.75397548871923,59.8264918547454,0.0,-0.31415926535897987,-3.0543261909900767
763,5,72,24,0,0,29.5381766913802,2.58425560172145,53.872231010499,0.0,-0.7330382858376184,-3.0543261909900767
764,5,72,24,12,0,26.5054104512649,2.31892293658723,56.0840814200258,0.0,-0.5235987755982991,-3.0543261909900767
765,5,72,24,24,0,23.0807978139375,2.01930815385346,57.6146414452186,0.0,-0.31415926535897987,-3.0543261909900767
766,5,72,36,0,0,34.5549235021462,3.02316407544331,48.2792863758418,0.0,-0.9424777960769383,-3.0543261909900767
767,5,72,36,12,0,32.0465500967632,2.80370983858238,51.0757586931704,0.0,-0.7330382858376184,-3.0543261909900767
768,5,72,36,24,0,29.0137838566479,2.53837717344816,53.2876091026972,0.0,-0.5235987755982991,-3.0543261909900767
769,5,72,36,96,0,8.04951305088124,0.704241138856083,51.0757586931704,0.0,0.7330382858376184,-3.0543261909900767
770,5,72,48,0,0,38.3036287347951,3.3511332862004,41.7615364440416,0.0,-1.1519173063162578,-3.0543261909900767
771,5,72,48,12,0,36.4292761184706,3.18714868082185,45.0204114099417,0.0,-0.9424777960769383,-3.0543261909900767
772,5,72,48,24,0,33.9209027130876,2.96769444396093,47.8168837272703,0.0,-0.7330382858376184,-3.0543261909900767
773,5,72,48,36,0,30.8881364729724,2.7023617788267,50.0287341367971,0.0,-0.5235987755982991,-3.0543261909900767
774,5,72,48,48,0,27.4635238356449,2.40274699609293,51.5592941619899,0.0,-0.31415926535897987,-3.0543261909900767
775,5,72,48,108,0,9.9238656672057,0.868225744234629,47.8168837272703,0.0,0.7330382858376184,-3.0543261909900767
776,5,72,60,0,0,40.6204559823767,3.55382940571176,34.6038381627521,0.0,-1.361356816555577,-3.0543261909900767
777,5,72,60,12,0,39.4620423585859,3.45248134595608,38.1826873033968,0.0,-1.1519173063162578,-3.0543261909900767
778,5,72,60,24,0,37.5876897422614,3.28849674057753,41.441562269297,0.0,-0.9424777960769383,-3.0543261909900767
779,5,72,60,36,0,35.0793163368784,3.06904250371661,44.2380345866255,0.0,-0.7330382858376184,-3.0543261909900767
780,5,72,60,48,0,32.0465500967632,2.80370983858238,46.4498849961523,0.0,-0.5235987755982991,-3.0543261909900767
781,5,72,60,60,0,28.6219374594357,2.50409505584861,47.9804450213452,0.0,-0.31415926535897987,-3.0543261909900767
782,5,72,60,120,0,11.0822792909965,0.969573803990308,44.2380345866255,0.0,0.7330382858376184,-3.0543261909900767
783,5,72,72,0,0,41.4041487768011,3.62239364091085,27.1190172933128,3.141592653589793,-1.5707963267948966,0.08726646259971654
784,5,72,72,12,0,41.0123023795889,3.5881115233113,30.8614277280324,0.0,-1.361356816555577,-3.0543261909900767
785,5,72,72,24,0,39.8538887557981,3.48676346355562,34.4402768686772,0.0,-1.1519173063162578,-3.0543261909900767
786,5,72,72,36,0,37.9795361394736,3.32277885817708,37.6991518345773,0.0,-0.9424777960769383,-3.0543261909900767
787,5,72,72,48,0,35.4711627340906,3.10332462131615,40.4956241519059,0.0,-0.7330382858376184,-3.0543261909900767
788,5,72,72,60,0,32.4383964939754,2.83799195618192,42.7074745614327,0.0,-0.5235987755982991,-3.0543261909900767
789,5,72,72,72,0,29.0137838566479,2.53837717344816,44.2380345866255,0.0,-0.31415926535897987,-3.0543261909900767
790,5,72,84,0,0,40.6204559823767,3.55382940571176,19.6341964238734,3.141592653589793,-1.3613568165555772,0.08726646259971664
791,5,72,84,12,0,41.0123023795889,3.5881115233113,23.3766068585931,3.141592653589793,-1.5707963267948966,0.08726646259971622
792,5,72,84,24,0,40.6204559823767,3.55382940571176,27.1190172933128,0.0,-1.361356816555577,-3.0543261909900767
793,5,72,84,36,0,39.4620423585859,3.45248134595608,30.6978664339575,0.0,-1.1519173063162578,-3.0543261909900767
794,5,72,84,48,0,37.5876897422614,3.28849674057753,33.9567413998576,0.0,-0.9424777960769383,-3.0543261909900767
795,5,72,84,60,0,35.0793163368784,3.06904250371661,36.7532137171862,0.0,-0.7330382858376184,-3.0543261909900767
796,5,72,84,84,0,28.6219374594357,2.50409505584861,40.4956241519059,0.0,-0.31415926535897987,-3.0543261909900767
797,5,72,96,0,0,38.3036287347951,3.3511332862004,12.476498142584,3.141592653589793,-1.1519173063162573,0.08726646259971642
798,5,72,96,12,0,39.4620423585859,3.45248134595608,16.0553472832287,3.141592653589793,-1.3613568165555772,0.08726646259971664
799,5,72,96,24,0,39.8538887557981,3.48676346355562,19.7977577179484,3.141592653589793,-1.5707963267948966,0.08726646259971663
800,5,72,96,36,0,39.4620423585859,3.45248134595608,23.540168152668,0.0,-1.361356816555577,-3.0543261909900767
801,5,72,96,48,0,38.3036287347951,3.3511332862004,27.1190172933128,0.0,-1.1519173063162578,-3.0543261909900767
802,5,72,96,60,0,36.4292761184706,3.18714868082185,30.3778922592129,0.0,-0.9424777960769388,-3.0543261909900767
803,5,72,96,72,0,33.9209027130876,2.96769444396093,33.1743645765414,0.0,-0.7330382858376184,-3.0543261909900767
804,5,72,96,84,0,30.8881364729724,2.7023617788267,35.3862149860683,0.0,-0.5235987755982991,-3.0543261909900767
805,5,72,108,0,0,34.5549235021462,3.02316407544331,5.95874821078373,3.141592653589793,-0.9424777960769375,0.08726646259971636
806,5,72,108,12,0,36.4292761184706,3.18714868082185,9.21762317668384,3.141592653589793,-1.1519173063162573,0.08726646259971642
807,5,72,108,24,0,37.5876897422614,3.28849674057753,12.7964723173286,3.141592653589793,-1.3613568165555772,0.08726646259971664
808,5,72,108,36,0,37.9795361394736,3.32277885817708,16.5388827520482,3.141592653589793,-1.5707963267948966,0.08726646259971654
809,5,72,108,60,0,36.4292761184706,3.18714868082185,23.8601423274126,0.0,-1.1519173063162578,-3.0543261909900767
810,5,72,108,72,0,34.5549235021462,3.02316407544331,27.1190172933128,0.0,-0.9424777960769383,-3.0543261909900767
811,5,72,108,84,0,32.0465500967632,2.80370983858238,29.9154896106413,0.0,-0.7330382858376184,-3.0543261909900767
812,5,72,108,96,0,29.0137838566479,2.53837717344816,32.1273400201681,0.0,-0.5235987755982991,-3.0543261909900767
813,5,72,108,108,0,25.5891712193205,2.23876239071439,33.657900045361,0.0,-0.31415926535897987,-3.0543261909900767
814,5,72,120,0,0,29.5381766913802,2.58425560172145,0.365803576126575,3.141592653589793,-0.7330382858376181,0.08726646259971643
815,5,72,120,12,0,32.0465500967632,2.80370983858238,3.16227589345516,3.141592653589793,-0.9424777960769375,0.08726646259971636
816,5,72,120,24,0,33.9209027130876,2.96769444396093,6.42115085935527,3.141592653589793,-1.1519173063162573,0.08726646259971642
817,5,72,120,36,0,35.0793163368784,3.06904250371661,10.0,3.141592653589793,-1.3613568165555772,0.08726646259971664
818,5,72,120,48,0,35.4711627340906,3.10332462131615,13.7424104347197,0.0,-1.5707963267948966,-3.0543261909900767
819,5,72,120,60,0,35.0793163368784,3.06904250371661,17.4848208694393,0.0,-1.361356816555577,-3.0543261909900767
820,5,72,120,120,0,23.0807978139375,2.01930815385346,30.8614277280324,0.0,-0.31415926535897987,-3.0543261909900767
821,5,84,0,48,0,-8.24981329029206,-0.721765139106058,59.1793950918509,0.0,0.7330382858376184,-3.0543261909900767
822,5,84,0,60,0,-10.758186695675,-0.941219375966986,56.3829227745224,0.0,0.9424777960769373,-3.0543261909900767
823,5,84,0,72,0,-12.6325393119995,-1.10520398134553,53.1240478086222,0.0,1.1519173063162578,-3.0543261909900767
824,5,84,0,84,0,-13.7909529357903,-1.20655204110121,49.5451986679775,0.0,1.361356816555577,-3.0543261909900767
825,5,84,0,108,0,-13.7909529357903,-1.20655204110121,42.0603777985382,3.141592653589793,1.3613568165555772,0.08726646259971664
826,5,84,0,120,0,-12.6325393119995,-1.10520398134553,38.4815286578934,3.141592653589793,1.1519173063162573,0.08726646259971642
827,5,84,12,0,0,12.956631907321,1.13355840936885,62.1394287032544,0.0,-0.3141592653589789,-3.0543261909900767
828,5,84,12,12,0,9.28984487814716,0.812756112752245,62.9218055265706,0.0,-0.10471975511966039,-3.0543261909900767
829,5,84,12,96,0,-10.1241659066165,-0.885749744484604,48.7628218446614,0.0,1.361356816555577,-3.0543261909900767
830,5,84,12,108,0,-10.5160123038287,-0.920031862084147,45.0204114099417,0.0,1.5707963267948966,-3.0543261909900767
831,5,84,12,120,0,-10.1241659066165,-0.885749744484604,41.278000975222,3.141592653589793,1.3613568165555772,0.08726646259971664
832,5,84,24,0,0,19.8058571819759,1.73278797483639,59.0783086528687,0.0,-0.5235987755982991,-3.0543261909900767
833,5,84,24,12,0,16.3812445446484,1.43317319210262,60.6088686780616,0.0,-0.3141592653589789,-3.0543261909900767
834,5,84,24,24,0,12.7144575154746,1.11237089548601,61.3912455013777,0.0,-0.10471975511966039,-3.0543261909900767
835,5,84,36,0,0,25.8713896622064,2.26345330510484,54.6546078338151,0.0,-0.7330382858376184,-3.0543261909900767
836,5,84,36,12,0,22.8386234220911,1.99812063997062,56.8664582433419,0.0,-0.5235987755982991,-3.0543261909900767
837,5,84,36,24,0,19.4140107847637,1.69850585723685,58.3970182685348,0.0,-0.3141592653589789,-3.0543261909900767
838,5,84,48,0,0,30.8881364729724,2.7023617788267,49.0616631991579,0.0,-0.9424777960769383,-3.0543261909900767
839,5,84,48,12,0,28.3797630675894,2.48290754196577,51.8581355164865,0.0,-0.7330382858376184,-3.0543261909900767
840,5,84,48,24,0,25.3469968274741,2.21757487683155,54.0699859260133,0.0,-0.5235987755982991,-3.0543261909900767
841,5,84,48,36,0,21.9223841901467,1.91796009409778,55.6005459512062,0.0,-0.31415926535897987,-3.0543261909900767
842,5,84,48,48,0,18.2555971609729,1.59715779748117,56.3829227745224,0.0,-0.10471975511966039,-3.0543261909900767
843,5,84,60,0,0,34.6368417056213,3.03033098958379,42.5439132673577,0.0,-1.1519173063162578,-3.0543261909900767
844,5,84,60,12,0,32.7624890892968,2.86634638420525,45.8027882332578,0.0,-0.9424777960769383,-3.0543261909900767
845,5,84,60,24,0,30.2541156839138,2.64689214734432,48.5992605505864,0.0,-0.7330382858376184,-3.0543261909900767
846,5,84,60,36,0,27.2213494437986,2.38155948221009,50.8111109601132,0.0,-0.5235987755982991,-3.0543261909900767
847,5,84,60,48,0,23.7967368064711,2.08194469947632,52.3416709853061,0.0,-0.3141592653589789,-3.0543261909900767
848,5,84,60,60,0,20.1299497772973,1.76114240285971,53.1240478086222,0.0,-0.10471975511966039,-3.0543261909900767
849,5,84,72,0,0,36.9536689532029,3.23302710909515,35.3862149860683,0.0,-1.361356816555577,-3.0543261909900767
850,5,84,72,12,0,35.7952553294121,3.13167904933947,38.965064126713,0.0,-1.1519173063162578,-3.0543261909900767
851,5,84,72,24,0,33.9209027130876,2.96769444396093,42.2239390926131,0.0,-0.9424777960769383,-3.0543261909900767
852,5,84,72,36,0,31.4125293077046,2.7482402071,45.0204114099417,0.0,-0.7330382858376184,-3.0543261909900767
853,5,84,72,48,0,28.3797630675894,2.48290754196577,47.2322618194685,0.0,-0.5235987755982991,-3.0543261909900767
854,5,84,72,60,0,24.9551504302619,2.183292759232,48.7628218446614,0.0,-0.31415926535897987,-3.0543261909900767
855,5,84,72,72,0,21.2883634010881,1.86249046261539,49.5451986679775,0.0,-0.10471975511966039,-3.0543261909900767
856,5,84,84,0,0,37.7373617476273,3.30159134429424,27.9013941166289,3.141592653589793,-1.5707963267948966,0.08726646259971654
857,5,84,84,12,0,37.3455153504151,3.2673092266947,31.6438045513486,0.0,-1.361356816555577,-3.0543261909900767
858,5,84,84,24,0,36.1871017266243,3.16596116693902,35.2226536919933,0.0,-1.1519173063162578,-3.0543261909900767
859,5,84,84,36,0,34.3127491102998,3.00197656156047,38.4815286578934,0.0,-0.9424777960769383,-3.0543261909900767
860,5,84,84,48,0,31.8043757049168,2.78252232469954,41.278000975222,0.0,-0.7330382858376184,-3.0543261909900767
861,5,84,84,60,0,28.7716094648016,2.51718965956532,43.4898513847488,0.0,-0.5235987755982991,-3.0543261909900767
862,5,84,84,84,0,21.6802097983003,1.89677258021494,45.8027882332578,0.0,-0.10471975511966039,-3.0543261909900767
863,5,84,96,0,0,36.9536689532029,3.23302710909515,20.4165732471896,3.141592653589793,-1.3613568165555772,0.08726646259971664
864,5,84,96,12,0,37.3455153504151,3.2673092266947,24.1589836819092,3.141592653589793,-1.5707963267948966,0.08726646259971622
865,5,84,96,24,0,36.9536689532029,3.23302710909515,27.9013941166289,0.0,-1.361356816555577,-3.0543261909900767
866,5,84,96,36,0,35.7952553294121,3.13167904933947,31.4802432572737,0.0,-1.1519173063162578,-3.0543261909900767
867,5,84,96,48,0,33.9209027130876,2.96769444396093,34.7391182231738,0.0,-0.9424777960769383,-3.0543261909900767
868,5,84,96,60,0,31.4125293077046,2.7482402071,37.5355905405023,0.0,-0.7330382858376184,-3.0543261909900767
869,5,84,96,72,0,28.3797630675894,2.48290754196577,39.7474409500291,0.0,-0.5235987755982991,-3.0543261909900767
870,5,84,96,84,0,24.9551504302619,2.183292759232,41.278000975222,0.0,-0.31415926535897987,-3.0543261909900767
871,5,84,108,0,0,34.6368417056213,3.03033098958379,13.2588749659001,3.141592653589793,-1.1519173063162573,0.08726646259971642
872,5,84,108,12,0,35.7952553294121,3.13167904933947,16.8377241065449,3.141592653589793,-1.3613568165555772,0.08726646259971664
873,5,84,108,24,0,36.1871017266243,3.16596116693902,20.5801345412645,0.0,-1.5707963267948966,-3.0543261909900767
874,5,84,108,36,0,35.7952553294121,3.13167904933947,24.3225449759842,0.0,-1.361356816555577,-3.0543261909900767
875,5,84,108,60,0,32.7624890892968,2.86634638420525,31.160269082529,0.0,-0.9424777960769383,-3.0543261909900767
876,5,84,108,72,0,30.2541156839138,2.64689214734432,33.9567413998576,0.0,-0.7330382858376184,-3.0543261909900767
877,5,84,108,84,0,27.2213494437986,2.38155948221009,36.1685918093844,0.0,-0.5235987755982991,-3.0543261909900767
878,5,84,108,96,0,23.7967368064711,2.08194469947632,37.6991518345773,0.0,-0.3141592653589789,-3.0543261909900767
879,5,84,108,108,0,20.1299497772973,1.76114240285971,38.4815286578934,0.0,-0.10471975511966039,-3.0543261909900767
880,5,84,120,0,0,30.8881364729724,2.7023617788267,6.74112503409989,3.141592653589793,-0.9424777960769382,0.08726646259971636
881,5,84,120,12,0,32.7624890892968,2.86634638420525,10.0,3.141592653589793,-1.1519173063162573,0.08726646259971642
882,5,84,120,24,0,33.9209027130876,2.96769444396093,13.5788491406447,3.141592653589793,-1.3613568165555772,0.08726646259971664
883,5,84,120,36,0,34.3127491102998,3.00197656156047,17.3212595753644,0.0,-1.5707963267948966,-3.0543261909900767
884,5,84,120,48,0,33.9209027130876,2.96769444396093,21.0636700100841,0.0,-1.361356816555577,-3.0543261909900767
885,5,84,120,60,0,32.7624890892968,2.86634638420525,24.6425191507288,0.0,-1.1519173063162578,-3.0543261909900767
886,5,84,120,108,0,21.9223841901467,1.91796009409778,34.4402768686772,0.0,-0.3141592653589789,-3.0543261909900767
887,5,84,120,120,0,18.2555971609729,1.59715779748117,35.2226536919933,0.0,-0.10471975511966039,-3.0543261909900767
888,5,96,0,48,0,-18.2555971609729,-1.59715779748117,56.3829227745224,0.0,0.9424777960769383,-3.0543261909900767
889,5,96,0,60,0,-20.1299497772973,-1.76114240285971,53.1240478086222,0.0,1.1519173063162578,-3.0543261909900767
890,5,96,0,72,0,-21.2883634010881,-1.86249046261539,49.5451986679775,0.0,1.361356816555577,-3.0543261909900767
891,5,96,0,84,0,-21.6802097983003,-1.89677258021494,45.8027882332578,3.141592653589793,1.5707963267948966,0.08726646259971632
892,5,96,0,108,0,-20.1299497772973,-1.76114240285971,38.4815286578934,3.141592653589793,1.1519173063162573,0.08726646259971642
893,5,96,0,120,0,-18.2555971609729,-1.59715779748117,35.2226536919933,3.141592653589793,0.9424777960769382,0.08726646259971636
894,5,96,12,48,0,-11.998518522941,-1.04973434986315,59.1793950918509,0.0,0.7330382858376184,-3.0543261909900767
895,5,96,12,60,0,-14.506891928324,-1.26918858672408,56.3829227745224,0.0,0.9424777960769383,-3.0543261909900767
896,5,96,12,72,0,-16.3812445446484,-1.43317319210262,53.1240478086222,0.0,1.1519173063162578,-3.0543261909900767
897,5,96,12,84,0,-17.5396581684392,-1.5345212518583,49.5451986679775,0.0,1.361356816555577,-3.0543261909900767
898,5,96,12,96,0,-17.9315045656514,-1.56880336945785,45.8027882332578,3.141592653589793,1.5707963267948966,0.08726646259971647
899,5,96,12,108,0,-17.5396581684392,-1.5345212518583,42.0603777985382,3.141592653589793,1.3613568165555772,0.08726646259971664
900,5,96,12,120,0,-16.3812445446484,-1.43317319210262,38.4815286578934,3.141592653589793,1.1519173063162573,0.08726646259971642
901,5,96,24,0,0,9.20792667467204,0.805589198611762,62.1394287032545,0.0,-0.3141592653589789,-3.0543261909900767
902,5,96,24,60,0,-8.33173149376718,-0.728932053246541,58.3970182685348,0.0,0.7330382858376184,-3.0543261909900767
903,5,96,24,72,0,-10.8401048991502,-0.948386290107469,55.6005459512062,0.0,0.9424777960769383,-3.0543261909900767
904,5,96,24,84,0,-12.7144575154746,-1.11237089548601,52.3416709853061,0.0,1.1519173063162578,-3.0543261909900767
905,5,96,24,96,0,-13.8728711392654,-1.21371895524169,48.7628218446614,0.0,1.361356816555577,-3.0543261909900767
906,5,96,24,108,0,-14.2647175364776,-1.24800107284124,45.0204114099417,0.0,1.5707963267948966,-3.0543261909900767
907,5,96,24,120,0,-13.8728711392654,-1.21371895524169,41.278000975222,3.141592653589793,1.3613568165555772,0.08726646259971664
908,5,96,36,0,0,16.057151949327,1.4048187640793,59.0783086528687,0.0,-0.5235987755982991,-3.0543261909900767
909,5,96,36,12,0,12.6325393119995,1.10520398134553,60.6088686780616,0.0,-0.3141592653589789,-3.0543261909900767
910,5,96,36,24,0,8.96575228282571,0.784401684728923,61.3912455013777,0.0,-0.10471975511965939,-3.0543261909900767
911,5,96,36,96,0,-9.28984487814716,-0.812756112752246,50.8111109601132,0.0,1.1519173063162578,-3.0543261909900767
912,5,96,36,108,0,-10.448258501938,-0.914104172507925,47.2322618194685,0.0,1.361356816555577,-3.0543261909900767
913,5,96,48,0,0,22.1226844295575,1.93548409434775,54.6546078338151,0.0,-0.7330382858376184,-3.0543261909900767
914,5,96,48,12,0,19.0899181894422,1.67015142921353,56.8664582433419,0.0,-0.5235987755982991,-3.0543261909900767
915,5,96,48,24,0,15.6653055521148,1.37053664647976,58.3970182685348,0.0,-0.3141592653589789,-3.0543261909900767
916,5,96,48,36,0,11.998518522941,1.04973434986315,59.1793950918509,0.0,-0.10471975511966039,-3.0543261909900767
917,5,96,48,48,0,8.24981329029206,0.721765139106058,59.1793950918509,0.0,0.10471975511965939,-3.0543261909900767
918,5,96,60,0,0,27.1394312403235,2.37439256806961,49.061663199158,0.0,-0.9424777960769373,-3.0543261909900767
919,5,96,60,12,0,24.6310578349405,2.15493833120868,51.8581355164865,0.0,-0.7330382858376184,-3.0543261909900767
920,5,96,60,24,0,21.5982915948252,1.88960566607446,54.0699859260133,0.0,-0.5235987755982991,-3.0543261909900767
921,5,96,60,36,0,18.1736789574977,1.58999088334069,55.6005459512062,0.0,-0.3141592653589789,-3.0543261909900767
922,5,96,60,48,0,14.506891928324,1.26918858672408,56.3829227745224,0.0,-0.10471975511965939,-3.0543261909900767
923,5,96,60,60,0,10.758186695675,0.941219375966986,56.3829227745224,0.0,0.10471975511965939,-3.0543261909900767
924,5,96,72,0,0,30.8881364729724,2.7023617788267,42.5439132673577,0.0,-1.1519173063162578,-3.0543261909900767
925,5,96,72,12,0,29.0137838566479,2.53837717344816,45.8027882332578,0.0,-0.9424777960769383,-3.0543261909900767
926,5,96,72,24,0,26.5054104512649,2.31892293658723,48.5992605505864,0.0,-0.7330382858376184,-3.0543261909900767
927,5,96,72,36,0,23.4726442111497,2.053590271453,50.8111109601132,0.0,-0.5235987755982991,-3.0543261909900767
928,5,96,72,48,0,20.0480315738222,1.75397548871923,52.3416709853061,0.0,-0.3141592653589789,-3.0543261909900767
929,5,96,72,60,0,16.3812445446484,1.43317319210262,53.1240478086222,0.0,-0.10471975511966039,-3.0543261909900767
930,5,96,72,72,0,12.6325393119995,1.10520398134553,53.1240478086222,0.0,0.10471975511965939,-3.0543261909900767
931,5,96,84,0,0,33.204963720554,2.90505789833806,35.3862149860683,0.0,-1.361356816555577,-3.0543261909900767
932,5,96,84,12,0,32.0465500967632,2.80370983858238,38.965064126713,0.0,-1.1519173063162578,-3.0543261909900767
933,5,96,84,24,0,30.1721974804387,2.63972523320384,42.2239390926131,0.0,-0.9424777960769383,-3.0543261909900767
934,5,96,84,36,0,27.6638240750557,2.42027099634291,45.0204114099417,0.0,-0.7330382858376184,-3.0543261909900767
935,5,96,84,48,0,24.6310578349405,2.15493833120868,47.2322618194685,0.0,-0.5235987755982991,-3.0543261909900767
936,5,96,84,60,0,21.206445197613,1.85532354847491,48.7628218446614,0.0,-0.31415926535897987,-3.0543261909900767
937,5,96,84,84,0,13.7909529357903,1.20655204110121,49.5451986679775,0.0,0.10471975511965939,-3.0543261909900767
938,5,96,96,0,0,33.9886565149784,2.97362213353715,27.9013941166289,3.141592653589793,-1.5707963267948966,0.08726646259971654
939,5,96,96,12,0,33.5968101177662,2.9393400159376,31.6438045513486,0.0,-1.361356816555577,-3.0543261909900767
940,5,96,96,24,0,32.4383964939754,2.83799195618192,35.2226536919933,0.0,-1.1519173063162578,-3.0543261909900767
941,5,96,96,36,0,30.5640438776509,2.67400735080338,38.4815286578934,0.0,-0.9424777960769383,-3.0543261909900767
942,5,96,96,48,0,28.0556704722679,2.45455311394245,41.278000975222,0.0,-0.7330382858376184,-3.0543261909900767
943,5,96,96,60,0,25.0229042321527,2.18922044880822,43.4898513847488,0.0,-0.5235987755982991,-3.0543261909900767
944,5,96,96,72,0,21.5982915948252,1.88960566607446,45.0204114099417,0.0,-0.31415926535897987,-3.0543261909900767
945,5,96,96,84,0,17.9315045656514,1.56880336945785,45.8027882332578,0.0,-0.10471975511966039,-3.0543261909900767
946,5,96,108,0,0,33.204963720554,2.90505789833806,20.4165732471896,3.141592653589793,-1.3613568165555772,0.08726646259971664
947,5,96,108,12,0,33.5968101177662,2.9393400159376,24.1589836819093,0.0,-1.5707963267948966,-3.0543261909900763
948,5,96,108,24,0,33.204963720554,2.90505789833806,27.9013941166289,0.0,-1.361356816555577,-3.0543261909900767
949,5,96,108,36,0,32.0465500967632,2.80370983858238,31.4802432572737,0.0,-1.1519173063162578,-3.0543261909900767
950,5,96,108,60,0,27.6638240750557,2.42027099634291,37.5355905405023,0.0,-0.7330382858376184,-3.0543261909900767
951,5,96,108,72,0,24.6310578349405,2.15493833120868,39.7474409500292,0.0,-0.5235987755982991,-3.0543261909900767
