matheussooares/kinematics-robotics/src/data/ready/dataset-radius-0.5cm.csv
theta_1,theta_2,theta_3,theta_4,theta_5,p_x,p_y,p_z,roll,pich,yaw
0,0,0,0,0,54.0000000000000,-1.10218211923262e-15,10.0000000000000,2.356194490192345,-1.5707963267948966,0.7853981633974483
0,0,12,0,0,53.2133136264170,-2.47712140722515e-15,2.51517913056066,3.1415926535897927,-1.361356816555577,2.752039537077583e-16
0,0,12,12,0,53.6066568132085,-2.24796485922639e-15,6.25758956528033,2.3348126653782164,-1.5707963267948966,0.8067799882115768
0,0,24,24,0,52.4438182375668,-3.34367139540685e-15,2.67874042463559,2.2767868872244277,-1.5707963267948966,0.8648057663653655
0,12,0,0,0,52.8199704396255,-4.14712475236354e-16,21.2272313041590,2.33278948544632e-16,-1.1071487177940904,3.141592653589793
0,12,12,0,0,53.6066568132085,-1.78965176322888e-15,13.7424104347197,2.378531369423474,-1.5707963267948966,0.7630612841663191
0,12,12,12,0,53.2133136264170,-1.56049521523013e-15,17.4848208694393,2.204073920151379e-16,-1.0894363925173138,3.141592653589793
0,12,24,0,0,52.8199704396255,-3.12453008817076e-15,6.25758956528033,3.1415926535897927,-1.361356816555577,2.3715183290419584e-16
0,12,24,12,0,53.2133136264170,-2.91540402169733e-15,10.0000000000000,2.356194490192345,-1.5707963267948966,0.7853981633974483
0,12,24,24,0,52.8199704396255,-2.66621699217325e-15,13.7424104347197,2.33278948544632e-16,-1.038960311618911,3.141592653589793
0,12,36,12,0,51.6571318639838,-4.20108157098546e-15,2.67874042463560,3.1415926535897927,-1.3613568165555772,2.5002338943368997e-16
0,12,36,24,0,52.0504750507753,-3.97192502298671e-15,6.42115085935527,1.65335157783536,-1.5707963267948966,1.488241075754433
0,12,48,36,0,50.1689627119576,-4.91303972959042e-15,3.16227589345515,2.529577687131433,-1.5707963267948966,0.6120149664583603
0,12,48,48,0,49.7756195251661,-4.56803917282622e-15,6.90468632817482,3.329006941523757e-16,-1.3915450068262947,3.1415926535897927
0,12,60,48,0,47.6510077276680,-5.69761691286049e-15,0.365803576126575,0.7549486570649259,-1.5707963267948966,2.3866439965248674
0,12,60,60,0,47.2576645408765,-5.28102082128620e-15,4.10821401084624,4.1529693490939388e-16,-1.3556087911402255,3.1415926535897927
0,24,0,0,0,49.3314547127004,2.42711446471921e-16,31.9637787260932,8.931308298343261e-17,-1.1071487177940904,3.141592653589793
0,24,0,108,0,20.8432855606742,6.13494529878503e-16,38.0191260093219,2.1163900799650546e-17,1.1071487177940904,-3.141592653589793
0,24,12,0,0,51.6571318639838,-1.11219735999528e-15,24.8060804448037,1.9522682774106946e-16,-1.1251803919484136,3.141592653589793
0,24,12,12,0,50.4942932883421,-8.93056052759190e-16,28.3849295854485,6.986196907433759e-17,-1.088196008705747,3.141592653589793
0,24,24,0,0,52.4438182375668,-2.44707568493716e-15,17.3212595753644,2.450549755584126,-1.5707963267948966,0.6910428980056673
0,24,24,12,0,52.0504750507753,-2.23794961846373e-15,21.0636700100841,1.8235527121157536e-16,-1.1071487177940906,3.141592653589793
0,24,24,24,0,50.8876364751336,-1.99877782970231e-15,24.6425191507288,6.328241169473665e-17,-1.034330073599316,3.141592653589793
0,24,36,0,0,51.6571318639838,-3.70358294009687e-15,9.83643870592507,3.141592653589793,-1.3613568165555772,1.7558220810001479e-16
0,24,36,12,0,52.0504750507753,-3.53364240851452e-15,13.5788491406447,1.6776847704579603,-1.5707963267948966,1.4639078831318328
0,24,36,24,0,51.6571318639838,-3.30448586051577e-15,17.3212595753644,1.9522682774106938e-16,-1.0557177103739213,3.141592653589793
0,24,48,0,0,49.3314547127004,-4.82680372903318e-15,2.67874042463560,3.141592653589793,-1.1519173063162575,3.790834168870861e-17
0,24,48,12,0,50.4942932883421,-4.72350643056253e-15,6.25758956528033,3.1415926535897927,-1.361356816555577,1.884537646295088e-16
0,24,48,24,0,50.8876364751336,-4.53353541745486e-15,10.0000000000000,2.356194490192345,-1.5707963267948966,0.7853981633974484
0,24,48,36,0,50.4942932883421,-4.26519333456502e-15,13.7424104347197,2.332789485446321e-16,-1.4263551681660602,3.1415926535897927
0,24,48,48,0,49.3314547127004,-3.93020801856349e-15,17.3212595753644,8.931308298343261e-17,-0.8592725657128876,3.141592653589793
0,24,60,24,0,48.6127809495244,-5.63221113724724e-15,2.99871459938022,3.1415926535897927,-1.3613568165555772,2.265058854330716e-16
0,24,60,36,0,49.0061241363159,-5.40305458924849e-15,6.74112503409989,0.9787427702526641,-1.5707963267948966,2.162849883337129
0,24,60,48,0,48.6127809495244,-5.07808451400961e-15,10.4835354688196,2.948485733488128e-16,-1.3962245081162155,3.1415926535897927
0,24,60,60,0,47.4499423738827,-4.67150366319799e-15,14.0623846094643,1.207856464073942e-16,-0.7622900222467458,3.141592653589793
0,24,72,36,0,46.0948259652348,-6.38998230401991e-15,0.202242282051640,3.1415926535897927,-1.3613568165555772,2.880755102372525e-16
0,24,72,48,0,46.4881691520263,-6.10419776367212e-15,3.94465271677131,1.0709099187369728,-1.5707963267948966,2.0706827348528205
0,24,72,60,0,46.0948259652348,-5.70763215362315e-15,7.68706315149097,3.772448141058315e-16,-1.3602223020153892,3.1415926535897927
0,24,72,72,0,44.9319873895931,-5.21761729396509e-15,11.2659122921357,1.629041573024803e-16,-1.305617588003876,3.1415926535897927
0,24,84,60,0,43.4438182375668,-6.60632161954520e-15,1.73280230724451,2.5655785539708362,-1.5707963267948963,0.5760140996189568
0,24,84,84,0,41.8876364751336,-5.54468112465632e-15,9.05406188260891,2.1382783463553693e-16,-1.2611303863416068,3.1415926535897927
0,24,96,72,0,40.0061241363159,-6.88748093490850e-15,0.202242282051636,2.475900611742382,-1.5707963267948963,0.6656920418474112
0,24,96,84,0,39.6127809495244,-6.31585529967768e-15,3.94465271677131,5.89359861850813e-16,-1.403559767469322,3.1415926535897922
0,24,96,96,0,38.4499423738827,-5.63840089644408e-15,7.52350185741604,2.713310693481945e-16,-1.216922358716806,3.1415926535897927
0,36,0,0,0,43.6869176962472,8.41357065843573e-16,41.7404036237935,4.294233900667578e-17,-1.1071487177940904,3.141592653589793
0,36,0,96,0,17.0802608830387,1.01259160945960e-15,44.5368759411221,2.1163900799650555e-17,1.1071487177940904,-3.141592653589793
0,36,0,108,0,14.5623058987491,8.41357065843573e-16,41.7404036237936,4.2942339006675746e-17,1.1071487177940904,-3.141592653589793
0,36,12,0,0,47.4499423738827,-4.74366205732548e-16,35.2226536919933,5.784051955947104e-17,-1.1264675259484156,3.141592653589793
0,36,12,12,0,45.5684300350649,-2.74817665941997e-16,38.4815286578934,2.1163900799650567e-17,-1.0857741082287657,3.141592653589793
0,36,12,108,0,18.9617732218564,4.50543500911665e-16,41.2780009752220,3.9383959489251254e-18,1.3787943289511406,-3.141592653589793
0,36,24,0,0,49.7756195251661,-1.78921404914910e-15,28.0649554107038,1.3365720293688837e-16,-1.1803181378851035,3.141592653589793
0,36,24,12,0,48.6127809495244,-1.59010322343833e-15,31.6438045513486,3.8389405650376e-17,-1.1071487177940906,3.141592653589793
0,36,24,24,0,46.7312686107066,-1.37052420212245e-15,34.9026795172487,7.704085765819665e-18,-1.0253452733046187,3.141592653589793
0,36,36,0,0,50.5623058987491,-3.04572130430881e-15,20.5801345412645,2.588018294692748,-1.5707963267948966,0.5535743588970453
0,36,36,12,0,50.1689627119576,-2.87578077272646e-15,24.3225449759842,1.2078564640739425e-16,-1.1613655612811862,3.141592653589793
0,36,36,24,0,49.0061241363159,-2.65663946549037e-15,27.9013941166289,3.1809848270775063e-17,-1.0521876601900806,3.141592653589793
0,36,48,0,0,49.7756195251661,-4.18897257477044e-15,13.0953136718252,3.141592653589793,-1.361356816555577,9.318596734299648e-17
0,36,48,12,0,50.1689627119576,-4.07566003553714e-15,16.8377241065448,2.807517839205436,-1.5707963267948966,0.33407481438435693
0,36,48,24,0,49.7756195251661,-3.88568902242946e-15,20.5801345412645,1.3365720293688842e-16,-1.1071487177940906,3.141592653589793
0,36,48,36,0,48.6127809495244,-3.62736218030229e-15,24.1589836819092,3.8389405650376024e-17,-0.9701156768414042,3.141592653589793
0,36,48,48,0,46.7312686107066,-3.31196963174629e-15,27.4178586478094,7.70408576581967e-18,-0.83304360265932,3.141592653589793
0,36,60,0,0,47.4499423738827,-5.16900229408658e-15,5.93761539053571,3.141592653589793,-1.1519173063162575,-1.3015335644347963e-17
0,36,60,12,0,48.6127809495244,-5.13730053042602e-15,9.51646453118045,3.141592653589793,-1.3613568165555772,1.0605752387249074e-16
0,36,60,24,0,49.0061241363159,-5.00395750966739e-15,13.2588749659001,0.7715663236475413,-1.5707963267948966,2.370026329942252
0,36,60,36,0,48.6127809495244,-4.77480096166863e-15,17.0012854006198,1.717093237404508e-16,-1.4403631417393146,3.1415926535897927
0,36,60,48,0,47.4499423738827,-4.45984612719242e-15,20.5801345412645,5.784051955947098e-17,-0.8731568333091396,3.141592653589793
0,36,60,60,0,45.5684300350649,-4.07285804382634e-15,23.8390095071646,2.1163900799650564e-17,-0.7297276562269664,3.141592653589793
0,36,72,12,0,45.5684300350649,-6.01430347345017e-15,2.67874042463560,3.141592653589793,-1.1519173063162575,-6.435778264747058e-18
0,36,72,24,0,46.7312686107066,-5.96257122826429e-15,6.25758956528033,3.1415926535897927,-1.3613568165555772,1.441096446760532e-16
0,36,72,36,0,47.1246117974981,-5.79004267261457e-15,10.0000000000000,2.356194490192345,-1.5707963267948966,0.7853981633974483
0,36,72,48,0,46.7312686107066,-5.50425813226678e-15,13.7424104347197,2.3327894854463195e-16,-1.4101030241271963,3.1415926535897927
0,36,72,60,0,45.5684300350649,-5.11770776298048e-15,17.3212595753644,8.931308298343265e-17,-0.7738351042300283,3.141592653589793
0,36,72,72,0,43.6869176962472,-4.64728567076795e-15,20.5801345412645,4.294233900667578e-17,-0.6360983353534402,3.141592653589793
0,36,84,36,0,44.2133136264170,-6.62871637870154e-15,3.46111724795175,3.1415926535897927,-1.361356816555577,2.0567926948023412e-16
0,36,84,48,0,44.6066568132085,-6.39955983070279e-15,7.20352768267142,2.234085450875415,-1.5707963267948966,0.907507202714378
0,36,84,60,0,44.2133136264170,-6.04217975554491e-15,10.9459381173911,3.1567518930165054e-16,-1.3739138620940134,3.1415926535897927
0,36,84,84,0,41.1689627119576,-5.01014726886423e-15,17.7836622239359,7.20875781327072e-17,-0.5566772437549821,3.141592653589793
0,36,96,48,0,41.1689627119576,-7.10662224214459e-15,1.24926683842495,3.1415926535897927,-1.361356816555577,2.880755102372523e-16
0,36,96,60,0,41.5623058987491,-6.80587015933575e-15,4.99167727314461,2.8051408964916575,-1.5707963267948963,0.3364517570981356
0,36,96,72,0,41.1689627119576,-6.36505607533143e-15,8.73408770786428,4.1529693490939437e-16,-1.3336719047043637,3.1415926535897927
0,36,96,84,0,40.0061241363159,-5.80344568086327e-15,12.3129368485090,1.8235527121157546e-16,-1.2658277991436242,3.1415926535897927
0,36,96,96,0,38.1246117974981,-5.14558404507521e-15,15.5718118144091,1.0732583137356335e-16,-0.4921202987540081,3.141592653589793
0,36,108,72,0,38.1246117974981,-6.99121594745893e-15,3.46111724795175,2.0344439357957027,-1.5707963267948966,1.1071487177940904
0,36,108,84,0,37.7312686107066,-6.45877584711919e-15,7.20352768267142,5.277902370466315e-16,-1.2914375552738564,3.1415926535897927
0,36,108,96,0,36.5684300350649,-5.80135192541092e-15,10.7823768233162,2.3985850592423283e-16,-1.221479645407951,3.1415926535897927
0,36,108,108,0,34.6869176962472,-5.04767676238274e-15,14.0412517892163,1.4711701797071923e-16,-1.1414515590565981,3.1415926535897927
0,48,0,0,0,36.1330527433783,1.35506069669167e-15,50.1298205757793,2.1163900799650558e-17,-1.1071487177940904,3.141592653589793
0,48,0,84,0,12.0443509144594,1.35506069669167e-15,50.1298205757793,2.1163900799650555e-17,1.1071487177940904,-3.141592653589793
0,48,0,96,0,9.52639593016984,1.18382615307564e-15,47.3333482584507,4.294233900667577e-17,1.1071487177940904,-3.141592653589793
0,48,0,108,0,7.64488359135208,9.84277613285085e-16,44.0744732925506,8.931308298343258e-17,1.1071487177940904,-3.141592653589793
0,48,12,0,0,41.1689627119576,9.59654174645852e-17,44.5368759411221,1.379709988064436e-17,-1.1289901058561307,3.141592653589793
0,48,12,12,0,38.6510077276679,2.67199961080617e-16,47.3333482584507,-1.8883242115561537e-18,-1.08136500576957,3.141592653589793
0,48,12,96,0,14.5623058987491,7.25513057078126e-16,47.3333482584507,-1.8883242115561518e-18,1.385381406391988,-3.141592653589793
0,48,12,108,0,12.0443509144594,6.50092040702215e-16,44.5368759411221,1.3797099880644342e-17,1.328418618605111,-3.141592653589793
0,48,24,0,0,44.9319873895931,-1.17969689106088e-15,38.0191260093219,1.572200866438492e-17,-1.185674620997912,3.141592653589793
0,48,24,12,0,43.0504750507753,-1.00017883279566e-15,41.2780009752220,-7.981338326380856e-18,-1.1071487177940904,3.141592653589793
0,48,24,24,0,40.5325200664857,-8.08913807654300e-16,44.0744732925506,-1.9113829062281577e-17,-1.0091794156591756,3.141592653589793
0,48,24,108,0,16.4438182375668,1.83495430055513e-16,44.0744732925506,-1.911382906228158e-17,1.4533059517751086,3.141592653589793
0,48,36,0,0,47.2576645408764,-2.41617366469527e-15,30.8614277280324,5.126096217987007e-17,-1.274987158121463,3.141592653589793
0,48,36,12,0,46.0948259652348,-2.25624837387558e-15,34.4402768686772,-3.7291052447101166e-18,-1.16530256877486,3.141592653589793
0,48,36,24,0,44.2133136264170,-2.05669983408503e-15,37.6991518345773,-2.144115336021176e-17,-1.0453228064185323,3.141592653589793
0,48,48,0,0,48.0443509144595,-3.55942493515690e-15,23.3766068585931,2.8154135836976093,-1.5707963267948966,0.32617906989218404
0,48,48,12,0,47.6510077276679,-3.44611239592360e-15,27.1190172933128,3.838940565037598e-17,-1.2546744302407467,3.141592653589793
0,48,48,24,0,46.4881691520263,-3.26615662357859e-15,30.6978664339575,-1.030866262431104e-17,-1.1071487177940904,3.141592653589793
0,48,48,36,0,44.6066568132085,-3.02742254889695e-15,33.9567413998576,-2.5994086716511547e-17,-0.9540177160466936,3.141592653589793
0,48,48,48,0,42.0887018289189,-2.74034399651547e-15,36.7532137171862,-3.3360887635517745e-17,-0.7881675296330466,3.141592653589793
0,48,60,0,0,47.2576645408764,-4.55948513599836e-15,15.8917859891538,3.141592653589793,-1.3613568165555772,-6.4357782647470215e-18
0,48,60,12,0,47.6510077276680,-4.51776813157514e-15,19.6341964238734,0.21856419482485923,-1.5707963267948966,2.923028458764934
0,48,60,24,0,47.2576645408764,-4.38442511081651e-15,23.3766068585931,5.126096217986998e-17,-1.196220892874981,3.141592653589793
0,48,60,36,0,46.0948259652348,-4.16528380358042e-15,26.9554559992378,-3.729105244710138e-18,-1.0198408317424308,3.141592653589793
0,48,60,48,0,44.2133136264170,-3.86992173654975e-15,30.2143309651380,-2.1441153360211777e-17,-0.8480345691453577,3.141592653589793
0,48,60,60,0,41.6953586421274,-3.51124764935818e-15,33.0108032824665,-2.9759776533406075e-17,-0.675820142052647,3.141592653589793
0,48,72,0,0,44.9319873895931,-5.37264683762161e-15,8.73408770786429,3.141592653589793,-1.1519173063162575,-7.051857035700553e-17
0,48,72,12,0,46.0948259652348,-5.42437908280750e-15,12.3129368485090,3.141592653589793,-1.3613568165555772,6.435778264747049e-18
0,48,72,24,0,46.4881691520263,-5.36263159685895e-15,16.0553472832287,0.5612153175950547,-1.5707963267948966,2.580377335994738
0,48,72,36,0,46.0948259652348,-5.19010304120924e-15,19.7977577179484,8.931308298343255e-17,-1.1071487177940906,3.141592653589793
0,48,72,48,0,44.9319873895931,-4.91433374162410e-15,23.3766068585931,1.572200866438489e-17,-0.9161604243358186,3.141592653589793
0,48,72,60,0,43.0504750507753,-4.54737613978335e-15,26.6354818244932,-7.981338326380863e-18,-0.7418952880403381,3.141592653589793
0,48,72,72,0,40.5325200664857,-4.10526804374534e-15,29.4319541418218,-1.9113829062281583e-17,-0.5781035548284298,3.141592653589793
0,48,84,0,0,41.1689627119576,-5.96337097168296e-15,2.21633777606406,3.141592653589793,-0.9424777960769379,-1.0229183405559618e-16
0,48,84,12,0,43.0504750507753,-6.12632200064980e-15,5.47521274196418,3.141592653589793,-1.1519173063162575,-6.393901297740462e-17
0,48,84,24,0,44.2133136264170,-6.15802376431035e-15,9.05406188260891,3.141592653589793,-1.3613568165555772,4.448789906830953e-17
0,48,84,36,0,44.6066568132085,-6.05709074347072e-15,12.7964723173286,2.517419969760606,-1.5707963267948966,0.6241726838291871
0,48,84,48,0,44.2133136264170,-5.82793419547197e-15,16.5388827520482,1.5088270778761369e-16,-1.4326895892634208,3.1415926535897927
0,48,84,60,0,43.0504750507753,-5.48056936107675e-15,20.1177318926930,4.7194572088346543e-17,-0.8096258072316492,3.141592653589793
0,48,84,84,0,38.6510077276680,-4.49644363801613e-15,26.1730791759217,-1.888324211556159e-18,-0.49821909853077534,3.141592653589793
0,48,96,24,0,40.5325200664857,-6.73583915873801e-15,2.67874042463560,3.141592653589793,-1.1519173063162575,-4.448789906830961e-17
0,48,96,36,0,41.6953586421274,-6.72835538750749e-15,6.25758956528033,3.1415926535897927,-1.361356816555577,1.0605752387249051e-16
0,48,96,48,0,42.0887018289189,-6.57079437431882e-15,10.0000000000000,2.356194490192345,-1.5707963267948966,0.7853981633974483
0,48,96,60,0,41.6953586421274,-6.27004229150998e-15,13.7424104347197,2.3327894854463225e-16,-1.3962245081162155,3.1415926535897927
0,48,96,72,0,40.5325200664857,-5.83924344826832e-15,17.3212595753644,8.931308298343265e-17,-0.7107184653296833,3.141592653589793
0,48,96,84,0,38.6510077276680,-5.29722582124570e-15,20.5801345412645,4.294233900667578e-17,-0.5643103377712347,3.141592653589793
0,48,96,96,0,36.1330527433783,-4.66767818163216e-15,23.3766068585931,2.1163900799650558e-17,-0.43523025087442324,3.141592653589793
0,48,108,36,0,37.4881691520263,-7.17455948728998e-15,0.466890015108799,3.141592653589793,-1.1519173063162575,-1.3015335644347997e-17
0,48,108,48,0,38.6510077276680,-7.11044772371042e-15,4.04573915575354,3.1415926535897927,-1.3613568165555772,1.88453764629509e-16
0,48,108,60,0,39.0443509144595,-6.88129117571166e-15,7.78814959047320,2.212527587229747,-1.5707963267948966,0.929065066360046
0,48,108,72,0,38.6510077276680,-6.49710508405638e-15,11.5305600251929,3.329006941523755e-16,-1.3556087911402255,3.1415926535897927
0,48,108,84,0,37.4881691520263,-5.97468022447930e-15,15.1094091658376,1.4023676031648915e-16,-1.2797956516069384,3.1415926535897927
0,48,108,96,0,35.6066568132085,-5.33684907021657e-15,18.3682841317377,7.818059224753183e-17,-0.49821909853077523,3.141592653589793
0,48,108,108,0,33.0887018289189,-4.61148790336291e-15,21.1647564490663,4.903535312150045e-17,-0.3866267883064987,3.141592653589793
0,48,120,60,0,35.2133136264170,-7.28760150434462e-15,2.51517913056067,3.1415926535897927,-1.3613568165555772,2.8807551023725264e-16
0,60,0,0,0,27.0000000000000,1.76137102532463e-15,56.7653718043597,9.472675957626139e-18,-1.1071487177940904,3.141592653589793
0,60,0,72,0,5.95564908554056,1.62593424911364e-15,54.5535213948329,2.116390079965054e-17,1.1071487177940904,-3.141592653589793
0,60,12,0,0,33.0887018289189,5.73871280907635e-16,52.3416709853061,-6.707551522199349e-18,-1.1336146649744137,3.141592653589793
0,60,12,12,0,30.0443509144595,7.09308057118623e-16,54.5535213948329,-1.4444088471005102e-17,-1.0727991280218163,3.141592653589793
0,60,12,96,0,6.48204501571040,8.60949833289114e-16,49.5451986679775,7.704085765819646e-18,1.3337471366251066,-3.141592653589793
0,60,24,0,0,38.1246117974981,-6.45163035268794e-16,46.7487263506489,-2.1441153360211743e-17,-1.196220892874981,3.141592653589793
0,60,24,12,0,35.6066568132085,-4.93958973178089e-16,49.5451986679775,-2.9759776533406057e-17,-1.1071487177940904,3.141592653589793
0,60,24,24,0,32.5623058987491,-3.38491715441774e-16,51.7570490775043,-3.422542705294227e-17,-0.9784844913614825,3.141592653589793
0,60,24,96,0,11.5179549842896,3.26853691576810e-16,49.5451986679775,-2.975977653340607e-17,1.4533059517751086,3.141592653589793
0,60,24,108,0,9.00000000000001,3.47246202441020e-16,46.7487263506489,-2.1441153360211768e-17,1.5596264939209186,3.141592653589793
0,60,36,0,0,41.8876364751336,-1.84245427401210e-15,40.2309764188487,-3.5201668668671675e-17,-1.2876692107140153,3.141592653589793
0,60,36,12,0,40.0061241363159,-1.70212175063795e-15,43.4898513847488,-4.321959156723695e-17,-1.1730430786474124,3.141592653589793
0,60,36,24,0,37.4881691520263,-1.53088720702192e-15,46.2863237020774,-4.698528138413148e-17,-1.032920116785792,3.141592653589793
0,60,36,108,0,13.3994673231074,-1.75978400554721e-16,46.2863237020774,-4.698528138413148e-17,1.1700804617587046,3.141592653589793
0,60,48,0,0,44.2133136264170,-2.96567506294841e-15,33.0732781375592,-4.8360783427873505e-17,-1.4104461405842506,3.141592653589793
0,60,48,12,0,43.0504750507753,-2.86237776447776e-15,36.6521272782040,-5.4652782577766706e-17,-1.265759683183659,3.141592653589793
0,60,48,24,0,41.1689627119576,-2.70201475957829e-15,39.9110022441041,-5.667940660106785e-17,-1.1071487177940906,3.141592653589793
0,60,48,36,0,38.6510077276680,-2.49159468107118e-15,42.7074745614327,-5.763122885525597e-17,-0.9255300557425883,3.141592653589793
0,60,48,48,0,35.6066568132085,-2.24031389609474e-15,44.9193249709595,-5.814219148157351e-17,-0.7107184653296834,3.141592653589793
0,60,60,0,0,45.0000000000000,-3.96573526378987e-15,25.5884572681199,3.141592653589793,-1.5707963267948966,9.284500446807406e-17
0,60,60,12,0,44.6066568132085,-3.92401825936665e-15,29.3308677028396,-6.123233995736761e-17,-1.3887548593248793,3.141592653589793
0,60,60,24,0,43.4438182375668,-3.80069047937067e-15,32.9097168434843,-6.123233995736764e-17,-1.2027830195480034,3.141592653589793
0,60,60,36,0,41.5623058987491,-3.60114193958012e-15,36.1685918093844,-6.123233995736765e-17,-1.0091794156591756,3.141592653589793
0,60,60,48,0,39.0443509144595,-3.33409386872397e-15,38.9650641267130,-6.123233995736764e-17,-0.8048579277894634,3.141592653589793
0,60,60,60,0,36.0000000000000,-3.01121754893745e-15,41.1769145362398,-6.123233995736765e-17,-0.5880026035475676,3.141592653589793
0,60,72,0,0,44.2133136264170,-4.79892744693844e-15,18.1036363986806,3.141592653589793,-1.361356816555577,-1.1892908040198474e-16
0,60,72,12,0,44.6066568132085,-4.84064445136167e-15,21.8460468334002,3.118673358905461,-1.5707963267948966,0.022919294684332004
0,60,72,24,0,44.2133136264170,-4.77889696541312e-15,25.5884572681199,-4.8360783427873486e-17,-1.3257002313094577,3.141592653589793
0,60,72,36,0,43.0504750507753,-4.61638365052606e-15,29.1673064087646,-5.46527825777667e-17,-1.1071487177940906,3.141592653589793
0,60,72,48,0,41.1689627119576,-4.36020711838648e-15,32.4261813746647,-5.667940660106784e-17,-0.8947680715994032,3.141592653589793
0,60,72,60,0,38.6510077276680,-4.02156351272024e-15,35.2226536919933,-5.763122885525596e-17,-0.6888053253749667,3.141592653589793
0,60,72,72,0,35.6066568132085,-3.61525318408727e-15,37.4345041015201,-5.81421914815735e-17,-0.4884191305521185,3.141592653589793
0,60,84,0,0,41.8876364751336,-5.42883711589087e-15,10.9459381173911,3.141592653589793,-1.1519173063162573,-1.3208819516118664e-16
0,60,84,12,0,43.0504750507753,-5.57219537741217e-15,14.5247872580358,3.141592653589793,-1.361356816555577,-1.0605752387249065e-16
0,60,84,24,0,43.4438182375668,-5.59388190031006e-15,18.2671976927555,3.080204904053616,-1.5707963267948963,0.06138774953617672
0,60,84,36,0,43.0504750507753,-5.49294887947043e-15,22.0096081274752,-1.0308662624310896e-17,-1.2279093183864338,3.141592653589793
0,60,84,48,0,41.8876364751336,-5.27380757223434e-15,25.5884572681199,-3.520166866867165e-17,-0.9922276052986331,3.141592653589793
0,60,84,60,0,40.0061241363159,-4.94603550528466e-15,28.8473322340200,-4.321959156723693e-17,-0.7798440924233524,3.141592653589793
0,60,84,84,0,34.4438182375668,-4.02602154580361e-15,33.8556549608754,-4.900680037076082e-17,-0.41157201688293216,3.141592653589793
0,60,96,0,0,38.1246117974981,-5.82793419547197e-15,4.42818818559086,3.141592653589793,-0.9424777960769377,-1.458487104696466e-16
0,60,96,12,0,40.0061241363159,-6.08669875167893e-15,7.68706315149097,3.141592653589793,-1.1519173063162573,-1.2550863778158572e-16
0,60,96,24,0,41.1689627119576,-6.21002653167490e-15,11.2659122921357,3.141592653589793,-1.361356816555577,-6.800540306892818e-17
0,60,96,36,0,41.5623058987491,-6.19252751968171e-15,15.0083227268554,3.059214814160296,-1.5707963267948963,0.08237783942949724
0,60,96,48,0,41.1689627119576,-6.03496650649304e-15,18.7507331615750,5.126096217987033e-17,-1.1071487177940906,3.141592653589793
0,60,96,60,0,40.0061241363159,-5.74422966444687e-15,22.3295823022198,-3.7291052447099964e-18,-0.87315683330914,3.141592653589793
0,60,96,72,0,38.1246117974981,-5.33302358865075e-15,25.5884572681199,-2.1441153360211694e-17,-0.675820142052647,3.141592653589793
0,60,96,84,0,35.6066568132085,-4.81931995780265e-15,28.3849295854485,-2.9759776533406026e-17,-0.5057801048930352,3.141592653589793
0,60,96,96,0,32.5623058987491,-4.22557008559416e-15,30.5967799949753,-3.422542705294224e-17,-0.3536163533897593,3.141592653589793
0,60,108,12,0,35.6066568132085,-6.36166830784539e-15,1.63171586826228,3.141592653589793,-0.9424777960769378,-1.4129577711334677e-16
0,60,108,24,0,37.4881691520263,-6.60040238252702e-15,4.89059083416239,3.141592653589793,-1.1519173063162575,-1.0605752387249067e-16
0,60,108,36,0,38.6510077276680,-6.68454462763191e-15,8.46943997480713,3.141592653589793,-1.361356816555577,-6.435778264747093e-18
0,60,108,48,0,39.0443509144595,-6.61041762328969e-15,12.2118504095268,2.5570094225914843,-1.5707963267948966,0.5845832309983086
0,60,108,60,0,38.6510077276680,-6.38126107529093e-15,15.9542608442465,1.3365720293688857e-16,-1.4263551681660602,3.1415926535897927
0,60,108,72,0,37.4881691520263,-6.00709022439831e-15,19.5331099848912,3.838940565037605e-17,-0.7622900222467458,3.141592653589793
0,60,108,84,0,35.6066568132085,-5.50425813226678e-15,22.7919849507913,7.704085765819691e-18,-0.5880026035475675,3.141592653589793
0,60,108,96,0,33.0887018289189,-4.89474097417856e-15,25.5884572681199,-6.7075515221993365e-18,-0.4411089403237744,3.141592653589793
0,60,108,108,0,30.0443509144595,-4.20517757472995e-15,27.8003076776467,-1.4444088471005083e-17,-0.31035131605215166,3.141592653589793
0,60,120,36,0,34.4438182375668,-6.94749669474358e-15,2.67874042463560,3.141592653589793,-1.1519173063162575,-7.458496044852907e-17
0,60,120,48,0,35.6066568132085,-6.97501094749943e-15,6.25758956528033,3.1415926535897927,-1.3613568165555772,7.596046249227132e-17
0,60,120,60,0,36.0000000000000,-6.82928840834712e-15,10.0000000000000,2.356194490192345,-1.5707963267948966,0.7853981633974483
0,72,0,0,0,16.6869176962472,2.04253034068793e-15,61.3570518799383,3.1511524095198662e-18,-1.1071487177940904,3.141592653589793
0,72,0,96,0,-6.48204501571039,1.22344940204650e-15,47.9804450213452,2.332789485446319e-16,1.1071487177940904,-3.141592653589793
0,72,0,108,0,-6.87538820250189,9.94292854047749e-16,44.2380345866255,0.32175055439664213,1.5707963267948963,-2.819842099193151
0,72,0,120,0,-6.48204501571039,7.65136306048994e-16,40.4956241519059,3.1415926535897927,1.3613568165555774,-2.8807551023725303e-16
0,72,12,0,0,23.5623058987491,9.38464605117378e-16,58.2959318295526,-1.7534236946799247e-17,-1.1427196571864822,3.141592653589793
0,72,12,12,0,20.1246117974981,1.03218437690515e-15,59.8264918547454,-2.1441153360211755e-17,-1.0521876601900808,3.141592653589793
0,72,24,0,0,29.6510077276680,-2.08974176248964e-16,53.8722310104990,-3.8180114946160955e-17,-1.2157166911780832,3.141592653589793
0,72,24,12,0,26.6066568132085,-9.35678815633024e-17,56.0840814200258,-4.145100137543049e-17,-1.1071487177940904,3.141592653589793
0,72,24,24,0,23.1689627119576,2.01823717497911e-17,57.6146414452186,-4.3219591567236964e-17,-0.9085113218249624,3.141592653589793
0,72,36,0,0,34.6869176962472,-1.34963742264323e-15,48.2792863758418,-6.123233995736766e-17,-1.3127487599063212,3.141592653589793
0,72,36,12,0,32.1689627119576,-1.23761889544361e-15,51.0757586931704,-6.123233995736766e-17,-1.187316248049381,3.141592653589793
0,72,36,24,0,29.1246117974981,-1.10218211923262e-15,53.2876091026972,-6.123233995736766e-17,-1.0091794156591756,3.141592653589793
0,72,36,96,0,8.08026088303866,-1.65963159792058e-16,51.0757586931704,-6.123233995736766e-17,1.187316248049381,3.141592653589793
0,72,48,0,0,38.4499423738827,-2.43367267668846e-15,41.7615364440416,-9.270490338132926e-17,-1.4338407267404663,3.141592653589793
0,72,48,12,0,36.5684300350649,-2.34996814566335e-15,45.0204114099417,-8.301077816439288e-17,-1.2876692107140153,3.141592653589793
0,72,48,24,0,34.0504750507753,-2.21791913693840e-15,47.8168837272703,-7.845784480809308e-17,-1.1071487177940906,3.141592653589793
0,72,48,36,0,31.0061241363159,-2.04329682583633e-15,50.0287341367971,-7.601371327518622e-17,-0.8731568333091397,3.141592653589793
0,72,48,48,0,27.5684300350649,-1.83373304528312e-15,51.5592941619899,-7.469215499119856e-17,-0.5669347154752993,3.141592653589793
0,72,48,108,0,9.96177322185643,-6.12167259574551e-16,47.8168837272703,-7.845784480809308e-17,0.9540177160466934,3.141592653589793
0,72,60,0,0,40.7756195251661,-3.41370239600459e-15,34.6038381627521,-1.6085408556511125e-16,-1.5596264939209188,-3.141592653589793
0,72,60,12,0,39.6127809495244,-3.38200063234403e-15,38.1826873033968,-1.1215601729042427e-16,-1.4104461405842506,3.141592653589793
0,72,60,24,0,37.7312686107066,-3.27826561979360e-15,41.4415622692970,-9.647059319822377e-17,-1.2157166911780832,3.141592653589793
0,72,60,36,0,35.2133136264170,-3.10703107617757e-15,44.2380345866255,-8.910379227921757e-17,-0.9900642021186594,3.141592653589793
0,72,60,48,0,32.1689627119576,-2.87578077272646e-15,46.4498849961523,-8.514910438599888e-17,-0.7297276562269663,3.141592653589793
0,72,60,60,0,28.7312686107066,-2.59462145736316e-15,47.9804450213452,-8.301077816439287e-17,-0.44110894032377457,3.141592653589793
0,72,60,120,0,11.1246117974981,-9.14742575657084e-16,44.2380345866255,-8.910379227921757e-17,0.7881675296330465,3.141592653589793
0,72,72,0,0,41.5623058987491,-4.24689457915317e-15,27.1190172933128,-2.7767288254763103,-1.5707963267948966,-0.3648638281134833
0,72,72,12,0,41.1689627119576,-4.28861158357639e-15,30.8614277280324,-1.737256420946054e-16,-1.5596264939209188,3.141592653589793
0,72,72,24,0,40.0061241363159,-4.23687933839050e-15,34.4402768686772,-1.1873557467002522e-16,-1.3423978819437665,3.141592653589793
0,72,72,36,0,38.1246117974981,-4.09395879094899e-15,37.6991518345773,-1.0102352655452357e-16,-1.1071487177940906,3.141592653589793
0,72,72,48,0,35.6066568132085,-3.86609625498392e-15,40.4956241519059,-9.270490338132925e-17,-0.8575024740566783,3.141592653589793
0,72,72,60,0,32.5623058987491,-3.56325041672273e-15,42.7074745614327,-8.823925286179304e-17,-0.6017262146976414,3.141592653589793
0,72,72,72,0,29.1246117974981,-3.19865709251298e-15,44.2380345866255,-8.582464572709927e-17,-0.3504054128473161,3.141592653589793
0,72,84,0,0,40.7756195251661,-4.89683472963092e-15,19.6341964238734,-3.141592653589793,-1.361356816555577,-2.3937744196256546e-16
0,72,84,12,0,41.1689627119576,-5.03017775038955e-15,23.3766068585931,-2.966000735097487,-1.5707963267948966,-0.17559191849230651
0,72,84,24,0,40.7756195251661,-5.05186427328745e-15,27.1190172933128,-1.608540855651113e-16,-1.4937335493937152,3.141592653589793
0,72,84,36,0,39.6127809495244,-4.96094649321048e-15,30.6978664339575,-1.121560172904243e-16,-1.2369079256459201,3.141592653589793
0,72,84,48,0,37.7312686107066,-4.76139795341993e-15,33.9567413998576,-9.647059319822375e-17,-0.9784844913614825,3.141592653589793
0,72,84,60,0,35.2133136264170,-4.46193988264477e-15,36.7532137171862,-8.910379227921758e-17,-0.7297276562269666,3.141592653589793
0,72,84,84,0,28.7312686107066,-3.61944069499198e-15,40.4956241519059,-8.301077816439287e-17,-0.2862261660895481,3.141592653589793
0,72,96,0,0,38.4499423738827,-5.33511734410310e-15,12.4764981425840,3.141592653589793,-1.1519173063162573,-1.950333220091098e-16
0,72,96,12,0,39.6127809495244,-5.57428913286452e-15,16.0553472832287,-3.141592653589793,-1.361356816555577,-2.2650588543307133e-16
0,72,96,24,0,40.0061241363159,-5.68760167209783e-15,19.7977577179484,-3.0674143493796535,-1.5707963267948963,-0.07417830421014003
0,72,96,36,0,39.6127809495244,-5.67010266010464e-15,23.5401681526680,-1.2280196476154878e-16,-1.3887548593248795,3.141592653589793
0,72,96,48,0,38.4499423738827,-5.52255688767863e-15,27.1190172933128,-9.270490338132923e-17,-1.1071487177940906,3.141592653589793
0,72,96,60,0,36.5684300350649,-5.25141281307800e-15,30.3778922592129,-8.301077816439285e-17,-0.8480345691453579,3.141592653589793
0,72,96,72,0,34.0504750507753,-4.86852073345640e-15,33.1743645765414,-7.845784480809308e-17,-0.6190846284272266,3.141592653589793
0,72,96,84,0,31.0061241363159,-4.39061487001335e-15,35.3862149860683,-7.601371327518621e-17,-0.41868033922312403,3.141592653589793
0,72,96,96,0,27.5684300350649,-3.83858200222807e-15,36.9167750112611,-7.469215499119855e-17,-0.24068153810213783,3.141592653589793
0,72,108,0,0,34.6869176962472,-5.54258736920396e-15,5.95874821078373,3.141592653589793,-0.9424777960769379,-1.884537646295089e-16
0,72,108,12,0,36.5684300350649,-5.89716545265104e-15,9.21762317668384,3.141592653589793,-1.1519173063162575,-1.884537646295089e-16
0,72,108,24,0,37.7312686107066,-6.11630675988713e-15,12.7964723173286,3.141592653589793,-1.3613568165555772,-1.8845376462950889e-16
0,72,108,36,0,38.1246117974981,-6.19043376422936e-15,16.5388827520482,3.141592653589793,-1.5707963267948966,-1.240702722626214e-16
0,72,108,48,0,37.7312686107066,-6.11630675988713e-15,20.2812931867679,-6.123233995736764e-17,-1.2546744302407467,3.141592653589793
0,72,108,60,0,36.5684300350649,-5.89716545265104e-15,23.8601423274126,-6.123233995736766e-17,-0.9701156768414043,3.141592653589793
0,72,108,72,0,34.6869176962472,-5.54258736920396e-15,27.1190172933128,-6.123233995736766e-17,-0.7297276562269664,3.141592653589793
0,72,108,84,0,32.1689627119576,-5.06806927324695e-15,29.9154896106413,-6.123233995736765e-17,-0.5294049916768735,3.141592653589793
0,72,108,96,0,29.1246117974981,-4.49434988256378e-15,32.1273400201681,-6.123233995736765e-17,-0.35893280675142447,3.141592653589793
0,72,108,108,0,25.6869176962472,-3.84650348753838e-15,33.6579000453610,-6.123233995736766e-17,-0.20808917116663267,3.141592653589793
0,72,120,0,0,29.6510077276680,-5.51017736928496e-15,0.365803576126575,3.141592653589793,-0.7330382858376185,-1.9205487573162059e-16
0,72,120,12,0,32.1689627119576,-5.98469546524197e-15,3.16227589345516,3.141592653589793,-0.942477796076938,-1.8390083127320911e-16
0,72,120,24,0,34.0504750507753,-6.31924306716372e-15,6.42115085935527,3.141592653589793,-1.1519173063162575,-1.6900265072041386e-16
0,72,120,36,0,35.2133136264170,-6.49919883950873e-15,10.0000000000000,3.141592653589793,-1.3613568165555772,-1.268841398253278e-16
0,72,120,48,0,35.6066568132085,-6.51669785150192e-15,13.7424104347197,0.10612857054858088,-1.5707963267948966,3.0354640830412123
0,72,120,60,0,35.2133136264170,-6.37097531234961e-15,17.4848208694393,2.1163900799650503e-17,-1.1071487177940906,3.141592653589793
0,72,120,120,0,23.1689627119576,-3.64285894400335e-15,30.8614277280324,-4.3219591567236976e-17,-0.1846452438008859,3.141592653589793
0,84,0,48,0,-8.28132623682392,1.90918731992930e-15,59.1793950918509,2.1163900799650555e-17,1.1071487177940904,-3.141592653589793
0,84,0,60,0,-10.7992812211135,1.73795277631327e-15,56.3829227745224,4.2942339006675746e-17,1.1071487177940904,-3.141592653589793
0,84,0,72,0,-12.6807935599313,1.53840423652272e-15,53.1240478086222,8.931308298343258e-17,1.1071487177940904,-3.141592653589793
0,84,0,84,0,-13.8436321355730,1.31926292928662e-15,49.5451986679775,2.332789485446319e-16,1.1071487177940904,-3.141592653589793
0,84,0,96,0,-14.2369753223645,1.09010638128787e-15,45.8027882332578,2.1303037752271994,1.5707963267948966,-1.011288878362594
0,84,0,108,0,-13.8436321355730,8.60949833289114e-16,42.0603777985382,3.1415926535897927,1.3613568165555772,-2.8807551023725274e-16
0,84,0,120,0,-12.6807935599313,6.41808526053023e-16,38.4815286578934,3.141592653589793,1.1519173063162578,-1.375300872964524e-16
0,84,12,0,0,13.0061241363159,1.17381091231297e-15,62.1394287032544,-2.318021915380514e-17,-1.16530256877486,3.141592653589793
0,84,12,12,0,9.32533057638458,1.22171767593303e-15,62.9218055265706,-2.4843279427254958e-17,-0.9540177160466937,3.141592653589793
0,84,12,72,0,-7.11848766118224,1.04429337312016e-15,55.6005459512062,3.3728484681344644e-19,1.3127487599063212,-3.141592653589793
0,84,12,96,0,-10.1628385756417,8.13043069669054e-16,48.7628218446614,1.1283058698405121e-16,1.291980550541423,-3.141592653589793
0,84,12,108,0,-10.5561817624332,6.79700048910420e-16,45.0204114099417,0.2751607848153694,1.5707963267948966,-2.866431868774424
0,84,12,120,0,-10.1628385756417,5.42169517247078e-16,41.2780009752220,3.141592653589793,1.3613568165555774,-1.7558220810001503e-16
0,84,24,0,0,19.8815123388178,1.09806139793072e-16,59.0783086528687,-4.645096663954909e-17,-1.2546744302407469,3.141592653589793
0,84,24,12,0,16.4438182375668,1.83495430055513e-16,60.6088686780616,-4.7772524923536766e-17,-1.1071487177940906,3.141592653589793
0,84,24,24,0,12.7630246776355,2.51432675200899e-16,61.3912455013777,-4.836078342787356e-17,-0.6457551293432865,3.141592653589793
0,84,24,108,0,-6.72514447439074,3.76854210649224e-16,47.2322618194685,3.3728484681340546e-19,1.4937335493937152,-3.141592653589793
0,84,36,0,0,25.9702141677367,-9.59261571791106e-16,54.6546078338151,-7.187828742849215e-17,-1.359421284598738,3.141592653589793
0,84,36,12,0,22.9258632532772,-8.83040811996526e-16,56.8664582433419,-7.036773106818034e-17,-1.2157166911780832,3.141592653589793
0,84,36,24,0,19.4881691520263,-7.89321040208759e-16,58.3970182685348,-6.955096313056198e-17,-0.9540177160466935,3.141592653589793
0,84,48,0,0,31.0061241363159,-1.98666883348729e-15,49.0616631991579,-1.0383739411722999e-16,-1.4800235270484616,3.141592653589793
0,84,48,12,0,28.4881691520263,-1.93127829863671e-15,51.8581355164865,-9.493051243969887e-17,-1.3284186186051112,3.141592653589793
0,84,48,24,0,25.4438182375668,-1.83502705731680e-15,54.0699859260133,-9.01490696501175e-17,-1.1071487177940906,3.141592653589793
0,84,48,36,0,22.0061241363159,-1.70212175063795e-15,55.6005459512062,-8.756371152069267e-17,-0.7622900222467459,3.141592653589793
0,84,48,48,0,18.3253305763846,-1.53837097825245e-15,56.3829227745224,-8.64129042314361e-17,-0.26634308605170554,3.141592653589793
0,84,60,0,0,34.7691488139514,-2.92751301791235e-15,42.5439132673577,-1.5427452818551033e-16,-1.5235134553790386,-3.141592653589793
0,84,60,12,0,32.8876364751336,-2.91540402169733e-15,45.8027882332578,-1.256158323242552e-16,-1.4533059517751086,3.141592653589793
0,84,60,24,0,30.3696814908440,-2.83998300532142e-15,48.5992605505864,-1.121560172904243e-16,-1.2396692506293352,3.141592653589793
0,84,60,36,0,27.3253305763846,-2.70454622911043e-15,50.8111109601132,-1.0493044296793606e-16,-0.9540177160466936,3.141592653589793
0,84,60,48,0,23.8876364751336,-2.51501293008254e-15,52.3416709853061,-1.0102352655452355e-16,-0.5880026035475675,3.141592653589793
0,84,60,60,0,20.2068429152023,-2.27966662288695e-15,53.1240478086222,-9.928446076093018e-17,-0.1870597556815625,3.141592653589793
0,84,60,108,0,6.28097966192513,-1.10600760079844e-15,48.5992605505864,-1.1215601729042427e-16,0.8048579277894634,3.141592653589793
0,84,72,0,0,37.0948259652348,-3.74067471953560e-15,35.3862149860683,-2.8130244712569207e-16,-1.3672354021687532,-3.141592653589793
0,84,72,12,0,35.9319873895931,-3.79240696472148e-15,38.9650641267130,-1.737256420946054e-16,-1.5474028848634602,-3.141592653589793
0,84,72,24,0,34.0504750507753,-3.76026748698114e-15,42.2239390926131,-1.390756473580861e-16,-1.3754336777573124,3.141592653589793
0,84,72,36,0,31.5325200664857,-3.64566093571415e-15,45.0204114099417,-1.2280196476154878e-16,-1.1071487177940906,3.141592653589793
0,84,72,48,0,28.4881691520263,-3.45359616715412e-15,47.2322618194685,-1.1406583407874874e-16,-0.7910146221438289,3.141592653589793
0,84,72,60,0,25.0504750507753,-3.19246733331614e-15,48.7628218446614,-1.0934214972771788e-16,-0.4543600414255185,3.141592653589793
0,84,72,72,0,21.3696814908440,-2.87368701727411e-15,49.5451986679775,-1.0723952018427318e-16,-0.13972117136749135,3.141592653589793
0,84,72,120,0,7.44381823756682,-1.32514890803453e-15,45.0204114099417,-1.2280196476154878e-16,0.6758201420526466,3.141592653589793
0,84,84,0,0,37.8815123388178,-4.39061487001335e-15,27.9013941166289,-2.4723986774737936,-1.5707963267948966,-0.6691939761159998
0,84,84,12,0,37.4881691520263,-4.52395789077198e-15,31.6438045513486,-2.9417400365518624e-16,-1.3887548593248793,-3.141592653589793
0,84,84,24,0,36.3253305763846,-4.55565965443254e-15,35.2226536919933,-1.8030519947420635e-16,-1.5235134553790386,3.141592653589793
0,84,84,36,0,34.4438182375668,-4.48433464180112e-15,38.4815286578934,-1.4362858071438592e-16,-1.2546744302407469,3.141592653589793
0,84,84,48,0,31.9258632532772,-4.31310009818508e-15,41.2780009752220,-1.2640307586366046e-16,-0.9540177160466936,3.141592653589793
0,84,84,60,0,28.8815123388178,-4.04943979481497e-15,43.4898513847488,-1.171559825545429e-16,-0.6457551293432865,3.141592653589793
0,84,84,84,0,21.7630246776355,-3.29447061975310e-15,45.8027882332578,-1.0993040823205468e-16,-0.10984885009730248,3.141592653589793
0,84,96,0,0,37.0948259652348,-4.84892796601086e-15,20.4165732471896,-3.141592653589793,-1.361356816555577,-3.6251669157092767e-16
0,84,96,12,0,37.4881691520263,-5.07808451400961e-15,24.1589836819092,-2.7680634268012048,-1.5707963267948966,-0.37352922678858863
0,84,96,24,0,37.0948259652348,-5.19139705324292e-15,27.9013941166289,-2.813024471256921e-16,-1.4533059517751086,-3.141592653589793
0,84,96,36,0,35.9319873895931,-5.18391328201240e-15,31.4802432572737,-1.7372564209460545e-16,-1.4104461405842508,3.141592653589793
0,84,96,48,0,34.0504750507753,-5.05596027703193e-15,34.7391182231738,-1.3907564735808612e-16,-1.1071487177940906,3.141592653589793
0,84,96,60,0,31.5325200664857,-4.81313019860581e-15,37.5355905405023,-1.228019647615488e-16,-0.8048579277894636,3.141592653589793
0,84,96,72,0,28.4881691520263,-4.46603588638926e-15,39.7474409500291,-1.1406583407874874e-16,-0.5294049916768737,3.141592653589793
0,84,96,84,0,25.0504750507753,-4.02984702736943e-15,41.2780009752220,-1.0934214972771788e-16,-0.2919731105261183,3.141592653589793
0,84,96,96,0,21.3696814908440,-3.52362716775186e-15,42.0603777985382,-1.0723952018427318e-16,-0.09011584921735134,3.141592653589793
0,84,108,0,0,34.7691488139514,-5.09558352600280e-15,13.2588749659001,-3.141592653589793,-1.1519173063162575,-2.5660294681329094e-16
0,84,108,12,0,35.9319873895931,-5.43056884200434e-15,16.8377241065449,-3.141592653589793,-1.3613568165555772,-3.4964513504143375e-16
0,84,108,24,0,36.3253305763846,-5.63969490847777e-15,20.5801345412645,-0.6499124067918396,-1.5707963267948966,-2.4916802467979537
0,84,108,36,0,35.9319873895931,-5.71382191281999e-15,24.3225449759842,-2.4325032632212955e-16,-1.5596264939209188,-3.141592653589793
0,84,108,48,0,34.7691488139514,-5.64971014924043e-15,27.9013941166289,-1.5427452818551038e-16,-1.2657596831836588,3.141592653589793
0,84,108,60,0,32.8876364751336,-5.45016160944988e-15,31.1602690825290,-1.2561583232425522e-16,-0.9540177160466937,3.141592653589793
0,84,108,72,0,30.3696814908440,-5.12389752217732e-15,33.9567413998576,-1.121560172904243e-16,-0.6758201420526468,3.141592653589793
0,84,108,84,0,27.3253305763846,-4.68517719362535e-15,36.1685918093844,-1.0493044296793607e-16,-0.44110894032377435,3.141592653589793
0,84,108,96,0,23.8876364751336,-4.15317480736540e-15,37.6991518345773,-1.0102352655452356e-16,-0.24476629423147567,3.141592653589793
0,84,108,108,0,20.2068429152023,-3.55114142050771e-15,38.4815286578934,-9.928446076093018e-17,-0.076636439411061,3.141592653589793
0,84,120,0,0,31.0061241363159,-5.11980151843283e-15,6.74112503409989,3.141592653589793,-0.9424777960769382,-2.282449512266648e-16
0,84,120,12,0,32.8876364751336,-5.56600561821533e-15,10.0000000000000,-3.141592653589793,-1.1519173063162578,-2.5002338943369007e-16
0,84,120,24,0,34.0504750507753,-5.88096045269154e-15,13.5788491406447,-3.141592653589793,-1.3613568165555772,-3.1159301423787127e-16
0,84,120,36,0,34.4438182375668,-6.05090098427388e-15,17.3212595753644,-0.15448501755827374,-1.5707963267948966,-2.98710763603152
0,84,120,48,0,34.0504750507753,-6.06839999626707e-15,21.0636700100841,-1.8168070151794834e-16,-1.4397111148583677,3.141592653589793
0,84,120,60,0,32.8876364751336,-5.93269269787742e-15,24.6425191507288,-1.2280196476154883e-16,-1.1071487177940906,3.141592653589793
0,84,120,108,0,22.0061241363159,-4.06947027634030e-15,34.4402768686772,-8.756371152069267e-17,-0.21115106022325533,3.141592653589793
0,84,120,120,0,18.3253305763846,-3.37581087314719e-15,35.2226536919933,-8.641290423143611e-17,-0.06723783991745992,3.141592653589793
0,96,0,48,0,-18.3253305763846,1.73795277631327e-15,56.3829227745224,4.294233900667577e-17,1.1071487177940904,-3.141592653589793
0,96,0,60,0,-20.2068429152023,1.53840423652272e-15,53.1240478086222,8.931308298343258e-17,1.1071487177940904,-3.141592653589793
0,96,0,72,0,-21.3696814908440,1.31926292928662e-15,49.5451986679775,2.332789485446319e-16,1.1071487177940904,-3.141592653589793
0,96,0,84,0,-21.7630246776355,1.09010638128787e-15,45.8027882332578,2.1303037752271994,1.5707963267948966,-1.0112888783625942
0,96,0,96,0,-21.3696814908440,8.60949833289114e-16,42.0603777985382,3.1415926535897927,1.361356816555577,-2.880755102372524e-16
0,96,0,108,0,-20.2068429152023,6.41808526053023e-16,38.4815286578934,3.141592653589793,1.1519173063162575,-1.3753008729645231e-16
0,96,0,120,0,-18.3253305763846,4.42259986262472e-16,35.2226536919933,3.141592653589793,0.9424777960769383,-8.427908566546551e-17
0,96,12,48,0,-12.0443509144595,1.10840513669972e-15,59.1793950918509,-1.3287108901800286e-17,1.2876692107140153,-3.141592653589793
0,96,12,60,0,-14.5623058987491,1.00876612789378e-15,56.3829227745224,-6.145374073746674e-19,1.2876692107140153,-3.141592653589793
0,96,12,72,0,-16.4438182375668,8.92651596949672e-16,53.1240478086222,2.6367956135509402e-17,1.2876692107140153,-3.141592653589793
0,96,12,84,0,-17.6066568132085,7.65136306048994e-16,49.5451986679775,1.1013969893626971e-16,1.2876692107140153,-3.141592653589793
0,96,12,96,0,-18.0000000000000,6.31793285290359e-16,45.8027882332578,2.778781491086296,1.5707963267948966,-0.3628111625034974
0,96,12,108,0,-17.6066568132085,4.98450264531725e-16,42.0603777985382,3.141592653589793,1.3613568165555772,-1.6762714867667185e-16
0,96,12,120,0,-16.4438182375668,3.70934973631047e-16,38.4815286578934,3.141592653589793,1.1519173063162578,-8.002685258379477e-17
0,96,24,0,0,9.24309945868034,2.97245683368606e-16,62.1394287032545,-5.009984922146695e-17,-1.3540292981156372,3.141592653589793
0,96,24,60,0,-8.36355735452816,3.51342206185506e-16,58.3970182685348,-4.6985281384131486e-17,1.5326335159714382,-3.141592653589793
0,96,24,72,0,-10.8815123388178,3.35137206226003e-16,55.6005459512062,-4.3219591567236976e-17,1.515976212880479,-3.141592653589793
0,96,24,84,0,-12.7630246776355,3.10648691617308e-16,52.3416709853061,-3.5201668668671706e-17,1.503794261993347,-3.141592653589793
0,96,24,96,0,-13.9258632532772,2.78946927956750e-16,48.7628218446614,-1.030866262431103e-17,1.4937335493937152,-3.141592653589793
0,96,24,108,0,-14.3192064400687,2.41417434438236e-16,45.0204114099417,0.14466740778186912,1.5707963267948966,-2.996925245807924
0,96,24,120,0,-13.9258632532772,1.99700430015015e-16,41.2780009752220,3.141592653589793,1.3613568165555774,-5.51338465394341e-17
0,96,36,0,0,16.1184876611822,-6.88388019369130e-16,59.0783086528687,-7.601371327518622e-17,-1.4533059517751086,3.141592653589793
0,96,36,12,0,12.6807935599313,-6.53884263997771e-16,60.6088686780616,-7.469215499119856e-17,-1.2876692107140153,3.141592653589793
0,96,36,24,0,9.00000000000000,-6.05977500377711e-16,61.3912455013777,-7.410389648686177e-17,-0.7297276562269663,3.141592653589793
0,96,36,84,0,-7.44381823756682,-2.53493172382985e-16,54.0699859260133,-8.301077816439287e-17,1.3754336777573126,3.141592653589793
0,96,36,96,0,-9.32533057638458,-1.82168159751560e-16,50.8111109601132,-9.270490338132925e-17,1.4104461405842506,3.141592653589793
0,96,36,108,0,-10.4881691520263,-1.18056396171998e-16,47.2322618194685,-1.2280196476154876e-16,1.439711114858368,3.141592653589793
0,96,48,0,0,22.2071894901011,-1.64419974625523e-15,54.6546078338151,-1.06329297129943e-16,-1.5652729328292059,3.141592653589793
0,96,48,12,0,19.1628385756417,-1.62460697880969e-15,56.8664582433419,-9.993047770381748e-17,-1.4104461405842506,3.141592653589793
0,96,48,24,0,15.7251444743907,-1.57007274191301e-15,58.3970182685348,-9.647059319822378e-17,-1.1071487177940906,3.141592653589793
0,96,48,36,0,12.0443509144594,-1.48298044340186e-15,59.1793950918509,-9.493051243969887e-17,-0.4411089403237747,3.141592653589793
0,96,48,48,0,8.28132623682392,-1.36713643463642e-15,59.1793950918509,-9.493051243969887e-17,0.35893280675142464,3.141592653589793
0,96,48,108,0,-6.28097966192513,-5.64260495954491e-16,48.5992605505864,-1.436285807143859e-16,1.2027830195480034,3.141592653589793
0,96,60,0,0,27.2430994586803,-2.52841593833124e-15,49.0616631991580,-1.4739427053128038e-16,-1.4533059517751086,-3.141592653589793
0,96,60,12,0,24.7251444743907,-2.54462093829075e-15,51.8581355164865,-1.2938152214114968e-16,-1.5326335159714382,3.141592653589793
0,96,60,24,0,21.6807935599313,-2.50499768931988e-15,54.0699859260133,-1.1971181628575462e-16,-1.2876692107140153,3.141592653589793
0,96,60,36,0,18.2430994586803,-2.41127791753211e-15,55.6005459512062,-1.1448334158835445e-16,-0.8731568333091397,3.141592653589793
0,96,60,48,0,14.5623058987490,-2.26755762667193e-15,56.3829227745224,-1.1215601729042427e-16,-0.28163664652152104,3.141592653589793
0,96,60,60,0,10.7992812211135,-2.08011808309640e-15,56.3829227745224,-1.1215601729042427e-16,0.22935220628215494,3.141592653589793
0,96,72,0,0,31.0061241363159,-3.30239210506341e-15,42.5439132673577,-2.1721965503343352e-16,-1.3198266601328044,-3.141592653589793
0,96,72,12,0,29.1246117974981,-3.37371711769484e-15,45.8027882332578,-1.6917270873830563e-16,-1.4800235270484614,-3.141592653589793
0,96,72,24,0,26.6066568132085,-3.36989163612902e-15,48.5992605505864,-1.4660702699187514e-16,-1.436874998979147,3.141592653589793
0,96,72,36,0,23.5623058987491,-3.29108285226707e-15,50.8111109601132,-1.344931896035732e-16,-1.1071487177940906,3.141592653589793
0,96,72,48,0,20.1246117974981,-3.14073508813026e-15,52.3416709853061,-1.2794315662218535e-16,-0.6590773020322618,3.141592653589793
0,96,72,60,0,16.4438182375668,-2.92541926245999e-15,53.1240478086222,-1.250275738199184e-16,-0.1945770405382573,3.141592653589793
0,96,72,72,0,12.6807935599313,-2.65454571003802e-15,53.1240478086222,-1.250275738199184e-16,0.16221537100219094,3.141592653589793
0,96,84,0,0,33.3318012875992,-3.93230177401584e-15,35.3862149860683,-4.044416967340543e-16,-1.1770193978004568,-3.141592653589793
0,96,84,12,0,32.1689627119576,-4.07566003553714e-15,38.9650641267130,-2.366707689425286e-16,-1.3423978819437665,-3.141592653589793
0,96,84,24,0,30.2874503731398,-4.12695456664323e-15,42.2239390926131,-1.8263252377213653e-16,-1.5596264939209188,-3.141592653589793
0,96,84,36,0,27.7694953888502,-4.08394355018633e-15,45.0204114099417,-1.572529744629996e-16,-1.2876692107140155,3.141592653589793
0,96,84,48,0,24.7251444743907,-3.94850677397534e-15,47.2322618194685,-1.436285807143859e-16,-0.9085113218249624,3.141592653589793
0,96,84,60,0,21.2874503731398,-3.72656347502845e-15,48.7628218446614,-1.362617797953797e-16,-0.4982190985307755,3.141592653589793
0,96,84,84,0,13.8436321355730,-3.06531407175435e-15,49.5451986679775,-1.329826332432614e-16,0.12333610314426657,3.141592653589793
0,96,96,0,0,34.1184876611822,-4.39061487001335e-15,27.9013941166289,-2.2618392248005637,-1.5707963267948966,-0.8797534287892296
0,96,96,12,0,33.7251444743907,-4.61977141801210e-15,31.6438045513486,-4.173132532635485e-16,-1.196220892874981,-3.141592653589793
0,96,96,24,0,32.5623058987491,-4.74309919800807e-15,35.2226536919933,-2.432503263221296e-16,-1.4104461405842503,-3.141592653589793
0,96,96,36,0,30.6807935599313,-4.75520819422309e-15,38.4815286578934,-1.8718545712843635e-16,-1.4533059517751088,3.141592653589793
0,96,96,48,0,28.1628385756417,-4.65556918541715e-15,41.2780009752220,-1.608540855651113e-16,-1.1071487177940906,3.141592653589793
0,96,96,60,0,25.1184876611822,-4.44853687439607e-15,43.4898513847488,-1.4671872919018002e-16,-0.7297276562269668,3.141592653589793
0,96,96,72,0,21.6807935599313,-4.14315956660274e-15,45.0204114099417,-1.390756473580861e-16,-0.3866267883064988,3.141592653589793
0,96,96,84,0,18.0000000000000,-3.75278371575061e-15,45.8027882332578,-1.356735212910429e-16,-0.11241992603913864,3.141592653589793
0,96,96,96,0,14.2369753223645,-3.29447061975310e-15,45.8027882332578,-1.356735212910429e-16,0.09901188333796974,3.141592653589793
0,96,108,0,0,33.3318012875992,-4.65730091153062e-15,20.4165732471896,-3.141592653589793,-1.3613568165555772,-4.829650531315087e-16
0,96,108,12,0,33.7251444743907,-4.98227098676949e-15,24.1589836819093,-0.5955675502920494,-1.5707963267948966,-2.546025103297744
0,96,108,24,0,33.3318012875992,-5.19139705324292e-15,27.9013941166289,-4.0444169673405413e-16,-1.2546744302407467,-3.141592653589793
0,96,108,36,0,32.1689627119576,-5.27553929834781e-15,31.4802432572737,-2.3667076894252857e-16,-1.5235134553790384,-3.141592653589793
0,96,108,48,0,30.2874503731398,-5.23102030221379e-15,34.7391182231738,-1.826325237721365e-16,-1.2876692107140153,3.141592653589793
0,96,108,60,0,27.7694953888502,-5.05978575859776e-15,37.5355905405023,-1.5725297446299965e-16,-0.9255300557425885,3.141592653589793
0,96,108,72,0,24.7251444743907,-4.76931943873024e-15,39.7474409500292,-1.436285807143859e-16,-0.5880026035475676,3.141592653589793
0,96,108,84,0,21.2874503731398,-4.37231611460149e-15,41.2780009752220,-1.3626177979537968e-16,-0.31035131605215155,3.141592653589793
0,96,108,96,0,17.6066568132085,-3.88612673650925e-15,42.0603777985382,-1.3298263324326138e-16,-0.09184131105871045,3.141592653589793
0,96,108,108,0,13.8436321355730,-3.33200011327162e-15,42.0603777985382,-1.329826332432614e-16,0.08298244925201581,3.141592653589793
0,96,120,0,0,31.0061241363159,-4.72070443885173e-15,13.2588749659001,-3.141592653589793,-1.1519173063162578,-3.1410618152594866e-16
0,96,120,12,0,32.1689627119576,-5.14731577118868e-15,16.8377241065449,-3.141592653589793,-1.3613568165555774,-4.700934966020149e-16
0,96,120,24,0,32.5623058987491,-5.45225536490223e-15,20.5801345412645,-0.22929365268293656,-1.5707963267948963,-2.912299000906857
0,96,120,36,0,32.1689627119576,-5.62219589648458e-15,24.3225449759842,-3.663895759304915e-16,-1.3540292981156372,-3.141592653589793
0,96,120,48,0,31.0061241363159,-5.64971014924043e-15,27.9013941166289,-2.172196550334335e-16,-1.4653819557440668,3.141592653589793
0,96,120,60,0,29.1246117974981,-5.53359561829632e-15,31.1602690825290,-1.6917270873830563e-16,-1.1071487177940906,3.141592653589793
0,96,120,96,0,20.1246117974981,-4.40401787826205e-15,37.6991518345773,-1.2794315662218538e-16,-0.25767675178300603,3.141592653589793
0,96,120,108,0,16.4438182375668,-3.82201497292969e-15,38.4815286578934,-1.250275738199184e-16,-0.07788173160813885,3.141592653589793
0,96,120,120,0,12.6807935599313,-3.17626233335664e-15,38.4815286578934,-1.2502757381991842e-16,0.07207626886869321,3.141592653589793
0,108,0,0,0,-16.6869176962472,2.04253034068793e-15,61.3570518799383,3.1511524095198612e-18,1.1071487177940904,-3.141592653589793
0,108,0,24,0,-23.1689627119576,1.81337379268918e-15,57.6146414452186,2.1163900799650546e-17,1.1071487177940904,-3.141592653589793
0,108,0,36,0,-25.6869176962472,1.64213924907315e-15,54.8181691278900,4.2942339006675746e-17,1.1071487177940904,-3.141592653589793
0,108,0,48,0,-27.5684300350649,1.44259070928260e-15,51.5592941619899,8.931308298343258e-17,1.1071487177940904,-3.141592653589793
0,108,0,60,0,-28.7312686107066,1.22344940204650e-15,47.9804450213452,2.3327894854463156e-16,1.1071487177940904,-3.141592653589793
0,108,0,72,0,-29.1246117974981,9.94292854047749e-16,44.2380345866255,0.32175055439664213,1.5707963267948963,-2.819842099193151
0,108,0,84,0,-28.7312686107066,7.65136306048994e-16,40.4956241519059,3.1415926535897927,1.3613568165555772,-2.8807551023725274e-16
0,108,0,96,0,-27.5684300350649,5.45994998812902e-16,36.9167750112611,3.141592653589793,1.1519173063162575,-1.3753008729645231e-16
0,108,0,108,0,-25.6869176962472,3.46446459022352e-16,33.6579000453610,3.141592653589793,0.9424777960769383,-8.427908566546551e-17
0,108,0,120,0,-23.1689627119576,1.75211915406320e-16,30.8614277280324,3.141592653589793,0.7330382858376188,-5.51338465394341e-17
0,108,12,0,0,-9.32533057638457,1.22171767593303e-15,62.9218055265706,-2.484327942725496e-17,0.9540177160466933,-3.141592653589793
0,108,12,12,0,-13.0061241363159,1.17381091231297e-15,62.1394287032545,-2.3180219153805145e-17,1.16530256877486,-3.141592653589793
0,108,12,36,0,-19.4881691520263,1.00387038073063e-15,58.3970182685348,-1.2534271682680657e-17,1.2396692506293354,-3.141592653589793
0,108,12,48,0,-22.0061241363159,8.89263829463633e-16,55.6005459512062,3.372848468134458e-19,1.2546744302407467,-3.141592653589793
0,108,12,60,0,-23.8876364751336,7.61310824483170e-16,52.3416709853061,2.774345817925143e-17,1.2657596831836588,-3.141592653589793
0,108,12,72,0,-25.0504750507753,6.25603526093520e-16,48.7628218446614,1.1283058698405102e-16,1.274987158121463,-3.141592653589793
0,108,12,84,0,-25.4438182375668,4.88072994430179e-16,45.0204114099417,0.2751607848153694,1.5707963267948966,-2.866431868774424
0,108,12,96,0,-25.0504750507753,3.54729973671544e-16,41.2780009752220,3.141592653589793,1.3613568165555772,-1.6493626062889035e-16
0,108,12,108,0,-23.8876364751336,2.31402193675573e-16,37.6991518345773,3.141592653589793,1.1519173063162578,-7.596046249227122e-17
0,108,12,120,0,-22.0061241363159,1.23479670220436e-16,34.4402768686772,3.141592653589793,0.9424777960769384,-4.4487899068309614e-17
0,108,24,24,0,-9.24309945868034,2.97245683368606e-16,62.1394287032545,-5.009984922146694e-17,1.3540292981156372,-3.141592653589793
0,108,24,48,0,-15.7251444743907,2.23118679026380e-16,58.3970182685348,-4.6985281384131486e-17,1.436874998979147,-3.141592653589793
0,108,24,60,0,-18.2430994586803,1.80107662569475e-16,55.6005459512062,-4.321959156723698e-17,1.4533059517751086,-3.141592653589793
0,108,24,72,0,-20.1246117974981,1.35588666435453e-16,52.3416709853061,-3.5201668668671725e-17,1.4653819557440668,-3.141592653589793
0,108,24,84,0,-21.2874503731398,9.15073843812164e-17,48.7628218446614,-1.0308662624311084e-17,1.4753934337964891,-3.141592653589793
0,108,24,96,0,-21.6807935599313,4.97903799579955e-17,45.0204114099417,0.14466740778186915,1.5707963267948966,-2.996925245807924
0,108,24,108,0,-21.2874503731398,1.22608864394816e-17,41.2780009752220,3.141592653589793,1.3613568165555774,-4.4487899068309614e-17
0,108,24,120,0,-20.1246117974981,-1.94408772210760e-17,37.6991518345773,3.141592653589793,1.151917306316258,-1.8457227779613633e-17
0,108,36,60,0,-12.0443509144594,-4.94758716596757e-16,57.6146414452186,-8.068345386646268e-17,1.4533059517751086,3.141592653589793
0,108,36,72,0,-14.5623058987491,-4.54335724207221e-16,54.8181691278900,-8.582464572709927e-17,1.4533059517751086,3.141592653589793
0,108,36,84,0,-16.4438182375668,-4.07228704005829e-16,51.5592941619899,-9.677129347285281e-17,1.4533059517751086,3.141592653589793
0,108,36,96,0,-17.6066568132085,-3.55496458819945e-16,47.9804450213452,-1.3075702418489174e-16,1.4533059517751086,3.141592653589793
0,108,36,108,0,-18.0000000000000,-3.01399936003046e-16,44.2380345866255,-0.07852751155174857,1.5707963267948963,3.063065142038045
0,108,36,120,0,-17.6066568132085,-2.47303413186146e-16,40.4956241519059,-3.141592653589793,1.3613568165555774,6.800540306892826e-17
0,108,48,0,0,12.4376941012510,-1.42123295745332e-15,58.2959318295526,-1.0493044296793607e-16,-1.4104461405842506,-3.141592653589793
0,108,48,12,0,9.00000000000001,-1.44335719443100e-15,59.8264918547454,-1.0102352655452356e-16,-1.5235134553790386,-3.141592653589793
0,108,48,72,0,-8.60665681320850,-1.11838711919212e-15,56.0840814200258,-1.121560172904243e-16,1.1873162480493809,3.141592653589793
0,108,48,84,0,-11.1246117974981,-9.86338110467171e-16,53.2876091026972,-1.256158323242552e-16,1.215716691178083,3.141592653589793
0,108,48,96,0,-13.0061241363159,-8.43417563025659e-16,50.0287341367971,-1.5427452818551038e-16,1.23690792564592,3.141592653589793
0,108,48,108,0,-14.1689627119576,-6.95871790599654e-16,46.4498849961523,-2.432503263221293e-16,1.2546744302407467,3.141592653589793
0,108,60,0,0,18.5263959301698,-2.23385361471924e-15,53.8722310104990,-1.4002746961227417e-16,-1.3284186186051112,-3.141592653589793
0,108,60,12,0,15.4820450157104,-2.28585638208379e-15,56.0840814200258,-1.2884720739656732e-16,-1.4533059517751086,-3.141592653589793
0,108,60,24,0,12.0443509144594,-2.28795013753614e-15,57.6146414452186,-1.2280196476154878e-16,-1.4104461405842503,3.141592653589793
0,108,60,36,0,8.36355735452816,-2.24004337391608e-15,58.3970182685348,-1.2011107671376726e-16,-0.5880026035475677,3.141592653589793
0,108,60,96,0,-8.08026088303866,-1.39264843910013e-15,51.0757586931704,-1.6085408556511125e-16,1.0091794156591756,3.141592653589793
0,108,60,108,0,-9.96177322185642,-1.15391436441850e-15,47.8168837272703,-2.0519820551856697e-16,1.0521876601900808,3.141592653589793
0,108,60,120,0,-11.1246117974981,-9.14742575657084e-16,44.2380345866255,-3.428720719298728e-16,1.0894363925173138,3.141592653589793
0,108,72,0,0,23.5623058987491,-2.95120178910237e-15,48.2792863758418,-1.8999932469114272e-16,-1.2304718786257252,-3.141592653589793
0,108,72,12,0,21.0443509144595,-3.05084079790832e-15,51.0757586931704,-1.6307969462348092e-16,-1.359421284598738,-3.141592653589793
0,108,72,24,0,18.0000000000000,-3.08281308374754e-15,53.2876091026972,-1.4862854597850447e-16,-1.5596264939209188,3.141592653589793
0,108,72,36,0,14.5623058987491,-3.04572130430881e-15,54.8181691278900,-1.4081471315167945e-16,-1.1071487177940906,3.141592653589793
0,108,72,48,0,10.8815123388178,-2.94118654833971e-15,55.6005459512062,-1.3733658156449272e-16,-0.33874760001650484,3.141592653589793
0,108,72,60,0,7.11848766118224,-2.77377748628950e-15,55.6005459512062,-1.373365815644927e-16,0.24068153810213735,3.141592653589793
0,108,72,120,0,-7.44381823756681,-1.32514890803453e-15,45.0204114099417,-2.4731671641365294e-16,0.9085113218249623,3.141592653589793
0,108,84,0,0,27.3253305763846,-3.54192592316372e-15,41.7615364440416,-2.7878927983761473e-16,-1.1231011140426133,-3.141592653589793
0,108,84,12,0,25.4438182375668,-3.70487695213055e-15,45.0204114099417,-2.1177776289816795e-16,-1.2546744302407467,-3.141592653589793
0,108,84,24,0,22.9258632532772,-3.78448547941117e-15,47.8168837272703,-1.8030519947420635e-16,-1.4533059517751086,-3.141592653589793
0,108,84,36,0,19.8815123388178,-3.77727223035931e-15,50.0287341367971,-1.6340991929632305e-16,-1.3540292981156372,3.141592653589793
0,108,84,48,0,16.4438182375668,-3.68355245857154e-15,51.5592941619899,-1.5427452818551035e-16,-0.8096258072316492,3.141592653589793
0,108,84,60,0,12.7630246776355,-3.50742216779236e-15,52.3416709853061,-1.5020813809398682e-16,-0.2207448521110945,3.141592653589793
0,108,84,72,0,9.00000000000001,-3.25657909689571e-15,52.3416709853061,-1.502081380939868e-16,0.16785627585268126,3.141592653589793
0,108,96,0,0,29.6510077276680,-3.98020853763590e-15,34.6038381627521,-5.248900582946355e-16,-1.4356187437953083,-3.1415926535897927
0,108,96,12,0,28.4881691520263,-4.21938032639732e-15,38.1826873033968,-2.982403937467098e-16,-1.1427196571864822,-3.141592653589793
0,108,96,24,0,26.6066568132085,-4.36230087383883e-15,41.4415622692969,-2.2523757793199885e-16,-1.328418618605111,-3.141592653589793
0,108,96,36,0,24.0887018289189,-4.40272386622837e-15,44.2380345866255,-1.9095114694533084e-16,-1.5326335159714382,3.141592653589793
0,108,96,48,0,21.0443509144595,-4.33888262482746e-15,46.4498849961523,-1.7254531040713574e-16,-1.1071487177940906,3.141592653589793
0,108,96,60,0,17.6066568132085,-4.17356731822961e-15,47.9804450213452,-1.625931513587047e-16,-0.5880026035475682,3.141592653589793
0,108,96,72,0,13.9258632532772,-3.91400301860398e-15,48.7628218446613,-1.581631975173298e-16,-0.1578262295380605,3.141592653589793
0,108,96,84,0,10.1628385756417,-3.57153393137192e-15,48.7628218446614,-1.5816319751732978e-16,0.12658300300195746,3.141592653589793
0,108,96,96,0,6.48204501571040,-3.16112759899447e-15,47.9804450213452,-1.6259315135870466e-16,0.3144798930604598,3.141592653589793
0,108,108,0,0,30.4376941012509,-4.24689457915317e-15,27.1190172933128,-2.1243706856919418,-1.5707963267948966,-1.0172219678978514
0,108,108,12,0,30.0443509144595,-4.57186465439204e-15,30.8614277280324,-5.377616148241292e-16,-1.4403631417393146,-3.1415926535897927
0,108,108,24,0,28.8815123388178,-4.79100596162813e-15,34.4402768686772,-3.0481995112631065e-16,-1.2027830195480036,-3.141592653589793
0,108,108,36,0,27.0000000000000,-4.89474097417856e-15,37.6991518345773,-2.2979051128829864e-16,-1.4533059517751086,-3.141592653589793
0,108,108,48,0,24.4820450157104,-4.87853597421906e-15,40.4956241519059,-1.945522580474425e-16,-1.328418618605111,3.141592653589793
0,108,108,60,0,21.4376941012510,-4.74309919800807e-15,42.7074745614327,-1.7563545888292985e-16,-0.87315683330914,3.141592653589793
0,108,108,72,0,18.0000000000000,-4.49434988256378e-15,44.2380345866255,-1.6540701892141107e-16,-0.44110894032377457,3.141592653589793
0,108,108,84,0,14.3192064400687,-4.14315956660274e-15,45.0204114099417,-1.608540855651113e-16,-0.12077326375271749,3.141592653589793
0,108,108,96,0,10.5561817624332,-3.70487695213055e-15,45.0204114099417,-1.608540855651113e-16,0.10109754046202885,3.141592653589793
0,108,108,108,0,6.87538820250190,-3.19865709251298e-15,44.2380345866255,-1.6540701892141107e-16,0.2615305584292356,3.141592653589793
0,108,120,0,0,29.6510077276680,-4.33032858799961e-15,19.6341964238734,-3.1415926535897927,-1.3613568165555772,-5.954583552687465e-16
0,108,120,12,0,30.0443509144595,-4.74692467957390e-15,23.3766068585931,-0.7412958389958001,-1.5707963267948966,-2.400296814593993
0,108,120,24,0,29.6510077276680,-5.05186427328745e-15,27.1190172933128,-5.248900582946347e-16,-1.0750297264179427,-3.141592653589793
0,108,120,36,0,28.4881691520263,-5.23182004563246e-15,30.6978664339575,-2.982403937467097e-16,-1.3060048337251224,-3.141592653589793
0,108,120,48,0,26.6066568132085,-5.27892706583385e-15,33.9567413998576,-2.252375779319988e-16,-1.5159762128804788,3.141592653589793
0,108,120,60,0,24.0887018289189,-5.19112653106426e-15,36.7532137171862,-1.9095114694533084e-16,-1.1071487177940906,3.141592653589793
0,108,120,84,0,17.6066568132085,-4.63188041422712e-15,40.4956241519059,-1.6259315135870466e-16,-0.345326838118391,3.141592653589793
0,108,120,96,0,13.9258632532772,-4.18487657102596e-15,41.2780009752220,-1.5816319751732978e-16,-0.09735058405617622,3.141592653589793
0,108,120,108,0,10.1628385756417,-3.65078042931365e-15,41.2780009752220,-1.581631975173298e-16,0.08444396935110396,3.141592653589793
0,108,120,120,0,6.48204501571040,-3.05293455336067e-15,40.4956241519059,-1.6259315135870466e-16,0.22575350577696365,3.141592653589793
0,120,0,0,0,-27.0000000000000,1.76137102532463e-15,56.7653718043597,9.47267595762612e-18,1.1071487177940904,-3.141592653589793
0,120,0,12,0,-30.0443509144594,1.62593424911364e-15,54.5535213948329,2.1163900799650534e-17,1.1071487177940904,-3.141592653589793
0,120,0,24,0,-32.5623058987490,1.45469970549761e-15,51.7570490775043,4.294233900667573e-17,1.1071487177940904,-3.141592653589793
0,120,0,36,0,-34.4438182375668,1.25515116570706e-15,48.4981741116042,8.93130829834325e-17,1.1071487177940904,-3.141592653589793
0,120,0,48,0,-35.6066568132085,1.03600985847097e-15,44.9193249709595,2.3327894854463156e-16,1.1071487177940904,-3.141592653589793
0,120,0,60,0,-36.0000000000000,8.06853310472215e-16,41.1769145362398,0.14978431362493363,1.5707963267948961,-2.9918083399648596
0,120,0,72,0,-35.6066568132085,5.77696762473460e-16,37.4345041015201,3.1415926535897927,1.3613568165555774,-2.8807551023725303e-16
0,120,0,84,0,-34.4438182375668,3.58555455237369e-16,33.8556549608754,3.141592653589793,1.1519173063162578,-1.375300872964524e-16
0,120,0,96,0,-32.5623058987490,1.59006915446818e-16,30.5967799949753,3.141592653589793,0.9424777960769383,-8.427908566546551e-17
0,120,0,108,0,-30.0443509144594,-1.22276281692133e-17,27.8003076776467,3.141592653589793,0.7330382858376188,-5.51338465394341e-17
0,120,0,120,0,-27.0000000000000,-1.47664404380201e-16,25.5884572681199,3.141592653589793,0.5235987755982994,-3.535250795749694e-17
0,120,12,0,0,-20.1246117974981,1.03218437690515e-15,59.8264918547454,-2.1441153360211764e-17,1.0521876601900806,-3.141592653589793
0,120,12,12,0,-23.5623058987490,9.38464605117379e-16,58.2959318295526,-1.753423694679926e-17,1.1427196571864822,-3.141592653589793
0,120,12,24,0,-26.6066568132085,8.23058310431717e-16,56.0840814200258,-1.0308662624311054e-17,1.187316248049381,-3.141592653589793
0,120,12,36,0,-29.1246117974981,6.91009301706768e-16,53.2876091026972,3.1511524095198292e-18,1.2157166911780832,-3.141592653589793
0,120,12,48,0,-31.0061241363159,5.48088754265256e-16,50.0287341367971,3.180984827077499e-17,1.23690792564592,-3.141592653589793
0,120,12,60,0,-32.1689627119575,4.00542981839251e-16,46.4498849961523,1.2078564640739383e-16,1.2546744302407467,-3.141592653589793
0,120,12,72,0,-32.5623058987490,2.54820442686938e-16,42.7074745614327,0.10763600284876626,1.5707963267948963,-3.0339566507410267
0,120,12,84,0,-32.1689627119575,1.17289911023597e-16,38.9650641267130,3.141592653589793,1.3613568165555774,-1.6762714867667205e-16
0,120,12,96,0,-31.0061241363159,-6.03786897237410e-18,35.3862149860683,3.141592653589793,1.1519173063162578,-7.458496044852916e-17
0,120,12,108,0,-29.1246117974981,-1.09772881522804e-16,32.1273400201682,3.141592653589793,0.9424777960769384,-4.1674031505603206e-17
0,120,12,120,0,-26.6066568132085,-1.89381408803422e-16,29.3308677028396,3.141592653589793,0.7330382858376189,-2.3661283115472513e-17
0,120,24,0,0,-12.7630246776355,2.51432675200900e-16,61.3912455013777,-4.836078342787356e-17,0.6457551293432853,-3.141592653589793
0,120,24,12,0,-16.4438182375668,1.83495430055513e-16,60.6088686780616,-4.777252492353677e-17,1.1071487177940904,-3.141592653589793
0,120,24,24,0,-19.8815123388177,1.09806139793073e-16,59.0783086528687,-4.6450966639549105e-17,1.2546744302407467,-3.141592653589793
0,120,24,36,0,-22.9258632532772,3.35853799984932e-17,56.8664582433419,-4.400683510664225e-17,1.3284186186051112,-3.141592653589793
0,120,24,48,0,-25.4438182375668,-4.18356363774177e-17,54.0699859260133,-3.9453901750342467e-17,1.3754336777573126,-3.141592653589793
0,120,24,60,0,-27.3253305763846,-1.13160649008843e-16,50.8111109601132,-2.975977653340611e-17,1.4104461405842506,-3.141592653589793
0,120,24,72,0,-28.4881691520263,-1.77272412588405e-16,47.2322618194685,3.372848468133235e-19,1.439711114858368,-3.141592653589793
0,120,24,84,0,-28.8815123388178,-2.31368935405305e-16,43.4898513847488,0.043407414754735994,1.5707963267948963,-3.098185238835057
0,120,24,96,0,-28.4881691520263,-2.73085939828526e-16,39.7474409500292,3.141592653589793,1.3613568165555774,-4.448789906830962e-17
0,120,24,108,0,-27.3253305763846,-3.00600192584377e-16,36.1685918093844,3.141592653589793,1.151917306316258,-1.3015335644348005e-17
0,120,24,120,0,-25.4438182375668,-3.12709188799393e-16,32.9097168434843,3.141592653589793,0.9424777960769385,-1.882844908447283e-18
0,120,36,12,0,-8.99999999999999,-6.05977500377711e-16,61.3912455013777,-7.410389648686176e-17,0.7297276562269657,-3.141592653589793
0,120,36,24,0,-12.6807935599313,-6.53884263997771e-16,60.6088686780616,-7.469215499119856e-17,1.2876692107140153,-3.141592653589793
0,120,36,36,0,-16.1184876611822,-6.88388019369130e-16,59.0783086528687,-7.601371327518621e-17,1.4533059517751086,-3.141592653589793
0,120,36,48,0,-19.1628385756417,-7.07980786814671e-16,56.8664582433419,-7.845784480809308e-17,1.5326335159714382,-3.141592653589793
0,120,36,60,0,-21.6807935599313,-7.11806268380495e-16,54.0699859260133,-8.301077816439285e-17,1.5596264939209188,3.141592653589793
0,120,36,72,0,-23.5623058987490,-6.99697272165478e-16,50.8111109601132,-9.270490338132923e-17,1.5235134553790386,3.141592653589793
0,120,36,84,0,-24.7251444743907,-6.72183019409627e-16,47.2322618194685,-1.228019647615487e-16,1.4937335493937152,3.141592653589793
0,120,36,96,0,-25.1184876611822,-6.30466014986406e-16,43.4898513847488,-0.06957316981536836,1.5707963267948963,3.072019483774425
0,120,36,108,0,-24.7251444743907,-5.76369492169507e-16,39.7474409500292,-3.141592653589793,1.3613568165555774,7.596046249227124e-17
0,120,36,120,0,-23.5623058987490,-5.12257728589944e-16,36.1685918093844,3.141592653589793,1.151917306316258,4.4487899068309596e-17
0,120,48,36,0,-8.99999999999999,-1.44335719443100e-15,59.8264918547454,-1.0102352655452356e-16,1.5235134553790382,3.141592653589793
0,120,48,48,0,-12.4376941012509,-1.42123295745332e-15,58.2959318295526,-1.0493044296793606e-16,1.41044614058425,3.141592653589793
0,120,48,60,0,-15.4820450157104,-1.36923019008877e-15,56.0840814200258,-1.1215601729042427e-16,1.3594212845987377,3.141592653589793
0,120,48,72,0,-18.0000000000000,-1.28962166280815e-15,53.2876091026972,-1.2561583232425515e-16,1.328418618605111,3.141592653589793
0,120,48,84,0,-19.8815123388178,-1.18588665025772e-15,50.0287341367971,-1.542745281855103e-16,1.3060048337251222,3.141592653589793
0,120,48,96,0,-21.0443509144594,-1.06255887026175e-15,46.4498849961523,-2.432503263221293e-16,1.2876692107140153,3.141592653589793
0,120,48,108,0,-21.4376941012509,-9.25028338598409e-16,42.7074745614327,-0.09300129859514569,1.5707963267948961,3.0485913549946475
0,120,48,120,0,-21.0443509144594,-7.79305799446096e-16,38.9650641267130,-3.141592653589793,1.3613568165555776,1.884537646295094e-16
0,120,60,0,0,9.00000000000001,-2.05669983408503e-15,56.7653718043597,-1.3193735587236143e-16,-1.1071487177940909,-3.141592653589793
0,120,60,60,0,-8.99999999999999,-2.05669983408503e-15,56.7653718043597,-1.3193735587236143e-16,1.1071487177940904,3.141592653589793
0,120,60,72,0,-12.0443509144594,-1.92126305787405e-15,54.5535213948329,-1.4362858071438584e-16,1.1071487177940904,3.141592653589793
0,120,60,84,0,-14.5623058987490,-1.75002851425801e-15,51.7570490775043,-1.6540701892141105e-16,1.1071487177940904,3.141592653589793
0,120,60,96,0,-16.4438182375668,-1.55047997446746e-15,48.4981741116042,-2.117777628981679e-16,1.1071487177940904,3.141592653589793
0,120,60,108,0,-17.6066568132085,-1.33133866723137e-15,44.9193249709595,-3.5574362845936686e-16,1.1071487177940904,3.141592653589793
0,120,60,120,0,-18.0000000000000,-1.10218211923262e-15,41.1769145362398,-0.14978431362493375,1.5707963267948961,2.9918083399648596
0,120,72,0,0,15.0887018289189,-2.70245247365808e-15,52.3416709853061,-1.7150003303623581e-16,-1.0813650057695703,-3.141592653589793
0,120,72,12,0,12.0443509144595,-2.83788924986907e-15,54.5535213948329,-1.5585412030099272e-16,-1.1427196571864826,-3.141592653589793
0,120,72,24,0,8.60665681320851,-2.91157854013151e-15,56.0840814200258,-1.473942705312804e-16,-1.2876692107140157,-3.141592653589793
0,120,72,72,0,-5.95564908554054,-2.56701569744709e-15,54.5535213948329,-1.5585412030099265e-16,0.8480345691453575,3.141592653589793
0,120,72,84,0,-8.99999999999999,-2.33995290490069e-15,52.3416709853061,-1.7150003303623576e-16,0.8926480559709822,3.141592653589793
0,120,72,96,0,-11.5179549842896,-2.07290483404454e-15,49.5451986679775,-2.0064527216226715e-16,0.9219354159962536,3.141592653589793
0,120,72,108,0,-13.3994673231074,-1.77754276701387e-15,46.2863237020774,-2.627014402312244e-16,0.9442485273201988,3.141592653589793
0,120,72,120,0,-14.5623058987490,-1.46677544344236e-15,42.7074745614327,-4.5536537406711e-16,1.4216294260319031,3.1415926535897927
0,120,84,0,0,20.1246117974981,-3.23654861537038e-15,46.7487263506489,-2.297905112882987e-16,-1.0253452733046187,-3.141592653589793
0,120,84,12,0,17.6066568132085,-3.42781364051174e-15,49.5451986679775,-1.9455225804744254e-16,-1.1071487177940906,-3.141592653589793
0,120,84,24,0,14.5623058987491,-3.54321993519740e-15,51.7570490775043,-1.7563545888292988e-16,-1.2546744302407469,-3.141592653589793
0,120,84,36,0,11.1246117974981,-3.57772369056876e-15,53.2876091026972,-1.654070189214111e-16,-1.5235134553790384,3.141592653589793
0,120,84,48,0,7.44381823756683,-3.52981692694870e-15,54.0699859260133,-1.608540855651113e-16,-0.49821909853077617,3.141592653589793
0,120,84,96,0,-6.48204501571039,-2.60700097575684e-15,49.5451986679775,-1.9455225804744246e-16,0.7297276562269661,3.141592653589793
0,120,84,108,0,-8.99999999999999,-2.24413937766057e-15,46.7487263506489,-2.297905112882985e-16,0.7798440924233522,3.141592653589793
0,120,84,120,0,-10.8815123388178,-1.85715129429448e-15,43.4898513847488,-3.0481995112631036e-16,0.8201002472878526,3.141592653589793
0,120,96,0,0,23.8876364751336,-3.63564569495148e-15,40.2309764188487,-3.362925145502724e-16,-0.9540177160466936,-3.141592653589793
0,120,96,12,0,22.0061241363159,-3.89441025115844e-15,43.4898513847488,-2.515689494953239e-16,-1.0453228064185325,-3.141592653589793
0,120,96,24,0,19.4881691520263,-4.06564479477447e-15,46.2863237020774,-2.1177776289816795e-16,-1.1873162480493813,-3.141592653589793
0,120,96,36,0,16.4438182375668,-4.14186555456905e-15,48.4981741116042,-1.9041683220074845e-16,-1.4533059517751086,-3.141592653589793
0,120,96,48,0,13.0061241363159,-4.11974131759137e-15,50.0287341367971,-1.78866833955242e-16,-1.1071487177940906,3.141592653589793
0,120,96,60,0,9.32533057638459,-4.00023901916123e-15,50.8111109601132,-1.7372564209460538e-16,-0.2816366465215227,3.141592653589793
0,120,96,120,0,-7.11848766118223,-2.25624837387559e-15,43.4898513847488,-2.515689494953237e-16,0.6758201420526466,3.141592653589793
0,120,108,0,0,26.2133136264170,-3.88230125494343e-15,33.0732781375592,-6.373833604318732e-16,-1.3915450068262947,-3.1415926535897927
0,120,108,12,0,25.0504750507753,-4.21728657094496e-15,36.6521272782040,-3.5574362845936735e-16,-0.9701156768414042,-3.141592653589793
0,120,108,24,0,23.1689627119576,-4.45602064562660e-15,39.9110022441041,-2.650287645291548e-16,-1.1071487177940906,-3.141592653589793
0,120,108,36,0,20.6510077276680,-4.58806965435154e-15,42.7074745614327,-2.2242371036929246e-16,-1.3284186186051112,-3.141592653589793
0,120,108,48,0,17.6066568132085,-4.60766242179709e-15,44.9193249709595,-1.995522233115611e-16,-1.4104461405842503,3.141592653589793
0,120,108,60,0,14.1689627119576,-4.51394265000932e-15,46.4498849961523,-1.871854571284363e-16,-0.7622900222467464,3.141592653589793
0,120,108,72,0,10.4881691520263,-4.31100634273273e-15,47.2322618194685,-1.8168070151794836e-16,-0.18705975568156283,3.141592653589793
0,120,108,84,0,6.72514447439075,-4.00772279039175e-15,47.2322618194685,-1.8168070151794836e-16,0.13725909125494623,3.141592653589793
0,120,120,0,0,27.0000000000000,-3.96573526378987e-15,25.5884572681199,-2.0344439357957027,-1.5707963267948966,-1.1071487177940904
0,120,120,12,0,26.6066568132085,-4.38233135536416e-15,29.3308677028396,-6.502549169613668e-16,-1.3962245081162155,-3.1415926535897927
0,120,120,24,0,25.4438182375668,-4.69728618984037e-15,32.9097168434843,-3.6232318583896817e-16,-1.0198408317424308,-3.141592653589793
0,120,120,36,0,23.5623058987491,-4.89683472963092e-15,36.1685918093844,-2.695816978854545e-16,-1.2157166911780832,-3.141592653589793
0,120,120,48,0,21.0443509144595,-4.97225574600683e-15,38.9650641267130,-2.2602482147140406e-16,-1.5326335159714384,-3.141592653589793
0,120,120,60,0,18.0000000000000,-4.92025297864228e-15,41.1769145362398,-2.0264237178735523e-16,-1.1071487177940906,3.141592653589793
0,120,120,72,0,14.5623058987491,-4.74309919800807e-15,42.7074745614327,-1.899993246911427e-16,-0.5407676682911887,3.141592653589793
0,120,120,84,0,10.8815123388178,-4.44853687439607e-15,43.4898513847488,-1.843715895657299e-16,-0.13725909125494654,3.141592653589793
0,120,120,96,0,7.11848766118224,-4.04943979481497e-15,43.4898513847488,-1.843715895657299e-16,0.10780920740633423,3.141592653589793
5,0,0,0,0,53.7945136969543,4.70641010837354,10.0000000000000,2.356194490192345,-1.5707963267948966,0.8726646259971648
5,0,12,0,0,53.0108209025299,4.63784587317445,2.51517913056066,3.1415926535897927,-1.361356816555577,0.08726646259971675
5,0,12,12,0,53.4026672997421,4.67212799077399,6.25758956528033,2.3348126653782164,-1.5707963267948966,0.8940464508112933
5,0,24,24,0,52.2442536759513,4.57077993101831,2.67874042463559,2.2767868872244277,-1.5707963267948966,0.952072228965082
5,12,0,0,0,52.6189745053177,4.60356375557491,21.2272313041590,2.33278948544632e-16,-1.3613568165555767,-3.054326190990077
5,12,12,0,0,53.4026672997421,4.67212799077400,13.7424104347197,2.378531369423474,-1.5707963267948966,0.8503277467660355
5,12,12,12,0,53.0108209025299,4.63784587317445,17.4848208694393,2.204073920151379e-16,-1.361356816555577,-3.054326190990077
5,12,24,0,0,52.6189745053177,4.60356375557491,6.25758956528033,3.1415926535897927,-1.361356816555577,0.08726646259971671
5,12,24,12,0,53.0108209025299,4.63784587317445,10.0000000000000,2.356194490192345,-1.5707963267948966,0.8726646259971648
5,12,24,24,0,52.6189745053177,4.60356375557491,13.7424104347197,2.33278948544632e-16,-1.361356816555577,-3.054326190990077
5,12,36,12,0,51.4605608815269,4.50221569581922,2.67874042463560,3.1415926535897927,-1.361356816555577,0.08726646259971672
5,12,36,24,0,51.8524072787391,4.53649781341877,6.42115085935527,1.65335157783536,-1.5707963267948966,1.5755075383541495
5,12,48,36,0,49.9780546624146,4.37251320804022,3.16227589345515,2.529577687131433,-1.5707963267948966,0.6992814290580767
5,12,48,48,0,49.5862082652024,4.33823109044068,6.90468632817482,3.329006941523757e-16,-1.3613568165555774,-3.054326190990077
5,12,60,48,0,47.4696812570316,4.15305897117929,0.365803576126575,0.7549486570649259,-1.5707963267948966,2.4739104591245837
5,12,60,60,0,47.0778348598194,4.11877685357975,4.10821401084624,4.1529693490939388e-16,-1.3613568165555774,-3.054326190990077
5,24,0,0,0,49.1437336339452,4.29951957630787,31.9637787260932,8.931308298343261e-17,-1.1519173063162582,-3.0543261909900767
5,24,0,108,0,20.7639705663559,1.81661203434210,38.0191260093219,2.1163900799650546e-17,0.7330382858376181,-3.0543261909900767
5,24,12,0,0,51.4605608815268,4.50221569581923,24.8060804448037,1.9522682774106946e-16,-1.3613568165555767,-3.054326190990077
5,24,12,12,0,50.3021472577360,4.40086763606355,28.3849295854485,6.986196907433759e-17,-1.1519173063162582,-3.0543261909900767
5,24,24,0,0,52.2442536759513,4.57077993101831,17.3212595753644,2.450549755584126,-1.5707963267948966,0.7783093606053838
5,24,24,12,0,51.8524072787391,4.53649781341877,21.0636700100841,1.8235527121157536e-16,-1.3613568165555767,-3.054326190990077
5,24,24,24,0,50.6939936549482,4.43514975366309,24.6425191507288,6.328241169473665e-17,-1.1519173063162582,-3.0543261909900767
5,24,36,0,0,51.4605608815268,4.50221569581923,9.83643870592507,3.141592653589793,-1.361356816555577,0.08726646259971664
5,24,36,12,0,51.8524072787391,4.53649781341877,13.5788491406447,1.6776847704579603,-1.5707963267948966,1.5511743457315494
5,24,36,24,0,51.4605608815268,4.50221569581923,17.3212595753644,1.9522682774106938e-16,-1.361356816555577,-3.054326190990077
5,24,48,0,0,49.1437336339452,4.29951957630786,2.67874042463560,3.141592653589793,-1.1519173063162575,0.08726646259971652
5,24,48,12,0,50.3021472577360,4.40086763606354,6.25758956528033,3.1415926535897927,-1.361356816555577,0.08726646259971668
5,24,48,24,0,50.6939936549482,4.43514975366309,10.0000000000000,2.356194490192345,-1.5707963267948966,0.8726646259971649
5,24,48,36,0,50.3021472577360,4.40086763606354,13.7424104347197,2.332789485446321e-16,-1.3613568165555772,-3.054326190990077
5,24,48,48,0,49.1437336339452,4.29951957630787,17.3212595753644,8.931308298343261e-17,-1.1519173063162567,-3.054326190990077
5,24,60,24,0,48.4277946414116,4.23688303068500,2.99871459938022,3.1415926535897927,-1.3613568165555772,0.0872664625997167
5,24,60,36,0,48.8196410386238,4.27116514828454,6.74112503409989,0.9787427702526641,-1.5707963267948966,2.250116345936845
5,24,60,48,0,48.4277946414116,4.23688303068500,10.4835354688196,2.948485733488128e-16,-1.3613568165555772,-3.054326190990077
5,24,60,60,0,47.2693810176208,4.13553497092932,14.0623846094643,1.207856464073942e-16,-1.1519173063162569,-3.054326190990077
5,24,72,36,0,45.9194212360286,4.01742879382407,0.202242282051640,3.1415926535897927,-1.3613568165555772,0.08726646259971677
5,24,72,48,0,46.3112676332408,4.05171091142361,3.94465271677131,1.0709099187369728,-1.5707963267948966,2.157949197452537
5,24,72,60,0,45.9194212360286,4.01742879382407,7.68706315149097,3.772448141058315e-16,-1.3613568165555776,-3.054326190990077
5,24,72,72,0,44.7610076122378,3.91608073406839,11.2659122921357,1.629041573024803e-16,-1.1519173063162573,-3.054326190990077
5,24,84,60,0,43.2785013931255,3.78637824628939,1.73280230724451,2.5655785539708362,-1.5707963267948963,0.6632805622186732
5,24,84,84,0,41.7282413721225,3.65074806893416,9.05406188260891,2.1382783463553693e-16,-1.1519173063162575,-3.054326190990077
5,24,96,72,0,39.8538887557981,3.48676346355562,0.202242282051636,2.475900611742382,-1.5707963267948963,0.7529585044471275
5,24,96,84,0,39.4620423585859,3.45248134595607,3.94465271677131,5.89359861850813e-16,-1.361356816555577,-3.0543261909900776
5,24,96,96,0,38.3036287347951,3.35113328620039,7.52350185741604,2.713310693481945e-16,-1.1519173063162578,-3.054326190990077
5,36,0,0,0,43.5206757849719,3.80756576017223,41.7404036237935,4.294233900667578e-17,-0.9424777960769387,-3.0543261909900767
5,36,0,96,0,17.0152653337069,1.48864282358501,44.5368759411221,2.1163900799650555e-17,0.7330382858376183,-3.0543261909900767
5,36,0,108,0,14.5068919283240,1.26918858672408,41.7404036237936,4.2942339006675746e-17,0.9424777960769375,-3.0543261909900767
5,36,12,0,0,47.2693810176208,4.13553497092932,35.2226536919933,5.784051955947104e-17,-1.1519173063162582,-3.0543261909900767
5,36,12,12,0,45.3950284012963,3.97155036555078,38.4815286578934,2.1163900799650567e-17,-0.9424777960769387,-3.0543261909900767
5,36,12,108,0,18.8896179500314,1.65262742896355,41.2780009752220,3.9383959489251254e-18,0.7330382858376183,-3.0543261909900767
5,36,24,0,0,49.5862082652024,4.33823109044068,28.0649554107038,1.3365720293688837e-16,-1.3613568165555767,-3.054326190990077
5,36,24,12,0,48.4277946414116,4.23688303068500,31.6438045513486,3.8389405650376e-17,-1.1519173063162582,-3.0543261909900767
5,36,24,24,0,46.5534420250871,4.07289842530646,34.9026795172487,7.704085765819665e-18,-0.9424777960769387,-3.0543261909900767
5,36,36,0,0,50.3699010596268,4.40679532563977,20.5801345412645,2.588018294692748,-1.5707963267948966,0.6408408214967618
5,36,36,12,0,49.9780546624146,4.37251320804022,24.3225449759842,1.2078564640739425e-16,-1.3613568165555767,-3.054326190990077
5,36,36,24,0,48.8196410386238,4.27116514828455,27.9013941166289,3.1809848270775063e-17,-1.1519173063162582,-3.0543261909900767
5,36,48,0,0,49.5862082652024,4.33823109044068,13.0953136718252,3.141592653589793,-1.361356816555577,0.08726646259971656
5,36,48,12,0,49.9780546624146,4.37251320804022,16.8377241065448,2.807517839205436,-1.5707963267948966,0.4213412769840734
5,36,48,24,0,49.5862082652024,4.33823109044068,20.5801345412645,1.3365720293688842e-16,-1.361356816555577,-3.054326190990077
5,36,48,36,0,48.4277946414116,4.23688303068500,24.1589836819092,3.8389405650376024e-17,-1.1519173063162587,-3.0543261909900767
5,36,48,48,0,46.5534420250871,4.07289842530646,27.4178586478094,7.70408576581967e-18,-0.9424777960769389,-3.0543261909900767
5,36,60,0,0,47.2693810176208,4.13553497092932,5.93761539053571,3.141592653589793,-1.1519173063162575,0.08726646259971647
5,36,60,12,0,48.4277946414116,4.23688303068500,9.51646453118045,3.141592653589793,-1.3613568165555772,0.08726646259971657
5,36,60,24,0,48.8196410386238,4.27116514828454,13.2588749659001,0.7715663236475413,-1.5707963267948966,2.4572927925419683
5,36,60,36,0,48.4277946414116,4.23688303068500,17.0012854006198,1.717093237404508e-16,-1.361356816555577,-3.054326190990077
5,36,60,48,0,47.2693810176208,4.13553497092932,20.5801345412645,5.784051955947098e-17,-1.1519173063162567,-3.054326190990077
5,36,60,60,0,45.3950284012963,3.97155036555077,23.8390095071646,2.1163900799650564e-17,-0.9424777960769392,-3.0543261909900767
5,36,72,12,0,45.3950284012963,3.97155036555077,2.67874042463560,3.141592653589793,-1.1519173063162575,0.08726646259971647
5,36,72,24,0,46.5534420250871,4.07289842530645,6.25758956528033,3.1415926535897927,-1.361356816555577,0.08726646259971663
5,36,72,36,0,46.9452884222993,4.10718054290600,10.0000000000000,2.356194490192345,-1.5707963267948966,0.8726646259971648
5,36,72,48,0,46.5534420250871,4.07289842530645,13.7424104347197,2.3327894854463195e-16,-1.3613568165555772,-3.054326190990077
5,36,72,60,0,45.3950284012963,3.97155036555077,17.3212595753644,8.931308298343265e-17,-1.151917306316257,-3.054326190990077
5,36,72,72,0,43.5206757849719,3.80756576017223,20.5801345412645,4.294233900667578e-17,-0.942477796076937,-3.054326190990077
5,36,84,36,0,44.0450686197041,3.85344418844552,3.46111724795175,3.1415926535897927,-1.361356816555577,0.08726646259971668
5,36,84,48,0,44.4369150169163,3.88772630604507,7.20352768267142,2.234085450875415,-1.5707963267948966,0.9947736653140945
5,36,84,60,0,44.0450686197041,3.85344418844552,10.9459381173911,3.1567518930165054e-16,-1.3613568165555776,-3.054326190990077
5,36,84,84,0,41.0123023795889,3.58811152331130,17.7836622239359,7.20875781327072e-17,-0.9424777960769372,-3.054326190990077
5,36,96,48,0,41.0123023795889,3.58811152331130,1.24926683842495,3.1415926535897927,-1.361356816555577,0.08726646259971677
5,36,96,60,0,41.4041487768011,3.62239364091084,4.99167727314461,2.8051408964916575,-1.5707963267948963,0.42371821969785206
5,36,96,72,0,41.0123023795889,3.58811152331130,8.73408770786428,4.1529693490939437e-16,-1.3613568165555767,-3.0543261909900776
5,36,96,84,0,39.8538887557981,3.48676346355562,12.3129368485090,1.8235527121157546e-16,-1.1519173063162575,-3.054326190990077
5,36,96,96,0,37.9795361394736,3.32277885817707,15.5718118144091,1.0732583137356335e-16,-0.9424777960769375,-3.054326190990077
5,36,108,72,0,37.9795361394736,3.32277885817707,3.46111724795175,2.0344439357957027,-1.5707963267948966,1.194415180393807
5,36,108,84,0,37.5876897422614,3.28849674057753,7.20352768267142,5.277902370466315e-16,-1.3613568165555767,-3.0543261909900776
5,36,108,96,0,36.4292761184706,3.18714868082185,10.7823768233162,2.3985850592423283e-16,-1.1519173063162575,-3.054326190990077
5,36,108,108,0,34.5549235021462,3.02316407544330,14.0412517892163,1.4711701797071923e-16,-0.9424777960769377,-3.054326190990077
5,48,0,0,0,35.9955555688229,3.14920304958945,50.1298205757793,2.1163900799650558e-17,-0.7330382858376189,-3.0543261909900767
5,48,0,84,0,11.9985185229410,1.04973434986315,50.1298205757793,2.1163900799650555e-17,0.7330382858376183,-3.0543261909900767
5,48,0,96,0,9.49014511755798,0.830280113002221,47.3333482584507,4.294233900667577e-17,0.9424777960769377,-3.0543261909900767
5,48,0,108,0,7.61579250123352,0.666295507623676,44.0744732925506,8.931308298343258e-17,1.1519173063162569,-3.0543261909900767
5,48,12,0,0,41.0123023795889,3.58811152331130,44.5368759411221,1.379709988064436e-17,-0.9424777960769386,-3.0543261909900767
5,48,12,12,0,38.5039289742059,3.36865728645038,47.3333482584507,-1.8883242115561537e-18,-0.7330382858376189,-3.0543261909900767
5,48,12,96,0,14.5068919283240,1.26918858672408,47.3333482584507,-1.8883242115561518e-18,0.7330382858376185,-3.0543261909900767
5,48,12,108,0,11.9985185229410,1.04973434986315,44.5368759411221,1.3797099880644342e-17,0.9424777960769377,-3.0543261909900767
5,48,24,0,0,44.7610076122378,3.91608073406839,38.0191260093219,1.572200866438492e-17,-1.1519173063162582,-3.0543261909900767
5,48,24,12,0,42.8866549959133,3.75209612868985,41.2780009752220,-7.981338326380856e-18,-0.9424777960769386,-3.0543261909900767
5,48,24,24,0,40.3782815905303,3.53264189182892,44.0744732925506,-1.9113829062281577e-17,-0.733038285837619,-3.0543261909900767
5,48,24,108,0,16.3812445446484,1.43317319210262,44.0744732925506,-1.911382906228158e-17,0.7330382858376185,-3.0543261909900767
5,48,36,0,0,47.0778348598194,4.11877685357975,30.8614277280324,5.126096217987007e-17,-1.3613568165555776,-3.0543261909900767
5,48,36,12,0,45.9194212360286,4.01742879382407,34.4402768686772,-3.7291052447101166e-18,-1.1519173063162582,-3.0543261909900767
5,48,36,24,0,44.0450686197041,3.85344418844553,37.6991518345773,-2.144115336021176e-17,-0.9424777960769387,-3.0543261909900767
5,48,48,0,0,47.8615276542438,4.18734108877884,23.3766068585931,2.8154135836976093,-1.5707963267948966,0.4134455324919005
5,48,48,12,0,47.4696812570316,4.15305897117930,27.1190172933128,3.838940565037598e-17,-1.3613568165555776,-3.0543261909900767
5,48,48,24,0,46.3112676332408,4.05171091142362,30.6978664339575,-1.030866262431104e-17,-1.1519173063162582,-3.0543261909900767
5,48,48,36,0,44.4369150169163,3.88772630604507,33.9567413998576,-2.5994086716511547e-17,-0.9424777960769389,-3.0543261909900767
5,48,48,48,0,41.9285416115334,3.66827206918414,36.7532137171862,-3.3360887635517745e-17,-0.7330382858376192,-3.0543261909900767
5,48,60,0,0,47.0778348598194,4.11877685357975,15.8917859891538,3.141592653589793,-1.3613568165555772,0.08726646259971647
5,48,60,12,0,47.4696812570316,4.15305897117929,19.6341964238734,0.21856419482485923,-1.5707963267948966,3.0102949213646504
5,48,60,24,0,47.0778348598194,4.11877685357975,23.3766068585931,5.126096217986998e-17,-1.3613568165555765,-3.054326190990077
5,48,60,36,0,45.9194212360286,4.01742879382407,26.9554559992378,-3.729105244710138e-18,-1.1519173063162582,-3.0543261909900767
5,48,60,48,0,44.0450686197041,3.85344418844553,30.2143309651380,-2.1441153360211777e-17,-0.9424777960769388,-3.0543261909900767
5,48,60,60,0,41.5366952143212,3.63398995158460,33.0108032824665,-2.9759776533406075e-17,-0.7330382858376193,-3.0543261909900767
5,48,72,0,0,44.7610076122378,3.91608073406839,8.73408770786429,3.141592653589793,-1.1519173063162575,0.08726646259971639
5,48,72,12,0,45.9194212360286,4.01742879382407,12.3129368485090,3.141592653589793,-1.3613568165555772,0.08726646259971647
5,48,72,24,0,46.3112676332408,4.05171091142361,16.0553472832287,0.5612153175950547,-1.5707963267948966,2.667643798594455
5,48,72,36,0,45.9194212360286,4.01742879382407,19.7977577179484,8.931308298343255e-17,-1.3613568165555767,-3.054326190990077
5,48,72,48,0,44.7610076122378,3.91608073406839,23.3766068585931,1.572200866438489e-17,-1.1519173063162567,-3.054326190990077
5,48,72,60,0,42.8866549959133,3.75209612868985,26.6354818244932,-7.981338326380863e-18,-0.9424777960769392,-3.0543261909900767
5,48,72,72,0,40.3782815905303,3.53264189182892,29.4319541418218,-1.9113829062281583e-17,-0.7330382858376195,-3.0543261909900767
5,48,84,0,0,41.0123023795889,3.58811152331130,2.21633777606406,3.141592653589793,-0.9424777960769379,0.08726646259971638
5,48,84,12,0,42.8866549959133,3.75209612868984,5.47521274196418,3.141592653589793,-1.1519173063162575,0.0872664625997164
5,48,84,24,0,44.0450686197041,3.85344418844552,9.05406188260891,3.141592653589793,-1.361356816555577,0.08726646259971652
5,48,84,36,0,44.4369150169163,3.88772630604507,12.7964723173286,2.517419969760606,-1.5707963267948966,0.7114391464289036
5,48,84,48,0,44.0450686197041,3.85344418844552,16.5388827520482,1.5088270778761369e-16,-1.361356816555577,-3.054326190990077
5,48,84,60,0,42.8866549959133,3.75209612868984,20.1177318926930,4.7194572088346543e-17,-1.151917306316257,-3.054326190990077
5,48,84,84,0,38.5039289742059,3.36865728645037,26.1730791759217,-1.888324211556159e-18,-0.7330382858376172,-3.054326190990077
5,48,96,24,0,40.3782815905303,3.53264189182891,2.67874042463560,3.141592653589793,-1.1519173063162575,0.08726646259971643
5,48,96,36,0,41.5366952143212,3.63398995158459,6.25758956528033,3.1415926535897927,-1.361356816555577,0.08726646259971658
5,48,96,48,0,41.9285416115334,3.66827206918414,10.0000000000000,2.356194490192345,-1.5707963267948966,0.8726646259971648
5,48,96,60,0,41.5366952143212,3.63398995158459,13.7424104347197,2.3327894854463225e-16,-1.3613568165555774,-3.054326190990077
5,48,96,72,0,40.3782815905303,3.53264189182892,17.3212595753644,8.931308298343265e-17,-1.1519173063162573,-3.054326190990077
5,48,96,84,0,38.5039289742059,3.36865728645037,20.5801345412645,4.294233900667578e-17,-0.9424777960769372,-3.054326190990077
5,48,96,96,0,35.9955555688229,3.14920304958944,23.3766068585931,2.1163900799650558e-17,-0.7330382858376174,-3.054326190990077
5,48,108,36,0,37.3455153504151,3.26730922669469,0.466890015108799,3.141592653589793,-1.1519173063162575,0.08726646259971647
5,48,108,48,0,38.5039289742059,3.36865728645037,4.04573915575354,3.1415926535897927,-1.3613568165555772,0.08726646259971665
5,48,108,60,0,38.8957753714181,3.40293940404991,7.78814959047320,2.212527587229747,-1.5707963267948966,1.0163315289597625
5,48,108,72,0,38.5039289742059,3.36865728645037,11.5305600251929,3.329006941523755e-16,-1.3613568165555774,-3.054326190990077
5,48,108,84,0,37.3455153504151,3.26730922669469,15.1094091658376,1.4023676031648915e-16,-1.1519173063162573,-3.054326190990077
5,48,108,96,0,35.4711627340906,3.10332462131614,18.3682841317377,7.818059224753183e-17,-0.9424777960769372,-3.054326190990077
5,48,108,108,0,32.9627893287077,2.88387038445522,21.1647564490663,4.903535312150045e-17,-0.7330382858376175,-3.054326190990077
5,48,120,60,0,35.0793163368784,3.06904250371660,2.51517913056067,3.1415926535897927,-1.3613568165555772,0.08726646259971675
5,60,0,0,0,26.8972568484771,2.35320505418677,56.7653718043597,9.472675957626139e-18,-0.5235987755982994,-3.0543261909900767
5,60,0,72,0,5.93298604271046,0.519069019594700,54.5535213948329,2.116390079965054e-17,0.733038285837618,-3.0543261909900767
5,60,12,0,0,32.9627893287077,2.88387038445522,52.3416709853061,-6.707551522199349e-18,-0.733038285837619,-3.0543261909900767
5,60,12,12,0,29.9300230885924,2.61853771932100,54.5535213948329,-1.4444088471005102e-17,-0.5235987755982994,-3.0543261909900767
5,60,12,96,0,6.45737887744272,0.564947447867996,49.5451986679775,7.704085765819646e-18,0.9424777960769377,-3.0543261909900767
5,60,24,0,0,37.9795361394736,3.32277885817708,46.7487263506489,-2.1441153360211743e-17,-0.9424777960769387,-3.0543261909900767
5,60,24,12,0,35.4711627340906,3.10332462131615,49.5451986679775,-2.9759776533406057e-17,-0.7330382858376191,-3.0543261909900767
5,60,24,24,0,32.4383964939754,2.83799195618192,51.7570490775043,-3.422542705294227e-17,-0.5235987755982994,-3.0543261909900767
5,60,24,96,0,11.4741256882087,1.00385592158985,49.5451986679775,-2.975977653340607e-17,0.7330382858376185,-3.0543261909900767
5,60,24,108,0,8.96575228282572,0.784401684728924,46.7487263506489,-2.1441153360211768e-17,0.9424777960769378,-3.0543261909900767
5,60,36,0,0,41.7282413721225,3.65074806893417,40.2309764188487,-3.5201668668671675e-17,-1.1519173063162582,-3.0543261909900767
5,60,36,12,0,39.8538887557981,3.48676346355562,43.4898513847488,-4.321959156723695e-17,-0.9424777960769387,-3.0543261909900767
5,60,36,24,0,37.3455153504151,3.26730922669469,46.2863237020774,-4.698528138413148e-17,-0.7330382858376191,-3.0543261909900767
5,60,36,108,0,13.3484783045332,1.16784052696840,46.2863237020774,-4.698528138413148e-17,0.7330382858376185,-3.0543261909900767
5,60,48,0,0,44.0450686197041,3.85344418844553,33.0732781375592,-4.8360783427873505e-17,-1.3613568165555776,-3.0543261909900767
5,60,48,12,0,42.8866549959133,3.75209612868985,36.6521272782040,-5.4652782577766706e-17,-1.1519173063162582,-3.0543261909900767
5,60,48,24,0,41.0123023795889,3.58811152331130,39.9110022441041,-5.667940660106785e-17,-0.9424777960769387,-3.0543261909900767
5,60,48,36,0,38.5039289742059,3.36865728645037,42.7074745614327,-5.763122885525597e-17,-0.7330382858376192,-3.0543261909900767
5,60,48,48,0,35.4711627340906,3.10332462131615,44.9193249709595,-5.814219148157351e-17,-0.5235987755982996,-3.0543261909900767
5,60,60,0,0,44.8287614141286,3.92200842364461,25.5884572681199,3.141592653589793,-1.5707963267948966,0.08726646259971657
5,60,60,12,0,44.4369150169164,3.88772630604507,29.3308677028396,-6.123233995736761e-17,-1.3613568165555774,-3.0543261909900767
5,60,60,24,0,43.2785013931255,3.78637824628939,32.9097168434843,-6.123233995736764e-17,-1.1519173063162582,-3.0543261909900767
5,60,60,36,0,41.4041487768011,3.62239364091085,36.1685918093844,-6.123233995736765e-17,-0.9424777960769387,-3.0543261909900767
